/* XPM */
static char * D:\Charles\Downloads\dst_icon_lrg_xpm[] = {
"256 256 6526 2",
"  	c None",
". 	c #000000",
"+ 	c #13130D",
"@ 	c #2C2C1F",
"# 	c #8B8960",
"$ 	c #FFFFB6",
"% 	c #B5B37F",
"& 	c #5E5A3F",
"* 	c #303021",
"= 	c #27271B",
"- 	c #11110C",
"; 	c #010101",
"> 	c #2A2A1D",
", 	c #AEAC7A",
"' 	c #FFFFB4",
") 	c #FFFCB2",
"! 	c #FFF7AE",
"~ 	c #FFF9B0",
"{ 	c #FFFDB3",
"] 	c #FFFFB5",
"^ 	c #FFFFB8",
"/ 	c #FFFFB9",
"( 	c #D5D59A",
"_ 	c #B3B37E",
": 	c #4D4D37",
"< 	c #25251A",
"[ 	c #171711",
"} 	c #0A0A07",
"| 	c #030302",
"1 	c #0F0E0A",
"2 	c #323022",
"3 	c #B8B47F",
"4 	c #FFFFBB",
"5 	c #FFF6AD",
"6 	c #FFE09E",
"7 	c #FFFAB0",
"8 	c #FFF8AF",
"9 	c #FFFBB0",
"0 	c #FFFBB1",
"a 	c #FFF9AF",
"b 	c #FFFFB7",
"c 	c #FFFEB5",
"d 	c #FFFFBE",
"e 	c #A7A777",
"f 	c #636347",
"g 	c #3B3A29",
"h 	c #12120C",
"i 	c #080806",
"j 	c #040403",
"k 	c #090906",
"l 	c #54513A",
"m 	c #D6CF93",
"n 	c #FFFEB2",
"o 	c #FFF2AA",
"p 	c #FFFBB2",
"q 	c #FFFCB1",
"r 	c #FFFFBA",
"s 	c #FFEFA9",
"t 	c #FFFEB3",
"u 	c #FFFEB4",
"v 	c #FFF8AE",
"w 	c #FFFDB2",
"x 	c #F7E2A0",
"y 	c #9B9A6C",
"z 	c #343223",
"A 	c #15140E",
"B 	c #0C0C08",
"C 	c #050504",
"D 	c #050503",
"E 	c #827E59",
"F 	c #E2DA99",
"G 	c #FFF5AD",
"H 	c #FFFFB3",
"I 	c #FFFFBD",
"J 	c #FFFFBC",
"K 	c #FFEFA8",
"L 	c #FFF0AA",
"M 	c #FFF5AC",
"N 	c #F8F8B1",
"O 	c #C0C08E",
"P 	c #7F7F5B",
"Q 	c #29271D",
"R 	c #0B0B08",
"S 	c #020202",
"T 	c #11100B",
"U 	c #8A805B",
"V 	c #F1E4A1",
"W 	c #FFFEB6",
"X 	c #FFFFC0",
"Y 	c #FFFFBF",
"Z 	c #FFFAAF",
"` 	c #F4F4AE",
" .	c #91916B",
"..	c #444432",
"+.	c #1A1A13",
"@.	c #0B0B07",
"#.	c #8E8C63",
"$.	c #EDE6A2",
"%.	c #FCF1A9",
"&.	c #FFECA6",
"*.	c #FFEEA7",
"=.	c #FFF3AC",
"-.	c #FFF8B0",
";.	c #FFFFC1",
">.	c #FFFFC2",
",.	c #FFFAB1",
"'.	c #FEFEB7",
").	c #FBFBB3",
"!.	c #F3F3AD",
"~.	c #DBDB9F",
"{.	c #7E7E5C",
"].	c #13130E",
"^.	c #242218",
"/.	c #9E996B",
"(.	c #EDDD9C",
"_.	c #FAE7A3",
":.	c #FFF4AD",
"<.	c #FFF4AC",
"[.	c #FFF1AB",
"}.	c #FFF2AB",
"|.	c #FFFCB3",
"1.	c #FFF9B1",
"2.	c #FDFDB3",
"3.	c #FCFCB2",
"4.	c #F6F6AE",
"5.	c #DDDC9C",
"6.	c #A79E71",
"7.	c #686547",
"8.	c #0D0C09",
"9.	c #474430",
"0.	c #BAAF7B",
"a.	c #E8DA9A",
"b.	c #F8EFA9",
"c.	c #FFF7AF",
"d.	c #FFF3AB",
"e.	c #FFFFC9",
"f.	c #FFFFC3",
"g.	c #FFD799",
"h.	c #FFF0A9",
"i.	c #FAFAB4",
"j.	c #F4F0A9",
"k.	c #948E64",
"l.	c #534F38",
"m.	c #B9B17D",
"n.	c #E8E29F",
"o.	c #FBF3AB",
"p.	c #FFF6AE",
"q.	c #FFF4AB",
"r.	c #FFFDB1",
"s.	c #FFFCB5",
"t.	c #FFFBB3",
"u.	c #FFFAB2",
"v.	c #FFF7AD",
"w.	c #F3EBA6",
"x.	c #656346",
"y.	c #58543B",
"z.	c #BEB781",
"A.	c #E8E2A0",
"B.	c #FAF3AB",
"C.	c #FEEDA6",
"D.	c #FEF0A9",
"E.	c #FFFDB5",
"F.	c #FFFFC4",
"G.	c #E3DC9B",
"H.	c #42422E",
"I.	c #BCB17E",
"J.	c #E2D797",
"K.	c #FDF2AB",
"L.	c #FCEFA9",
"M.	c #FDF0A9",
"N.	c #FDF5AE",
"O.	c #FEF9B0",
"P.	c #FEEEA8",
"Q.	c #FEEDA7",
"R.	c #FEFAB1",
"S.	c #FFEDA7",
"T.	c #FFFCB0",
"U.	c #FFF1AA",
"V.	c #FFF8AD",
"W.	c #FFF9AE",
"X.	c #FFFEB7",
"Y.	c #FFF1A9",
"Z.	c #CDC98E",
"`.	c #1C1B13",
" +	c #948B63",
".+	c #F3E5A1",
"++	c #FAEDA7",
"@+	c #FAF1A9",
"#+	c #FBF1AA",
"$+	c #FCF4AB",
"%+	c #FDF4AC",
"&+	c #FDEFA8",
"*+	c #FEF8AF",
"=+	c #FEFDB5",
"-+	c #FEFBB0",
";+	c #FFFFC5",
">+	c #B5B580",
",+	c #060605",
"'+	c #555139",
")+	c #E8DC9B",
"!+	c #FEEAA5",
"~+	c #FDECA6",
"{+	c #FEEDA8",
"]+	c #FEF1AA",
"^+	c #FEF6AD",
"/+	c #FFFFC6",
"(+	c #FFFDB4",
"_+	c #A4A372",
":+	c #2D2A1E",
"<+	c #D7CC90",
"[+	c #FFF6AC",
"}+	c #FFEAA6",
"|+	c #FFFFC7",
"1+	c #FDFDB6",
"2+	c #676547",
"3+	c #070705",
"4+	c #B9A172",
"5+	c #ECE3A0",
"6+	c #4A4934",
"7+	c #272419",
"8+	c #F4E5A0",
"9+	c #FEFEB3",
"0+	c #FCF9B0",
"a+	c #F8ECA6",
"b+	c #F7EFA8",
"c+	c #F7F0A9",
"d+	c #F9E8A4",
"e+	c #FAF5AD",
"f+	c #FBFAB0",
"g+	c #FCFDB5",
"h+	c #FDF7AE",
"i+	c #FEF6AE",
"j+	c #FEFCB3",
"k+	c #FEFEB4",
"l+	c #FFFFCC",
"m+	c #FFFFCB",
"n+	c #D0CA90",
"o+	c #27271C",
"p+	c #534E37",
"q+	c #FFEAA5",
"r+	c #FFEBA6",
"s+	c #FFE8A4",
"t+	c #FFECA7",
"u+	c #F9F2AC",
"v+	c #F3EAA5",
"w+	c #EEE4A1",
"x+	c #EDE5A1",
"y+	c #EEEAA5",
"z+	c #F0ECA7",
"A+	c #F3F1AA",
"B+	c #F6F5AD",
"C+	c #F7F4AC",
"D+	c #F9F0AA",
"E+	c #FAF6AE",
"F+	c #FCFBB1",
"G+	c #FDF8AF",
"H+	c #FEFDB3",
"I+	c #FEFCB1",
"J+	c #FEFFB5",
"K+	c #FFFFC8",
"L+	c #B5B07C",
"M+	c #12120D",
"N+	c #8F825B",
"O+	c #FEF2AA",
"P+	c #FBF0A9",
"Q+	c #F7EAA4",
"R+	c #F2E8A3",
"S+	c #EDEAA6",
"T+	c #EDE7A3",
"U+	c #EEEAA6",
"V+	c #F0E9A5",
"W+	c #F3EFA9",
"X+	c #F5F4AC",
"Y+	c #F7F6AD",
"Z+	c #F9F7AE",
"`+	c #FCFCB8",
" @	c #FDFDB5",
".@	c #FFFFCF",
"+@	c #FFFFD0",
"@@	c #FFFFCA",
"#@	c #918D63",
"$@	c #060504",
"%@	c #CEB781",
"&@	c #FFE8A3",
"*@	c #FFDD9D",
"=@	c #FFE7A3",
"-@	c #FEF3AB",
";@	c #FCFAB1",
">@	c #FAF8AF",
",@	c #F8F3AB",
"'@	c #F8E8A3",
")@	c #E3BA82",
"!@	c #EBC98D",
"~@	c #EBD899",
"{@	c #FAEEA8",
"]@	c #FEFAB0",
"^@	c #FEFDB4",
"/@	c #FFFFCD",
"(@	c #6B6648",
"_@	c #080705",
":@	c #F7DD9D",
"<@	c #FFE4A0",
"[@	c #FFE2A0",
"}@	c #FFDC9B",
"|@	c #FFE9A3",
"1@	c #FFEEA8",
"2@	c #FEF1A9",
"3@	c #ECC38A",
"4@	c #B08760",
"5@	c #6E563D",
"6@	c #7D6245",
"7@	c #8D6E4D",
"8@	c #75593F",
"9@	c #8B6F4E",
"0@	c #E6D496",
"a@	c #FAF4AE",
"b@	c #FFFFCE",
"c@	c #F5ECA6",
"d@	c #4D4A34",
"e@	c #1E1C14",
"f@	c #FFEBA5",
"g@	c #FFE6A2",
"h@	c #FFEDA6",
"i@	c #ECC78D",
"j@	c #967452",
"k@	c #493929",
"l@	c #0F0C08",
"m@	c #030202",
"n@	c #4A3A29",
"o@	c #403223",
"p@	c #050402",
"q@	c #1C1610",
"r@	c #463625",
"s@	c #483525",
"t@	c #5A422F",
"u@	c #AE9065",
"v@	c #ECD798",
"w@	c #FEF5AC",
"x@	c #E1D999",
"y@	c #2A291D",
"z@	c #48432E",
"A@	c #E8CB8F",
"B@	c #7C5D42",
"C@	c #2C2319",
"D@	c #0A0805",
"E@	c #040302",
"F@	c #050403",
"G@	c #120E09",
"H@	c #281F16",
"I@	c #040303",
"J@	c #0B0906",
"K@	c #0D0907",
"L@	c #15100C",
"M@	c #080704",
"N@	c #100C09",
"O@	c #423122",
"P@	c #927552",
"Q@	c #D8BF87",
"R@	c #F9F2B2",
"S@	c #BCB881",
"T@	c #181811",
"U@	c #968860",
"V@	c #FFEFAA",
"W@	c #FCE3A0",
"X@	c #AD865F",
"Y@	c #0E0B08",
"Z@	c #0D0A07",
"`@	c #261D15",
" #	c #120E0A",
".#	c #110D09",
"+#	c #0C0A07",
"@#	c #5B4833",
"##	c #14100B",
"$#	c #060403",
"%#	c #070604",
"&#	c #604B35",
"*#	c #90704F",
"=#	c #8C6E4D",
"-#	c #7B6144",
";#	c #3A2C1F",
">#	c #020201",
",#	c #19110C",
"'#	c #6C533A",
")#	c #C7AF7C",
"!#	c #F2EAAA",
"~#	c #FEFCC0",
"{#	c #FFFFD1",
"]#	c #968F65",
"^#	c #E4D395",
"/#	c #FEF4AD",
"(#	c #FEEAA4",
"_#	c #DAAE7B",
":#	c #53412D",
"<#	c #070504",
"[#	c #261E15",
"}#	c #6C543B",
"|#	c #2A2218",
"1#	c #1F1810",
"2#	c #17130D",
"3#	c #3A2F21",
"4#	c #362A1D",
"5#	c #1D1610",
"6#	c #4F3F2D",
"7#	c #937351",
"8#	c #8B6D4D",
"9#	c #8F7050",
"0#	c #584530",
"a#	c #090705",
"b#	c #241D14",
"c#	c #826748",
"d#	c #6F563E",
"e#	c #3D3021",
"f#	c #0F0A07",
"g#	c #3C2B1F",
"h#	c #947753",
"i#	c #EBDB9B",
"j#	c #FDFCBE",
"k#	c #FFFFD3",
"l#	c #FFFFD2",
"m#	c #FFFFD5",
"n#	c #615F43",
"o#	c #060604",
"p#	c #0B0A07",
"q#	c #FFDA99",
"r#	c #FFE9A5",
"s#	c #FEE4A0",
"t#	c #FEE6A3",
"u#	c #FEECA6",
"v#	c #FEEBA6",
"w#	c #EFC58A",
"x#	c #795D41",
"y#	c #17120D",
"z#	c #352A1E",
"A#	c #876A4A",
"B#	c #433626",
"C#	c #3D2F21",
"D#	c #16100C",
"E#	c #382C1F",
"F#	c #0D0C08",
"G#	c #413324",
"H#	c #0A0906",
"I#	c #30261B",
"J#	c #8F714F",
"K#	c #917250",
"L#	c #7F6446",
"M#	c #211A12",
"N#	c #53412E",
"O#	c #947352",
"P#	c #957552",
"Q#	c #745B41",
"R#	c #30251B",
"S#	c #0F0B09",
"T#	c #221B13",
"U#	c #090704",
"V#	c #2A2017",
"W#	c #866749",
"X#	c #C19D6D",
"Y#	c #E8D999",
"Z#	c #3B3828",
"`#	c #1C1912",
" $	c #FFE5A2",
".$	c #FEEFA8",
"+$	c #FEF2AB",
"@$	c #FEF4AC",
"#$	c #FCDA99",
"$$	c #B28961",
"%$	c #2F251A",
"&$	c #0D0B08",
"*$	c #231B14",
"=$	c #251C14",
"-$	c #886C4B",
";$	c #634D36",
">$	c #090706",
",$	c #5E4934",
"'$	c #0C0B07",
")$	c #201911",
"!$	c #1E1811",
"~$	c #16110C",
"{$	c #836749",
"]$	c #8C6E4E",
"^$	c #574531",
"/$	c #0B0806",
"($	c #6C553C",
"_$	c #987755",
":$	c #7F6246",
"<$	c #2B2118",
"[$	c #060603",
"}$	c #18120E",
"|$	c #52402C",
"1$	c #927250",
"2$	c #9C7B57",
"3$	c #86694A",
"4$	c #32271C",
"5$	c #443425",
"6$	c #8C6D4C",
"7$	c #D6BD84",
"8$	c #FFFFD4",
"9$	c #FBF7AE",
"0$	c #514A34",
"a$	c #FFE9A4",
"b$	c #FFECA5",
"c$	c #FDEEA8",
"d$	c #FDEBA6",
"e$	c #FEF1AB",
"f$	c #FDE19D",
"g$	c #E0B07D",
"h$	c #725A3F",
"i$	c #100D09",
"j$	c #5F4A35",
"k$	c #19130D",
"l$	c #7C6144",
"m$	c #876B4B",
"n$	c #15110C",
"o$	c #4C3C2A",
"p$	c #362C1F",
"q$	c #0D0A08",
"r$	c #080604",
"s$	c #201912",
"t$	c #53412F",
"u$	c #735A40",
"v$	c #866A4B",
"w$	c #2E2419",
"x$	c #040202",
"y$	c #31261B",
"z$	c #785F43",
"A$	c #6A533A",
"B$	c #3F3224",
"C$	c #5C4832",
"D$	c #967553",
"E$	c #9B7956",
"F$	c #977753",
"G$	c #987855",
"H$	c #987854",
"I$	c #9B7955",
"J$	c #7E6245",
"K$	c #17110C",
"L$	c #18140D",
"M$	c #644E36",
"N$	c #DAB982",
"O$	c #FFFFD7",
"P$	c #EADE9C",
"Q$	c #A19368",
"R$	c #FEECA7",
"S$	c #FDEBA5",
"T$	c #FDF0AA",
"U$	c #CFA574",
"V$	c #614C36",
"W$	c #30261A",
"X$	c #110D0A",
"Y$	c #71573E",
"Z$	c #5B4832",
"`$	c #685139",
" %	c #B38C63",
".%	c #493829",
"+%	c #282016",
"@%	c #8A6C4D",
"#%	c #2F241A",
"$%	c #211A13",
"%%	c #4E3D2B",
"&%	c #71583E",
"*%	c #130F0A",
"=%	c #493828",
"-%	c #8E704E",
";%	c #31271C",
">%	c #070503",
",%	c #8B6C4C",
"'%	c #987754",
")%	c #937452",
"!%	c #8B6E4E",
"~%	c #806447",
"{%	c #6B543B",
"]%	c #3F3222",
"^%	c #251E14",
"/%	c #0E0A07",
"(%	c #CCA777",
"_%	c #FFFFD6",
":%	c #FFFFD8",
"<%	c #FFF5AE",
"[%	c #FEF5AD",
"}%	c #D4C88E",
"|%	c #100F0A",
"1%	c #ECD093",
"2%	c #FEEBA7",
"3%	c #FDE6A2",
"4%	c #FCE3A1",
"5%	c #FCEBA6",
"6%	c #FDE9A5",
"7%	c #FFD99A",
"8%	c #F7C289",
"9%	c #3C2F21",
"0%	c #090806",
"a%	c #362A1E",
"b%	c #A9845D",
"c%	c #655039",
"d%	c #403324",
"e%	c #271F15",
"f%	c #7D6346",
"g%	c #9C7A57",
"h%	c #281F15",
"i%	c #90714F",
"j%	c #372B1E",
"k%	c #241D13",
"l%	c #493A29",
"m%	c #080605",
"n%	c #070403",
"o%	c #53422F",
"p%	c #896B4C",
"q%	c #2B2318",
"r%	c #271E16",
"s%	c #997854",
"t%	c #8B6D4C",
"u%	c #5D4A34",
"v%	c #19140E",
"w%	c #241C13",
"x%	c #31251B",
"y%	c #3D3022",
"z%	c #2A2117",
"A%	c #1C150F",
"B%	c #090604",
"C%	c #B28F64",
"D%	c #FFFFDC",
"E%	c #FFFFD9",
"F%	c #A39C6E",
"G%	c #0E0C09",
"H%	c #FDE29F",
"I%	c #FFE39F",
"J%	c #FFE7A2",
"K%	c #FEE7A3",
"L%	c #FDEAA5",
"M%	c #FBE6A2",
"N%	c #FBE4A0",
"O%	c #FCE8A4",
"P%	c #FEDD9C",
"Q%	c #F5C187",
"R%	c #A6825B",
"S%	c #71593E",
"T%	c #B99166",
"U%	c #7A6043",
"V%	c #292117",
"W%	c #826747",
"X%	c #AC875F",
"Y%	c #18120D",
"Z%	c #020102",
"`%	c #070704",
" &	c #4D3C2B",
".&	c #9F7D58",
"+&	c #584430",
"@&	c #0B0907",
"#&	c #271F16",
"$&	c #080503",
"%&	c #604C36",
"&&	c #13100B",
"*&	c #0C0A08",
"=&	c #5D4933",
"-&	c #0D0B07",
";&	c #1B160F",
">&	c #362B1E",
",&	c #6D563C",
"'&	c #967653",
")&	c #A6835C",
"!&	c #A9855E",
"~&	c #AB8660",
"{&	c #A9855F",
"]&	c #AA855E",
"^&	c #7C6145",
"/&	c #B48E63",
"(&	c #F4E3A0",
"_&	c #807855",
":&	c #373123",
"<&	c #FDE09E",
"[&	c #FFE19E",
"}&	c #FFE5A1",
"|&	c #FFEDA8",
"1&	c #FDEDA7",
"2&	c #FBE19F",
"3&	c #F9E39F",
"4&	c #FBEAA4",
"5&	c #FCDA9A",
"6&	c #FECC8F",
"7&	c #CA9D70",
"8&	c #231C14",
"9&	c #71593F",
"0&	c #B99266",
"a&	c #A4815B",
"b&	c #3B2E20",
"c&	c #67513A",
"d&	c #443424",
"e&	c #B78E64",
"f&	c #463727",
"g&	c #2B2218",
"h&	c #947552",
"i&	c #70583E",
"j&	c #B48D63",
"k&	c #816547",
"l&	c #110E09",
"m&	c #644E37",
"n&	c #4B3B2A",
"o&	c #1D1811",
"p&	c #0E0B07",
"q&	c #3F3123",
"r&	c #665037",
"s&	c #87694A",
"t&	c #957553",
"u&	c #9A7855",
"v&	c #9D7A57",
"w&	c #A17D59",
"x&	c #A5815B",
"y&	c #B18A62",
"z&	c #C2946A",
"A&	c #C3996B",
"B&	c #BB9267",
"C&	c #B89066",
"D&	c #443525",
"E&	c #E8B982",
"F&	c #FFFEC2",
"G&	c #FFFFDE",
"H&	c #FFFFDB",
"I&	c #ECE09E",
"J&	c #4D4934",
"K&	c #625B40",
"L&	c #FCEAA6",
"M&	c #F8E6A1",
"N&	c #F7E4A0",
"O&	c #F8EAA5",
"P&	c #FAE3A0",
"Q&	c #FECD90",
"R&	c #D1A373",
"S&	c #B58D64",
"T&	c #675139",
"U&	c #403224",
"V&	c #A9855D",
"W&	c #BB9367",
"X&	c #33281D",
"Y&	c #1D1710",
"Z&	c #140F0B",
"`&	c #7E6345",
" *	c #080504",
".*	c #BF9569",
"+*	c #A4815A",
"@*	c #2A2018",
"#*	c #0F0C07",
"$*	c #745B40",
"%*	c #937251",
"&*	c #9A7955",
"**	c #AE875F",
"=*	c #BB9166",
"-*	c #C6986A",
";*	c #DEAF7B",
">*	c #EEC388",
",*	c #F6D999",
"'*	c #FCEFAE",
")*	c #FFF9BC",
"!*	c #FDDA9A",
"~*	c #BA9167",
"{*	c #8D6F4F",
"]*	c #A8825B",
"^*	c #FDEAA9",
"/*	c #FFFFDD",
"(*	c #FFFFDA",
"_*	c #D3CD90",
":*	c #2E2B1F",
"<*	c #8F815B",
"[*	c #FFE6A1",
"}*	c #FCEAA5",
"|*	c #F8E6A2",
"1*	c #F6E5A0",
"2*	c #F6DF9D",
"3*	c #F8E3A0",
"4*	c #F5CC8F",
"5*	c #D9AA78",
"6*	c #8C6D4E",
"7*	c #473828",
"8*	c #16120C",
"9*	c #816548",
"0*	c #5B4732",
"a*	c #B78F65",
"b*	c #624D36",
"c*	c #483928",
"d*	c #644F37",
"e*	c #433425",
"f*	c #5E4A34",
"g*	c #413424",
"h*	c #060503",
"i*	c #614C35",
"j*	c #C3996C",
"k*	c #423325",
"l*	c #1C160F",
"m*	c #513F2C",
"n*	c #1E1810",
"o*	c #060404",
"p*	c #33271C",
"q*	c #A7835C",
"r*	c #C29569",
"s*	c #D7A775",
"t*	c #E9C085",
"u*	c #F5D697",
"v*	c #FFF3B0",
"w*	c #FFFABA",
"x*	c #FCE19F",
"y*	c #B89167",
"z*	c #B38C62",
"A*	c #8A6B4D",
"B*	c #8E6D4D",
"C*	c #F4EAB2",
"D*	c #FFFFE0",
"E*	c #AFA272",
"F*	c #010000",
"G*	c #B6A675",
"H*	c #FDE9A4",
"I*	c #F6E3A0",
"J*	c #F3E3A0",
"K*	c #F4E5A2",
"L*	c #C99D6F",
"M*	c #C0966A",
"N*	c #B38D63",
"O*	c #7B6045",
"P*	c #251E15",
"Q*	c #30251A",
"R*	c #A37F5A",
"S*	c #B08A62",
"T*	c #201A12",
"U*	c #8A6C4C",
"V*	c #9E7C58",
"W*	c #100D08",
"X*	c #896C4C",
"Y*	c #B68F65",
"Z*	c #1E1710",
"`*	c #BA9267",
" =	c #594631",
".=	c #130E0A",
"+=	c #362A1F",
"@=	c #1E1711",
"#=	c #0F0B08",
"$=	c #765D41",
"%=	c #DDB57F",
"&=	c #FFF9B7",
"*=	c #FFFEBD",
"==	c #FDE19E",
"-=	c #B28D63",
";=	c #6E573D",
">=	c #110C0A",
",=	c #987651",
"'=	c #F9F9C3",
")=	c #E6D999",
"!=	c #D7C48A",
"~=	c #F7E9A4",
"{=	c #F7EEA8",
"]=	c #FBF2AA",
"^=	c #F8EBA5",
"/=	c #E0B07C",
"(=	c #997956",
"_=	c #D8A977",
":=	c #8A6D4C",
"<=	c #503E2B",
"[=	c #816647",
"}=	c #795F43",
"|=	c #BE9569",
"1=	c #292017",
"2=	c #53402D",
"3=	c #C89E70",
"4=	c #7F6447",
"5=	c #1B150F",
"6=	c #1F1811",
"7=	c #0A0706",
"8=	c #7A6044",
"9=	c #35291D",
"0=	c #977653",
"a=	c #F3DB9E",
"b=	c #F3C98D",
"c=	c #B78F66",
"d=	c #B68E65",
"e=	c #9D7B57",
"f=	c #846749",
"g=	c #C2A271",
"h=	c #FEFFD1",
"i=	c #DED294",
"j=	c #EFD999",
"k=	c #FDE5A1",
"l=	c #F9EDA7",
"m=	c #FDF8AE",
"n=	c #FBE3A0",
"o=	c #B08A61",
"p=	c #675039",
"q=	c #B48E64",
"r=	c #B89166",
"s=	c #B48D64",
"t=	c #3A2E20",
"u=	c #231B13",
"v=	c #836748",
"w=	c #382B1F",
"x=	c #C0976B",
"y=	c #977654",
"z=	c #9D7C57",
"A=	c #A17E58",
"B=	c #1A140E",
"C=	c #4A3929",
"D=	c #392D20",
"E=	c #937451",
"F=	c #9C7855",
"G=	c #FFF3B5",
"H=	c #FFFDC7",
"I=	c #E6BE84",
"J=	c #BC9469",
"K=	c #B69064",
"L=	c #251D14",
"M=	c #CDB983",
"N=	c #FFFFE2",
"O=	c #FFFFE4",
"P=	c #FFFFE3",
"Q=	c #FFFFDF",
"R=	c #C8BE86",
"S=	c #383323",
"T=	c #FEE5A2",
"U=	c #FEE09E",
"V=	c #FAE4A0",
"W=	c #F7E19F",
"X=	c #F9DE9D",
"Y=	c #F2CB8F",
"Z=	c #9D7B58",
"`=	c #100C08",
" -	c #AF8961",
".-	c #B38C64",
"+-	c #B38B62",
"@-	c #433525",
"#-	c #85684A",
"$-	c #9C7B56",
"%-	c #C49B6D",
"&-	c #4D3C2A",
"*-	c #B18B62",
"=-	c #15110B",
"--	c #856849",
";-	c #7D6145",
">-	c #654F38",
",-	c #BA8F64",
"'-	c #FFFDBB",
")-	c #FFF8B6",
"!-	c #92724F",
"~-	c #B49C6F",
"{-	c #F9D898",
"]-	c #BD9468",
"^-	c #B89065",
"/-	c #907150",
"(-	c #2D2218",
"_-	c #E4D5A0",
":-	c #FFFFE5",
"<-	c #FFFFE1",
"[-	c #C0B982",
"}-	c #564D36",
"|-	c #FFEAA4",
"1-	c #FDE5A2",
"2-	c #FDE39F",
"3-	c #FEE6A2",
"4-	c #FFE4A1",
"5-	c #C79B6D",
"6-	c #9B7A56",
"7-	c #664F39",
"8-	c #31271B",
"9-	c #4B3B29",
"0-	c #B58E64",
"a-	c #B68F64",
"b-	c #725A40",
"c-	c #6F573D",
"d-	c #A27F5A",
"e-	c #3D2F22",
"f-	c #463726",
"g-	c #BF966A",
"h-	c #7D6246",
"i-	c #755D41",
"j-	c #816447",
"k-	c #DFBE85",
"l-	c #FFFDC2",
"m-	c #F7BF87",
"n-	c #F5EAB2",
"o-	c #E4D39C",
"p-	c #6F573E",
"q-	c #37281C",
"r-	c #F5ECB7",
"s-	c #C1B780",
"t-	c #100E0A",
"u-	c #FFE29F",
"v-	c #F6D093",
"w-	c #A07D58",
"x-	c #C2996B",
"y-	c #826648",
"z-	c #110D08",
"A-	c #BA9367",
"B-	c #B58F64",
"C-	c #34291D",
"D-	c #6A533B",
"E-	c #231C13",
"F-	c #A48059",
"G-	c #19130E",
"H-	c #665139",
"I-	c #15100B",
"J-	c #A07E59",
"K-	c #C1986A",
"L-	c #413224",
"M-	c #0C0906",
"N-	c #6B553C",
"O-	c #A27E59",
"P-	c #69523B",
"Q-	c #392C20",
"R-	c #594731",
"S-	c #846848",
"T-	c #846748",
"U-	c #F4E1A4",
"V-	c #F6D192",
"W-	c #E8BD85",
"X-	c #7E6244",
"Y-	c #6B523A",
"Z-	c #D9AB78",
"`-	c #BD9469",
" ;	c #B69066",
".;	c #957551",
"+;	c #5C4530",
"@;	c #FFFACD",
"#;	c #C2B47F",
"$;	c #E6D093",
"%;	c #D2A373",
"&;	c #9F7D59",
"*;	c #CEA271",
"=;	c #34291C",
"-;	c #A8845E",
";;	c #AC885F",
">;	c #110E0A",
",;	c #584531",
"';	c #8D6E4E",
");	c #614B35",
"!;	c #372C1E",
"~;	c #3F3223",
"{;	c #C39C6E",
"];	c #C1996C",
"^;	c #1F1812",
"/;	c #A17F59",
"(;	c #2E251A",
"_;	c #71583F",
":;	c #9C7854",
"<;	c #FFF8BD",
"[;	c #FFFBBE",
"};	c #D2A071",
"|;	c #F7D294",
"1;	c #F8EDAF",
"2;	c #1F1912",
"3;	c #967552",
"4;	c #B79065",
"5;	c #8F704F",
"6;	c #7D6243",
"7;	c #FFFFE9",
"8;	c #FFFFE7",
"9;	c #E8C486",
"0;	c #C4B881",
"a;	c #524933",
"b;	c #FDE7A3",
"c;	c #FDEAA6",
"d;	c #FCD899",
"e;	c #AA845D",
"f;	c #7B6044",
"g;	c #9E7A57",
"h;	c #A8845D",
"i;	c #AC875E",
"j;	c #B28C62",
"k;	c #755C41",
"l;	c #251B14",
"m;	c #443626",
"n;	c #AD8860",
"o;	c #0A0705",
"p;	c #0E0C07",
"q;	c #A6825C",
"r;	c #4F3D2B",
"s;	c #5F4B35",
"t;	c #4A3A28",
"u;	c #806547",
"v;	c #C09669",
"w;	c #F9D897",
"x;	c #C1976A",
"y;	c #FCE6A3",
"z;	c #6C523A",
"A;	c #5C4933",
"B;	c #BBA272",
"C;	c #FFFDBF",
"D;	c #FFFCD5",
"E;	c #664B32",
"F;	c #FFFCC5",
"G;	c #FFFFE6",
"H;	c #FFFEB9",
"I;	c #C5B680",
"J;	c #EDD395",
"K;	c #FEE7A2",
"L;	c #FFEBA7",
"M;	c #E1B57F",
"N;	c #CCA171",
"O;	c #282017",
"P;	c #3E3023",
"Q;	c #AD8760",
"R;	c #B08A60",
"S;	c #33271B",
"T;	c #72593F",
"U;	c #997855",
"V;	c #2D2319",
"W;	c #C0986B",
"X;	c #BF9769",
"Y;	c #70573E",
"Z;	c #020101",
"`;	c #17130E",
" >	c #927251",
".>	c #2A2118",
"+>	c #443526",
"@>	c #574430",
"#>	c #E6CB8F",
"$>	c #FFFCBE",
"%>	c #D2A272",
"&>	c #E4B882",
"*>	c #18130E",
"=>	c #9C7A56",
"->	c #18130D",
";>	c #DAC995",
">>	c #FFFCC8",
",>	c #FCCF90",
"'>	c #FCF6C9",
")>	c #281B13",
"!>	c #E0C48D",
"~>	c #C7B680",
"{>	c #B2A171",
"]>	c #FFE3A0",
"^>	c #FDE8A4",
"/>	c #B38A61",
"(>	c #B38D64",
"_>	c #70583F",
":>	c #B89267",
"<>	c #AB865E",
"[>	c #AF8960",
"}>	c #AF8962",
"|>	c #51402D",
"1>	c #292116",
"2>	c #947452",
"3>	c #C0976A",
"4>	c #0C0907",
"5>	c #7F6346",
"6>	c #2C2219",
"7>	c #55422F",
"8>	c #A4805A",
"9>	c #9E7B58",
"0>	c #090805",
"a>	c #4C3B2A",
"b>	c #6D553C",
"c>	c #7D6144",
"d>	c #F8E8AC",
"e>	c #F6CC90",
"f>	c #BC9468",
"g>	c #D5A676",
"h>	c #36291E",
"i>	c #4B3C2A",
"j>	c #1D150F",
"k>	c #F3EBBB",
"l>	c #FFF7BF",
"m>	c #E0AC7A",
"n>	c #F9E09C",
"o>	c #3B2D20",
"p>	c #614D35",
"q>	c #FFFFF3",
"r>	c #FFFFB2",
"s>	c #C8B782",
"t>	c #14110C",
"u>	c #F2DD9B",
"v>	c #F8E4A0",
"w>	c #FCE6A2",
"x>	c #EEC389",
"y>	c #BE9669",
"z>	c #3E3122",
"A>	c #A7845D",
"B>	c #B28C63",
"C>	c #BA9468",
"D>	c #BB9368",
"E>	c #BB9468",
"F>	c #BE966A",
"G>	c #B38D65",
"H>	c #1B1610",
"I>	c #5C4833",
"J>	c #261E14",
"K>	c #826547",
"L>	c #0A0806",
"M>	c #735B40",
"N>	c #241C14",
"O>	c #A07A55",
"P>	c #FFFABE",
"Q>	c #FFF7B5",
"R>	c #C99C6E",
"S>	c #C1986B",
"T>	c #967652",
"U>	c #271F17",
"V>	c #3E2D1F",
"W>	c #FEF8CE",
"X>	c #FDE9AC",
"Y>	c #CD9F70",
"Z>	c #D6A877",
"`>	c #735A3F",
" ,	c #130E09",
".,	c #FAF4DD",
"+,	c #FFFFEB",
"@,	c #FFFFEA",
"#,	c #FFE4A2",
"$,	c #C9B37D",
"%,	c #010100",
"&,	c #FCE29F",
"*,	c #FFEEA9",
"=,	c #FCEDA7",
"-,	c #C09569",
";,	c #AD875F",
">,	c #72593E",
",,	c #B69065",
"',	c #BB9569",
"),	c #977754",
"!,	c #17100C",
"~,	c #725A3E",
"{,	c #BF9669",
"],	c #0F0C09",
"^,	c #17120C",
"/,	c #896B4B",
"(,	c #8E7150",
"_,	c #B08961",
":,	c #AE8960",
"<,	c #2B2217",
"[,	c #503E2C",
"},	c #7C6245",
"|,	c #CFA874",
"1,	c #F9D393",
"2,	c #251C15",
"3,	c #775D40",
"4,	c #F3D091",
"5,	c #CA9F6F",
"6,	c #C59B6E",
"7,	c #9A7A56",
"8,	c #060303",
"9,	c #D1BC8B",
"0,	c #FFFFEC",
"a,	c #FFE6A3",
"b,	c #C9B27E",
"c,	c #5F553C",
"d,	c #FDE4A1",
"e,	c #F5CE91",
"f,	c #9D7B56",
"g,	c #130F0B",
"h,	c #19130F",
"i,	c #BD9568",
"j,	c #3D3122",
"k,	c #AF8A61",
"l,	c #795F44",
"m,	c #211B13",
"n,	c #32281C",
"o,	c #785E43",
"p,	c #EDD598",
"q,	c #FFFCBC",
"r,	c #D3A372",
"s,	c #A8835D",
"t,	c #221A13",
"u,	c #BAA072",
"v,	c #E6B77E",
"w,	c #CEA272",
"x,	c #A5825B",
"y,	c #14100C",
"z,	c #8F7151",
"A,	c #CAB681",
"B,	c #FFE8A5",
"C,	c #D1A374",
"D,	c #A3805A",
"E,	c #0C0A06",
"F,	c #886A4C",
"G,	c #917251",
"H,	c #574530",
"I,	c #251D15",
"J,	c #3B2F21",
"K,	c #BF986B",
"L,	c #BF976A",
"M,	c #C59B6D",
"N,	c #917150",
"O,	c #15110D",
"P,	c #B28B62",
"Q,	c #7E6346",
"R,	c #5C4733",
"S,	c #453627",
"T,	c #806347",
"U,	c #FBF0B3",
"V,	c #F7D090",
"W,	c #BF9469",
"X,	c #54422F",
"Y,	c #E8DBAB",
"Z,	c #FFFDC8",
"`,	c #DEAC79",
" '	c #D7A977",
".'	c #0D0A06",
"+'	c #FEFFD8",
"@'	c #FFFFE8",
"#'	c #837955",
"$'	c #C8B17D",
"%'	c #FFF0A8",
"&'	c #FAD495",
"*'	c #A27E58",
"='	c #B99267",
"-'	c #291F16",
";'	c #BA9469",
">'	c #100C0A",
",'	c #392C1F",
"''	c #54422D",
")'	c #AB865F",
"!'	c #A7845C",
"~'	c #34281D",
"{'	c #A68058",
"]'	c #FFFDC5",
"^'	c #C4996C",
"/'	c #4F3B29",
"('	c #FDF8CC",
"_'	c #FFF2B8",
":'	c #D9A775",
"<'	c #DBAB79",
"['	c #8A6D4D",
"}'	c #261D14",
"|'	c #EFDEA6",
"1'	c #B6A373",
"2'	c #241F16",
"3'	c #DFB17D",
"4'	c #775E42",
"5'	c #AB855E",
"6'	c #B38E63",
"7'	c #19120D",
"8'	c #B89367",
"9'	c #8E704F",
"0'	c #A9845E",
"a'	c #A17E59",
"b'	c #221A12",
"c'	c #4E3D2C",
"d'	c #100D0A",
"e'	c #856949",
"f'	c #32261C",
"g'	c #695239",
"h'	c #DDB77F",
"i'	c #F5C98D",
"j'	c #C69C6E",
"k'	c #E4B37E",
"l'	c #AF8861",
"m'	c #B48C61",
"n'	c #FBE1A1",
"o'	c #CBA070",
"p'	c #E3B27E",
"q'	c #DBAD7A",
"r'	c #AC8D62",
"s'	c #FFE5A0",
"t'	c #FFE7A4",
"u'	c #94825C",
"v'	c #FFDD9C",
"w'	c #FFDF9D",
"x'	c #B68E64",
"y'	c #BC9368",
"z'	c #52402E",
"A'	c #B08B62",
"B'	c #090606",
"C'	c #BE976B",
"D'	c #3E3022",
"E'	c #34281C",
"F'	c #B89266",
"G'	c #BF956A",
"H'	c #473727",
"I'	c #5F4A34",
"J'	c #271E15",
"K'	c #0B0706",
"L'	c #3C2F22",
"M'	c #272016",
"N'	c #7E6447",
"O'	c #6B533B",
"P'	c #EFDA9C",
"Q'	c #FFFCBF",
"R'	c #D7A875",
"S'	c #F2C68A",
"T'	c #FFF7B7",
"U'	c #F9D695",
"V'	c #F2CE90",
"W'	c #CFA273",
"X'	c #EBBA82",
"Y'	c #E1B07C",
"Z'	c #0B0A08",
"`'	c #52412D",
" )	c #FEFDDF",
".)	c #FFFFEE",
"+)	c #FFFFEF",
"@)	c #FFE09F",
"#)	c #FFDF9E",
"$)	c #7E6E4D",
"%)	c #766749",
"&)	c #EDC48A",
"*)	c #120D09",
"=)	c #52412E",
"-)	c #B99167",
";)	c #B99367",
">)	c #8D6F4E",
",)	c #4E3D2A",
"')	c #3B2E21",
"))	c #52402D",
"!)	c #745A3F",
"~)	c #FDF5B8",
"{)	c #F8D092",
"])	c #FCE09F",
"^)	c #FFFCC2",
"/)	c #EABC81",
"()	c #EFBC85",
"_)	c #D2A574",
":)	c #EDDA9F",
"<)	c #FFFFF1",
"[)	c #FFFFED",
"})	c #FFE19F",
"|)	c #94815B",
"1)	c #16130D",
"2)	c #FFDE9C",
"3)	c #7D6345",
"4)	c #4F3E2C",
"5)	c #0B0805",
"6)	c #634D37",
"7)	c #A4825C",
"8)	c #BF9A6C",
"9)	c #C89E6F",
"0)	c #BA9266",
"a)	c #795E42",
"b)	c #68513A",
"c)	c #7A6144",
"d)	c #826849",
"e)	c #FFFEC6",
"f)	c #FFFCBD",
"g)	c #FFFAB9",
"h)	c #FFFBC9",
"i)	c #E0AC78",
"j)	c #DDAE7A",
"k)	c #ECB983",
"l)	c #C69A6D",
"m)	c #987A54",
"n)	c #FFFFF5",
"o)	c #FFFFF4",
"p)	c #221E15",
"q)	c #D2BC84",
"r)	c #FFE3A1",
"s)	c #F3CA8E",
"t)	c #B89165",
"u)	c #B99368",
"v)	c #B79267",
"w)	c #BD9669",
"x)	c #AC8760",
"y)	c #463728",
"z)	c #382C1E",
"A)	c #2E2519",
"B)	c #836648",
"C)	c #E3DDA8",
"D)	c #FFF1B7",
"E)	c #DAA877",
"F)	c #E9B681",
"G)	c #F2BE87",
"H)	c #423324",
"I)	c #4E3E2B",
"J)	c #FCFAD9",
"K)	c #7A6D4D",
"L)	c #413B2A",
"M)	c #D1A575",
"N)	c #57432F",
"O)	c #020200",
"P)	c #B18B63",
"Q)	c #463828",
"R)	c #BC9569",
"S)	c #4C3C29",
"T)	c #382D20",
"U)	c #BB9268",
"V)	c #5E4A33",
"W)	c #16110B",
"X)	c #5E4A35",
"Y)	c #85694A",
"Z)	c #6D563D",
"`)	c #0E0C08",
" !	c #16110D",
".!	c #D6C48F",
"+!	c #FCE4A5",
"@!	c #D8A877",
"#!	c #EAB882",
"$!	c #F6C289",
"%!	c #473827",
"&!	c #594632",
"*!	c #E2CA94",
"=!	c #FFFFF0",
"-!	c #FFE09D",
";!	c #DDC88D",
">!	c #FDD797",
",!	c #CB9F71",
"'!	c #3B2F20",
")!	c #846849",
"!!	c #BC9467",
"~!	c #372C1F",
"{!	c #2F261A",
"]!	c #795F42",
"^!	c #866A4A",
"/!	c #070605",
"(!	c #2B2219",
"_!	c #755A40",
":!	c #BCA071",
"<!	c #FBFAC7",
"[!	c #FFFFF2",
"}!	c #F3CB8E",
"|!	c #D0A473",
"1!	c #ECBA83",
"2!	c #D4A675",
"3!	c #503E2D",
"4!	c #120F0B",
"5!	c #876949",
"6!	c #FFDE9D",
"7!	c #FFD998",
"8!	c #322C1F",
"9!	c #8D7E59",
"0!	c #D2A575",
"a!	c #D0A373",
"b!	c #392D1F",
"c!	c #C0996B",
"d!	c #C1976C",
"e!	c #090605",
"f!	c #A08059",
"g!	c #F1E8B1",
"h!	c #E3B27C",
"i!	c #CFA272",
"j!	c #A28059",
"k!	c #372B1F",
"l!	c #957452",
"m!	c #2A1F16",
"n!	c #FAF6CD",
"o!	c #E8D597",
"p!	c #D3BA83",
"q!	c #C8B07D",
"r!	c #8A7351",
"s!	c #AD9468",
"t!	c #F9F1AA",
"u!	c #816F4F",
"v!	c #242017",
"w!	c #FFDB9A",
"x!	c #BC9367",
"y!	c #9F7C58",
"z!	c #B99268",
"A!	c #C0986C",
"B!	c #AE8961",
"C!	c #775D42",
"D!	c #886B4B",
"E!	c #987552",
"F!	c #E1CE96",
"G!	c #FFFAC2",
"H!	c #E4B07B",
"I!	c #9F7B58",
"J!	c #0B0807",
"K!	c #D3B883",
"L!	c #FFF9B3",
"M!	c #FFF3B2",
"N!	c #FFF4B1",
"O!	c #F4E2A3",
"P!	c #D9C28C",
"Q!	c #B19D72",
"R!	c #9B855E",
"S!	c #857050",
"T!	c #6C583E",
"U!	c #6E5A3F",
"V!	c #947351",
"W!	c #836547",
"X!	c #302319",
"Y!	c #271D15",
"Z!	c #967F59",
"`!	c #F9F8B0",
" ~	c #DBBB84",
".~	c #D7BF86",
"+~	c #E7BC83",
"@~	c #DAAB78",
"#~	c #5F4B34",
"$~	c #7B6245",
"%~	c #B58D63",
"&~	c #483828",
"*~	c #785F42",
"=~	c #927351",
"-~	c #8B6D4E",
";~	c #6D573D",
">~	c #A57F59",
",~	c #D4B783",
"'~	c #FFFEC7",
")~	c #FFEDB0",
"!~	c #E0AD7A",
"~~	c #CEA172",
"{~	c #241B13",
"]~	c #6A543B",
"^~	c #997754",
"/~	c #39291C",
"(~	c #FEFDE2",
"_~	c #FFFBC7",
":~	c #FDF3BC",
"<~	c #F2DD9E",
"[~	c #ECD8A2",
"}~	c #CEBB8A",
"|~	c #C4AF81",
"1~	c #AE986D",
"2~	c #97825C",
"3~	c #816C4C",
"4~	c #665138",
"5~	c #392A1D",
"6~	c #33251A",
"7~	c #2F2218",
"8~	c #3F3021",
"9~	c #755A3F",
"0~	c #4D3D2B",
"a~	c #54422E",
"b~	c #856F4F",
"c~	c #F9F4AC",
"d~	c #312A1E",
"e~	c #5F563C",
"f~	c #B89268",
"g~	c #070505",
"h~	c #644F38",
"i~	c #070603",
"j~	c #50402D",
"k~	c #896D4C",
"l~	c #423425",
"m~	c #D0A977",
"n~	c #F9F7BF",
"o~	c #F7D496",
"p~	c #C49A6C",
"q~	c #A7835D",
"r~	c #F0E7B8",
"s~	c #FFFFF8",
"t~	c #FFFFF7",
"u~	c #FFFFF6",
"v~	c #FDEDB3",
"w~	c #E2C289",
"x~	c #8D724F",
"y~	c #4B3B28",
"z~	c #332418",
"A~	c #251A12",
"B~	c #120B07",
"C~	c #090504",
"D~	c #060302",
"E~	c #0A0905",
"F~	c #16120D",
"G~	c #433526",
"H~	c #5A4732",
"I~	c #745E42",
"J~	c #F9E8A3",
"K~	c #FFDA9A",
"L~	c #93825C",
"M~	c #F2C68B",
"N~	c #D3A574",
"O~	c #B79166",
"P~	c #040402",
"Q~	c #BD9569",
"R~	c #3C3021",
"S~	c #4A3B29",
"T~	c #010001",
"U~	c #4B3A29",
"V~	c #473728",
"W~	c #4C3C2B",
"X~	c #2B2117",
"Y~	c #C2976A",
"Z~	c #665039",
"`~	c #CB9F70",
" {	c #DBB07B",
".{	c #F3EAB3",
"+{	c #F0C488",
"@{	c #DFB07C",
"#{	c #68523A",
"${	c #B48F64",
"%{	c #261D16",
"&{	c #AE8860",
"*{	c #A5865E",
"={	c #FFFCC3",
"-{	c #F3D59A",
";{	c #947150",
">{	c #050302",
",{	c #050303",
"'{	c #423424",
"){	c #6F583E",
"!{	c #F8E4A1",
"~{	c #F0CA8E",
"{{	c #9F9368",
"]{	c #FFF3AA",
"^{	c #C2976B",
"/{	c #CCA271",
"({	c #947451",
"_{	c #1D160F",
":{	c #1E1610",
"<{	c #56442F",
"[{	c #7E6246",
"}{	c #D6AB79",
"|{	c #D7AB79",
"1{	c #CFA373",
"2{	c #D6A776",
"3{	c #513F2D",
"4{	c #CA9E6F",
"5{	c #DCAB78",
"6{	c #EBD598",
"7{	c #E5B37D",
"8{	c #DDAD7A",
"9{	c #C79C6E",
"0{	c #775D41",
"a{	c #AC865F",
"b{	c #3A2A1B",
"c{	c #FEFDED",
"d{	c #FFEFB0",
"e{	c #AE855D",
"f{	c #1D1711",
"g{	c #503F2D",
"h{	c #33281C",
"i{	c #342A1D",
"j{	c #5F4934",
"k{	c #F8DE9C",
"l{	c #FFE8A2",
"m{	c #FFD999",
"n{	c #2F291D",
"o{	c #322E20",
"p{	c #F8E6A3",
"q{	c #FEDF9D",
"r{	c #FBCE91",
"s{	c #CA9E70",
"t{	c #BB9469",
"u{	c #634E36",
"v{	c #7C6244",
"w{	c #6C543C",
"x{	c #4C3B29",
"y{	c #655038",
"z{	c #1B140E",
"A{	c #D6A976",
"B{	c #D9AA77",
"C{	c #DBAC7A",
"D{	c #E0BC83",
"E{	c #FFFDCC",
"F{	c #FFEDB1",
"G{	c #D8A775",
"H{	c #D2A474",
"I{	c #AD885F",
"J{	c #AE8760",
"K{	c #1A140F",
"L{	c #140E0A",
"M{	c #F0E8BF",
"N{	c #E9D399",
"O{	c #57412E",
"P{	c #050404",
"Q{	c #140F0A",
"R{	c #070404",
"S{	c #31281B",
"T{	c #826649",
"U{	c #5E4933",
"V{	c #F4E09E",
"W{	c #FFDC9A",
"X{	c #99865E",
"Y{	c #DCCC92",
"Z{	c #E7C98E",
"`{	c #FDDD9C",
" ]	c #D5A776",
".]	c #CCA071",
"+]	c #2E241A",
"@]	c #8E6F4F",
"#]	c #665038",
"$]	c #A07D59",
"%]	c #281F17",
"&]	c #8B6E4D",
"*]	c #2F2419",
"=]	c #3A2D1F",
"-]	c #886A4A",
";]	c #1A150F",
">]	c #231A13",
",]	c #120E0B",
"']	c #CDA071",
")]	c #D4A575",
"!]	c #D8AA78",
"~]	c #DBB07C",
"{]	c #C99E6F",
"]]	c #3C2E21",
"^]	c #937352",
"/]	c #694E37",
"(]	c #C9B181",
"_]	c #FDE7A9",
":]	c #DBAA79",
"<]	c #E9B781",
"[]	c #2A2217",
"}]	c #A7825C",
"|]	c #1E1812",
"1]	c #4F3F2C",
"2]	c #B99B6C",
"3]	c #CFB17C",
"4]	c #120F0A",
"5]	c #403323",
"6]	c #84684A",
"7]	c #0B0905",
"8]	c #FFE29E",
"9]	c #F1C68B",
"0]	c #7C7452",
"a]	c #FEE3A0",
"b]	c #EDBF86",
"c]	c #FBD898",
"d]	c #FADB9A",
"e]	c #A6835D",
"f]	c #120D0A",
"g]	c #392E20",
"h]	c #433424",
"i]	c #927451",
"j]	c #19140D",
"k]	c #7B6043",
"l]	c #BE9468",
"m]	c #5D4833",
"n]	c #6B543C",
"o]	c #876A4B",
"p]	c #886B4C",
"q]	c #1B150E",
"r]	c #5A4631",
"s]	c #D2A473",
"t]	c #C89D6F",
"u]	c #C89C6F",
"v]	c #DCAD7B",
"w]	c #F8DC9B",
"x]	c #F6D395",
"y]	c #DBAC79",
"z]	c #F6C188",
"A]	c #7A5F44",
"B]	c #907050",
"C]	c #4C3725",
"D]	c #FEFCE7",
"E]	c #FFFFF9",
"F]	c #FFFECD",
"G]	c #A98A5F",
"H]	c #775E41",
"I]	c #292016",
"J]	c #130E0B",
"K]	c #614D37",
"L]	c #32271B",
"M]	c #A27F59",
"N]	c #211912",
"O]	c #4C422E",
"P]	c #020302",
"Q]	c #F1C187",
"R]	c #F4CB8E",
"S]	c #F6CD91",
"T]	c #F8D495",
"U]	c #E1B27E",
"V]	c #8E6F4E",
"W]	c #B59065",
"X]	c #AF8B61",
"Y]	c #BC9568",
"Z]	c #1F1911",
"`]	c #1D170F",
" ^	c #17130C",
".^	c #AA865E",
"+^	c #CB9E70",
"@^	c #E4B781",
"#^	c #FFFBC8",
"$^	c #D1AB75",
"%^	c #DEAF7C",
"&^	c #CCA172",
"*^	c #A6815C",
"=^	c #403124",
"-^	c #EDE2B6",
";^	c #FFFFFB",
">^	c #FEF6BC",
",^	c #7B6042",
"'^	c #1C1710",
")^	c #13100A",
"!^	c #8D6E4F",
"~^	c #201811",
"{^	c #967554",
"]^	c #3F3122",
"^^	c #AE9A6C",
"/^	c #C0B27E",
"(^	c #F4C78C",
"_^	c #D8AD79",
":^	c #F4CD90",
"<^	c #291F17",
"[^	c #AE885F",
"}^	c #1A150E",
"|^	c #8C6D4D",
"1^	c #523F2C",
"2^	c #8A6B4C",
"3^	c #7A6143",
"4^	c #D4A374",
"5^	c #F1DFA5",
"6^	c #FEFCDB",
"7^	c #D6BA86",
"8^	c #755C40",
"9^	c #0F0D09",
"0^	c #B29464",
"a^	c #FAEBB2",
"b^	c #4E3A29",
"c^	c #654E38",
"d^	c #836649",
"e^	c #A8855E",
"f^	c #C2986C",
"g^	c #55442E",
"h^	c #100B08",
"i^	c #56432F",
"j^	c #4F3D2C",
"k^	c #F2DC9C",
"l^	c #FFD899",
"m^	c #FFDB9B",
"n^	c #F8DB9A",
"o^	c #423E2C",
"p^	c #FACE90",
"q^	c #F4C78B",
"r^	c #F6C489",
"s^	c #DEB982",
"t^	c #AD8961",
"u^	c #D1A474",
"v^	c #755B41",
"w^	c #B58E65",
"x^	c #A4805B",
"y^	c #7B6143",
"z^	c #BA9366",
"A^	c #866949",
"B^	c #2C2218",
"C^	c #634E37",
"D^	c #040203",
"E^	c #413323",
"F^	c #7A5E43",
"G^	c #4E3E2C",
"H^	c #2C2118",
"I^	c #947252",
"J^	c #241E14",
"K^	c #453626",
"L^	c #110C09",
"M^	c #322218",
"N^	c #B89464",
"O^	c #F6E7B0",
"P^	c #FFFCD2",
"Q^	c #FFFEE6",
"R^	c #FFFFFA",
"S^	c #FFDA98",
"T^	c #513D2C",
"U^	c #E7B580",
"V^	c #372A1F",
"W^	c #8F704E",
"X^	c #59412B",
"Y^	c #FFFCEB",
"Z^	c #E9CE93",
"`^	c #281D15",
" /	c #2C2418",
"./	c #35291C",
"+/	c #352A1F",
"@/	c #13100C",
"#/	c #A3805B",
"$/	c #0C0806",
"%/	c #7F6345",
"&/	c #EFD093",
"*/	c #FFDF9C",
"=/	c #FFD396",
"-/	c #493F2C",
";/	c #000100",
">/	c #FAD697",
",/	c #F2C288",
"'/	c #DEB47E",
")/	c #917452",
"!/	c #FFD898",
"~/	c #DFB17B",
"{/	c #5B4632",
"]/	c #100B09",
"^/	c #876B4A",
"//	c #806446",
"(/	c #4F3C2B",
"_/	c #483728",
":/	c #977553",
"</	c #9C7956",
"[/	c #9A7854",
"}/	c #473928",
"|/	c #886C4C",
"1/	c #AA855D",
"2/	c #B08861",
"3/	c #241C15",
"4/	c #ECB882",
"5/	c #FEC98E",
"6/	c #FFEBA8",
"7/	c #FFF9C2",
"8/	c #DBC28D",
"9/	c #896A4B",
"0/	c #ECBB84",
"a/	c #D1A473",
"b/	c #A07E58",
"c/	c #D8A978",
"d/	c #B99066",
"e/	c #EEE2B6",
"f/	c #CCA876",
"g/	c #443426",
"h/	c #292018",
"i/	c #453526",
"j/	c #745B3F",
"k/	c #5D4834",
"l/	c #A9865E",
"m/	c #9D7A56",
"n/	c #0D0906",
"o/	c #5B4733",
"p/	c #69523A",
"q/	c #EBC58B",
"r/	c #B4996C",
"s/	c #BEAC7A",
"t/	c #F6C68B",
"u/	c #7A6145",
"v/	c #9B7A55",
"w/	c #E8B780",
"x/	c #7C6044",
"y/	c #B58F65",
"z/	c #9F7E59",
"A/	c #352A1C",
"B/	c #54412E",
"C/	c #100E09",
"D/	c #9F7D57",
"E/	c #413425",
"F/	c #A17D58",
"G/	c #A1805B",
"H/	c #2F251B",
"I/	c #C3986C",
"J/	c #E1B47E",
"K/	c #EBBC84",
"L/	c #F7C48A",
"M/	c #FDD999",
"N/	c #FFEFAD",
"O/	c #FFFAC8",
"P/	c #FCF4CA",
"Q/	c #FFFDD7",
"R/	c #F7D595",
"S/	c #251B13",
"T/	c #634F37",
"U/	c #E1B17C",
"V/	c #5D4A33",
"W/	c #E2B17D",
"X/	c #816648",
"Y/	c #917350",
"Z/	c #6B5336",
"`/	c #C09A6C",
" (	c #594630",
".(	c #6B533A",
"+(	c #CEA171",
"@(	c #C2986B",
"#(	c #B79066",
"$(	c #423525",
"%(	c #0C0807",
"&(	c #080706",
"*(	c #EAC58B",
"=(	c #F6DE9D",
"-(	c #0F0F0B",
";(	c #F6C88C",
">(	c #F1C288",
",(	c #EDBD84",
"'(	c #715A3F",
")(	c #B69F70",
"!(	c #A5835B",
"~(	c #EAB982",
"{(	c #654F37",
"](	c #B99468",
"^(	c #030201",
"/(	c #BA9569",
"((	c #211B12",
"_(	c #4D3D2A",
":(	c #86694B",
"<(	c #C4996B",
"[(	c #907250",
"}(	c #967754",
"|(	c #9E7C56",
"1(	c #927352",
"2(	c #30271B",
"3(	c #0A0907",
"4(	c #0B0705",
"5(	c #1D1611",
"6(	c #69533A",
"7(	c #DFB27D",
"8(	c #C79F6E",
"9(	c #F8E1A2",
"0(	c #FFFCD6",
"a(	c #FFFFFF",
"b(	c #E7D29B",
"c(	c #3E3123",
"d(	c #EAB881",
"e(	c #C89F70",
"f(	c #100804",
"g(	c #F8F2DD",
"h(	c #FFFCC1",
"i(	c #997955",
"j(	c #70573D",
"k(	c #030102",
"l(	c #947453",
"m(	c #CDA272",
"n(	c #C59C6E",
"o(	c #C2996C",
"p(	c #C09769",
"q(	c #785E42",
"r(	c #19150E",
"s(	c #1F1710",
"t(	c #291F15",
"u(	c #382C20",
"v(	c #E9C087",
"w(	c #5F533B",
"x(	c #C8A373",
"y(	c #F2C389",
"z(	c #F1C186",
"A(	c #E0B37D",
"B(	c #F6E2A0",
"C(	c #FFD696",
"D(	c #E3B37E",
"E(	c #967753",
"F(	c #9A7954",
"G(	c #886A4B",
"H(	c #4F3E2B",
"I(	c #463827",
"J(	c #997755",
"K(	c #17120E",
"L(	c #9E7C57",
"M(	c #2E2318",
"N(	c #5A4832",
"O(	c #C99E70",
"P(	c #211911",
"Q(	c #56412E",
"R(	c #A98860",
"S(	c #EFBE86",
"T(	c #E1B37E",
"U(	c #403123",
"V(	c #6F583D",
"W(	c #51402C",
"X(	c #57442F",
"Y(	c #453525",
"Z(	c #ECDFAF",
"`(	c #FFFFFE",
" _	c #E5B47E",
"._	c #3A2D20",
"+_	c #36291D",
"@_	c #624C36",
"#_	c #C89C6E",
"$_	c #C39A6C",
"%_	c #755B40",
"&_	c #ECC48A",
"*_	c #CBB681",
"=_	c #F4C388",
"-_	c #F1C287",
";_	c #F4C589",
">_	c #8A7B57",
",_	c #FFE5A3",
"'_	c #D5A876",
")_	c #866A49",
"!_	c #584631",
"~_	c #040201",
"{_	c #14100A",
"]_	c #564330",
"^_	c #9A7956",
"/_	c #503F2C",
"(_	c #33291C",
"__	c #E1B17D",
":_	c #6F563D",
"<_	c #E8B680",
"[_	c #D8AB79",
"}_	c #AC8860",
"|_	c #DCAD79",
"1_	c #FBCD8F",
"2_	c #604A34",
"3_	c #140F0C",
"4_	c #5C4732",
"5_	c #C6A470",
"6_	c #FAD194",
"7_	c #A17E57",
"8_	c #A2805A",
"9_	c #31261C",
"0_	c #2F261B",
"a_	c #A8835C",
"b_	c #A3815B",
"c_	c #7B5F43",
"d_	c #C69C6D",
"e_	c #C69B6D",
"f_	c #3D2F23",
"g_	c #937151",
"h_	c #C59A6D",
"i_	c #C1976B",
"j_	c #EBBE85",
"k_	c #F9E5A2",
"l_	c #D4AA77",
"m_	c #F0C187",
"n_	c #C9A171",
"o_	c #AA966A",
"p_	c #AE8A61",
"q_	c #2A2116",
"r_	c #6A543C",
"s_	c #8A6C4B",
"t_	c #795E43",
"u_	c #7A5F43",
"v_	c #856749",
"w_	c #564530",
"x_	c #E8B882",
"y_	c #DDB37D",
"z_	c #201812",
"A_	c #150F0B",
"B_	c #AF8A62",
"C_	c #A37F5B",
"D_	c #E7B680",
"E_	c #564331",
"F_	c #765C41",
"G_	c #896747",
"H_	c #FEF9C8",
"I_	c #DFAE7B",
"J_	c #32261B",
"K_	c #9D7C58",
"L_	c #C99D6E",
"M_	c #C9A172",
"N_	c #AF8A60",
"O_	c #EDC288",
"P_	c #5D5139",
"Q_	c #F3C389",
"R_	c #F8C78B",
"S_	c #2B251B",
"T_	c #3A3324",
"U_	c #BBA978",
"V_	c #5B4731",
"W_	c #7E6446",
"X_	c #3C2F20",
"Y_	c #241D15",
"Z_	c #614B36",
"`_	c #050304",
" :	c #EDBD86",
".:	c #EDBE86",
"+:	c #826647",
"@:	c #E6B57F",
"#:	c #F9C78C",
"$:	c #5A4731",
"%:	c #5A4632",
"&:	c #F1DDA8",
"*:	c #F7CB8F",
"=:	c #A4805C",
"-:	c #CFA372",
";:	c #C39B6D",
">:	c #CEA574",
",:	c #D0B882",
"':	c #BD976A",
"):	c #342D20",
"!:	c #BFA977",
"~:	c #D7A876",
"{:	c #B08B61",
"]:	c #2D231A",
"^:	c #70583D",
"/:	c #0E0A08",
"(:	c #2D2318",
"_:	c #2F2519",
"::	c #3C2E20",
"<:	c #624C37",
"[:	c #604C35",
"}:	c #17110D",
"|:	c #DCAD7A",
"1:	c #EFBD85",
"2:	c #EDBB84",
"3:	c #D3A877",
"4:	c #493928",
"5:	c #EEBC85",
"6:	c #CEA872",
"7:	c #FFFBC4",
"8:	c #DFAF7B",
"9:	c #1A140D",
"0:	c #55432F",
"a:	c #DBAB78",
"b:	c #040301",
"c:	c #C79D6F",
"d:	c #D8C189",
"e:	c #F8DE9D",
"f:	c #4A3B2A",
"g:	c #F2C388",
"h:	c #F7C68A",
"i:	c #080505",
"j:	c #95815C",
"k:	c #C0AB78",
"l:	c #FFDD9B",
"m:	c #D4A676",
"n:	c #473627",
"o:	c #18130C",
"p:	c #2C2318",
"q:	c #745C40",
"r:	c #564430",
"s:	c #977652",
"t:	c #0D0905",
"u:	c #E8B781",
"v:	c #EBC086",
"w:	c #E3B680",
"x:	c #2C2117",
"y:	c #241A14",
"z:	c #E4B27F",
"A:	c #DEAE7B",
"B:	c #685239",
"C:	c #594531",
"D:	c #463627",
"E:	c #AF875C",
"F:	c #FAD696",
"G:	c #32281B",
"H:	c #DFAF7C",
"I:	c #D9A978",
"J:	c #DAAB79",
"K:	c #DAAC79",
"L:	c #624D37",
"M:	c #221B14",
"N:	c #51412D",
"O:	c #C49A6D",
"P:	c #50402C",
"Q:	c #B39167",
"R:	c #59533B",
"S:	c #E9BA82",
"T:	c #C59E6E",
"U:	c #473E2C",
"V:	c #E4C98E",
"W:	c #BDAA79",
"X:	c #B18B61",
"Y:	c #5E4935",
"Z:	c #403325",
"`:	c #87694B",
" <	c #7F6546",
".<	c #594732",
"+<	c #695139",
"@<	c #91714F",
"#<	c #CBA071",
"$<	c #E4B37F",
"%<	c #806546",
"&<	c #D6A876",
"*<	c #806647",
"=<	c #E6B580",
"-<	c #382D1F",
";<	c #D8AA77",
"><	c #917151",
",<	c #A5805A",
"'<	c #A07F55",
")<	c #FFFCC9",
"!<	c #E2B07C",
"~<	c #463626",
"{<	c #1B1510",
"]<	c #DDAE7B",
"^<	c #C89D6E",
"/<	c #C79C6F",
"(<	c #E4C78C",
"_<	c #D6B983",
":<	c #604E36",
"<<	c #F5C489",
"[<	c #E4C68B",
"}<	c #B19C6E",
"|<	c #2F291E",
"1<	c #BCA473",
"2<	c #3A2E21",
"3<	c #B48C63",
"4<	c #84694A",
"5<	c #EDBC84",
"6<	c #1F1711",
"7<	c #E5B680",
"8<	c #221C13",
"9<	c #95774F",
"0<	c #F9D191",
"a<	c #443625",
"b<	c #3D3023",
"c<	c #D3A674",
"d<	c #DEB07B",
"e<	c #DBAE7B",
"f<	c #31281C",
"g<	c #C6A273",
"h<	c #FEDE9C",
"i<	c #DEB27C",
"j<	c #977755",
"k<	c #F8D797",
"l<	c #877552",
"m<	c #504732",
"n<	c #BAA071",
"o<	c #AA845E",
"p<	c #2C2217",
"q<	c #9A7A55",
"r<	c #483827",
"s<	c #D7A878",
"t<	c #886B4A",
"u<	c #D7A877",
"v<	c #261E16",
"w<	c #9B7C53",
"x<	c #DAAA78",
"y<	c #C59A6C",
"z<	c #C0966B",
"A<	c #664F38",
"B<	c #B28F65",
"C<	c #FCE4A1",
"D<	c #6D5F43",
"E<	c #775F43",
"F<	c #F2CA8E",
"G<	c #5D533A",
"H<	c #6E6145",
"I<	c #B9A273",
"J<	c #8C6F4E",
"K<	c #5D4934",
"L<	c #CEA273",
"M<	c #977854",
"N<	c #E4B883",
"O<	c #BA9868",
"P<	c #FFFFFC",
"Q<	c #FAD695",
"R<	c #957653",
"S<	c #B88F65",
"T<	c #D1A574",
"U<	c #AB875E",
"V<	c #BE956A",
"W<	c #DEC58B",
"X<	c #EAD093",
"Y<	c #F5C68A",
"Z<	c #F1C086",
"`<	c #CDA172",
" [	c #F0BE86",
".[	c #453A29",
"+[	c #7E6C4C",
"@[	c #B9A573",
"#[	c #31261A",
"$[	c #493A28",
"%[	c #70593E",
"&[	c #8B6C4D",
"*[	c #B18A61",
"=[	c #A5825C",
"-[	c #836647",
";[	c #EFBC84",
">[	c #453726",
",[	c #8F6F4F",
"'[	c #E4C489",
")[	c #FFFCD1",
"![	c #E8B47E",
"~[	c #3F3124",
"{[	c #E9B982",
"][	c #D9AC78",
"^[	c #DDAF7B",
"/[	c #DBAD79",
"([	c #DCAE7B",
"_[	c #D3A675",
":[	c #C79E6F",
"<[	c #C49C6E",
"[[	c #C2A675",
"}[	c #907451",
"|[	c #EFBF86",
"1[	c #EAB782",
"2[	c #897754",
"3[	c #B89E70",
"4[	c #614D36",
"5[	c #201A11",
"6[	c #937350",
"7[	c #765C40",
"8[	c #040304",
"9[	c #A37F59",
"0[	c #A5815C",
"a[	c #785D43",
"b[	c #765D42",
"c[	c #E4B37D",
"d[	c #E1C288",
"e[	c #FBDE9D",
"f[	c #A07C58",
"g[	c #E2B37F",
"h[	c #DDAE7C",
"i[	c #D3A575",
"j[	c #C59C6D",
"k[	c #6E563C",
"l[	c #B08B63",
"m[	c #B38E64",
"n[	c #FADD9C",
"o[	c #695B41",
"p[	c #F2C187",
"q[	c #CAA271",
"r[	c #96805B",
"s[	c #AD9569",
"t[	c #9E7B57",
"u[	c #BE9568",
"v[	c #675138",
"w[	c #352A1D",
"x[	c #987753",
"y[	c #DAAA79",
"z[	c #8E6F50",
"A[	c #CD9F71",
"B[	c #816646",
"C[	c #A4815C",
"D[	c #6E573C",
"E[	c #F6C389",
"F[	c #654F39",
"G[	c #E2C186",
"H[	c #FFFFFD",
"I[	c #E0AD79",
"J[	c #917050",
"K[	c #E6B781",
"L[	c #E2B37E",
"M[	c #D6AB78",
"N[	c #DFB17C",
"O[	c #D4A674",
"P[	c #D8AB78",
"Q[	c #C79F71",
"R[	c #C39A6D",
"S[	c #574431",
"T[	c #D7BA83",
"U[	c #F2D495",
"V[	c #E8BA82",
"W[	c #010102",
"X[	c #A2815B",
"Y[	c #887A56",
"Z[	c #FFD697",
"`[	c #B48E65",
" }	c #33281B",
".}	c #937551",
"+}	c #281E15",
"@}	c #624E36",
"#}	c #201A13",
"$}	c #E1B07D",
"%}	c #69533B",
"&}	c #8F7150",
"*}	c #EDD296",
"=}	c #FCE1A0",
"-}	c #7F6547",
";}	c #15100D",
">}	c #896C4B",
",}	c #5E4B34",
"'}	c #E6B47E",
")}	c #E6B981",
"!}	c #CCA070",
"~}	c #C49D6E",
"{}	c #C59D6E",
"]}	c #C29A6D",
"^}	c #7B5F44",
"/}	c #BF9E70",
"(}	c #FCDE9C",
"_}	c #876C4C",
":}	c #F1C388",
"<}	c #AE8C62",
"[}	c #E6B47F",
"}}	c #736346",
"|}	c #EBCC90",
"1}	c #FCCF92",
"2}	c #9D7D57",
"3}	c #AE8861",
"4}	c #624C35",
"5}	c #241B14",
"6}	c #1D1510",
"7}	c #9B7B55",
"8}	c #EDBA83",
"9}	c #6D553D",
"0}	c #826548",
"a}	c #5F4C35",
"b}	c #EBD195",
"c}	c #FFFCD0",
"d}	c #E7B27D",
"e}	c #55422E",
"f}	c #B28B63",
"g}	c #B28A62",
"h}	c #675239",
"i}	c #E8BA83",
"j}	c #E5B981",
"k}	c #E7B782",
"l}	c #DCAF7B",
"m}	c #DAB07C",
"n}	c #D7AB78",
"o}	c #BA9268",
"p}	c #AE8A60",
"q}	c #C1986C",
"r}	c #C19A6C",
"s}	c #F5DE9C",
"t}	c #64583E",
"u}	c #F6C58A",
"v}	c #7D6445",
"w}	c #C6B17C",
"x}	c #A47F5A",
"y}	c #967654",
"z}	c #796043",
"A}	c #4E3C2A",
"B}	c #9B7B56",
"C}	c #A8845C",
"D}	c #836849",
"E}	c #221913",
"F}	c #3D2E20",
"G}	c #F1C58B",
"H}	c #F2D699",
"I}	c #F9DA97",
"J}	c #B48B62",
"K}	c #E7B982",
"L}	c #D3A474",
"M}	c #D3A776",
"N}	c #030303",
"O}	c #B58E63",
"P}	c #D1B27E",
"Q}	c #FADF9D",
"R}	c #282117",
"S}	c #F0C086",
"T}	c #604C34",
"U}	c #B49569",
"V}	c #EEDD9B",
"W}	c #FFD997",
"X}	c #876B4C",
"Y}	c #53422E",
"Z}	c #795F45",
"`}	c #2D2418",
" |	c #B99165",
".|	c #AD8660",
"+|	c #231C15",
"@|	c #F2C58B",
"#|	c #51402E",
"$|	c #6D553B",
"%|	c #6A523A",
"&|	c #040102",
"*|	c #594530",
"=|	c #F4DCA4",
"-|	c #FFFCCF",
";|	c #533F2D",
">|	c #1D1810",
",|	c #030101",
"'|	c #D5A675",
")|	c #0C0908",
"!|	c #372B1D",
"~|	c #E3B27D",
"{|	c #DDAD7B",
"]|	c #E0AE7B",
"^|	c #E1B47F",
"/|	c #DCB27D",
"(|	c #DAAF7C",
"_|	c #D2A675",
":|	c #D5AD79",
"<|	c #D4A776",
"[|	c #D0A474",
"}|	c #473927",
"||	c #3C3022",
"1|	c #BC996C",
"2|	c #E3B67F",
"3|	c #A6825D",
"4|	c #C69B6E",
"5|	c #C5AE7B",
"6|	c #F6C78D",
"7|	c #735B41",
"8|	c #CFA473",
"9|	c #6F563C",
"0|	c #4B3929",
"a|	c #261F15",
"b|	c #D9AA79",
"c|	c #E3B782",
"d|	c #E2B781",
"e|	c #E2B27E",
"f|	c #A3815A",
"g|	c #413325",
"h|	c #2B2317",
"i|	c #1C170F",
"j|	c #221B12",
"k|	c #282116",
"l|	c #F4E1AB",
"m|	c #FDE7A6",
"n|	c #C1966A",
"o|	c #AC865E",
"p|	c #E6B983",
"q|	c #E5B480",
"r|	c #E3B47E",
"s|	c #D4A777",
"t|	c #D9AB79",
"u|	c #DCB17D",
"v|	c #D9AD7A",
"w|	c #D5AA77",
"x|	c #D4AA78",
"y|	c #C19B6C",
"z|	c #BD966A",
"A|	c #5D4733",
"B|	c #896C4D",
"C|	c #7F6347",
"D|	c #EFD998",
"E|	c #8A7754",
"F|	c #927553",
"G|	c #E0B17C",
"H|	c #453625",
"I|	c #B18C63",
"J|	c #F2D596",
"K|	c #FFDC9C",
"L|	c #000101",
"M|	c #423224",
"N|	c #DCAC7A",
"O|	c #DBAB7A",
"P|	c #4A3A2A",
"Q|	c #85684B",
"R|	c #765B41",
"S|	c #523F2D",
"T|	c #F2DEA9",
"U|	c #FFFED9",
"V|	c #F0BB82",
"W|	c #644D36",
"X|	c #D8A976",
"Y|	c #ECBC84",
"Z|	c #EBBA84",
"`|	c #E6B37E",
" 1	c #E2B17C",
".1	c #E3B47F",
"+1	c #E6BB83",
"@1	c #D0A675",
"#1	c #DDB37E",
"$1	c #D7AC79",
"%1	c #D4A775",
"&1	c #D3AA78",
"*1	c #D1A675",
"=1	c #CA9F70",
"-1	c #C29A6C",
";1	c #AB875F",
">1	c #765E42",
",1	c #CAB17D",
"'1	c #FCE19E",
")1	c #CFA674",
"!1	c #EABB83",
"~1	c #EAB781",
"{1	c #BE9469",
"]1	c #B4966A",
"^1	c #D1BD84",
"/1	c #C99D6D",
"(1	c #1C1510",
"_1	c #0A0704",
":1	c #CFA576",
"<1	c #A17E5A",
"[1	c #DFB27E",
"}1	c #DDAD79",
"|1	c #DCAC79",
"11	c #9B7855",
"21	c #F1C087",
"31	c #6E563E",
"41	c #A17F5A",
"51	c #AA835E",
"61	c #F4E2B0",
"71	c #BD9368",
"81	c #EEC187",
"91	c #E8B881",
"01	c #E3B57F",
"a1	c #D9AC7A",
"b1	c #DDB27D",
"c1	c #DAAF7B",
"d1	c #D8AF7C",
"e1	c #D8AE7A",
"f1	c #D4A977",
"g1	c #CDA473",
"h1	c #AF8860",
"i1	c #BF976B",
"j1	c #BA9A6C",
"k1	c #52422D",
"l1	c #251E16",
"m1	c #4C3A2A",
"n1	c #0E0A09",
"o1	c #B69166",
"p1	c #B49066",
"q1	c #FFCE92",
"r1	c #FECF93",
"s1	c #947551",
"t1	c #CDA171",
"u1	c #8E714F",
"v1	c #DCB47E",
"w1	c #DDB07C",
"x1	c #DEB37E",
"y1	c #DFB37F",
"z1	c #E0B07B",
"A1	c #E1B27D",
"B1	c #E1B37F",
"C1	c #E0AF7C",
"D1	c #8F6E4E",
"E1	c #D1A372",
"F1	c #E9B881",
"G1	c #201910",
"H1	c #2D2119",
"I1	c #3B2F22",
"J1	c #6C553B",
"K1	c #AC845D",
"L1	c #F8EBBC",
"M1	c #FFFED5",
"N1	c #EDB881",
"O1	c #6C543D",
"P1	c #483927",
"Q1	c #EBB983",
"R1	c #E6B37F",
"S1	c #DEAE7A",
"T1	c #E5B37E",
"U1	c #E7BB83",
"V1	c #E5B580",
"W1	c #E4B580",
"X1	c #E1B27C",
"Y1	c #C79D6E",
"Z1	c #D5A877",
"`1	c #CEA373",
" 2	c #8D6F4D",
".2	c #B49065",
"+2	c #EAD293",
"@2	c #867653",
"#2	c #FBC98D",
"$2	c #F2C287",
"%2	c #DAAC78",
"&2	c #150F0C",
"*2	c #876A4C",
"=2	c #B18C62",
"-2	c #745A40",
";2	c #D7AE7A",
">2	c #D8B07C",
",2	c #D6A977",
"'2	c #DAAE7A",
")2	c #E0B17D",
"!2	c #E3BA83",
"~2	c #E3B780",
"{2	c #E5B881",
"]2	c #685339",
"^2	c #796042",
"/2	c #DFAE7C",
"(2	c #14110B",
"_2	c #54432F",
":2	c #B0865F",
"<2	c #FDF4CB",
"[2	c #FDE8A7",
"}2	c #362B1D",
"|2	c #AD8960",
"12	c #EFBD86",
"22	c #EEBE86",
"32	c #EDB984",
"42	c #E8B580",
"52	c #E7BA82",
"62	c #080703",
"72	c #3E3222",
"82	c #CEA473",
"92	c #C9A272",
"02	c #BC9267",
"a2	c #675038",
"b2	c #D2A573",
"c2	c #C5A475",
"d2	c #FFD596",
"e2	c #CC9F72",
"f2	c #0E0B06",
"g2	c #8B6E4C",
"h2	c #060402",
"i2	c #B99569",
"j2	c #19140F",
"k2	c #D6AA77",
"l2	c #CFA172",
"m2	c #D7AA79",
"n2	c #D9AE7A",
"o2	c #DDB17D",
"p2	c #E0B57F",
"q2	c #E2B27D",
"r2	c #E4B680",
"s2	c #E0AF7D",
"t2	c #927452",
"u2	c #0E0907",
"v2	c #0A0807",
"w2	c #584630",
"x2	c #594532",
"y2	c #DEB079",
"z2	c #E8B67F",
"A2	c #6A523B",
"B2	c #423524",
"C2	c #F0BD85",
"D2	c #EEBD85",
"E2	c #EDC088",
"F2	c #E9B882",
"G2	c #EBBD86",
"H2	c #CC9F70",
"I2	c #C89F71",
"J2	c #C9A070",
"K2	c #CAA070",
"L2	c #4B3A2A",
"M2	c #C29B6D",
"N2	c #B28C64",
"O2	c #F3C388",
"P2	c #6B543A",
"Q2	c #AF8C62",
"R2	c #B59166",
"S2	c #9F7C57",
"T2	c #D1A775",
"U2	c #D1A573",
"V2	c #D4AF7A",
"W2	c #D6AE7B",
"X2	c #DCAB79",
"Y2	c #DFB47F",
"Z2	c #E0B27E",
"`2	c #E1B881",
" 3	c #E2B681",
".3	c #E2B17E",
"+3	c #030203",
"@3	c #725B3F",
"#3	c #4D3E2A",
"$3	c #FBE8AD",
"%3	c #FDE6A6",
"&3	c #CC9F71",
"*3	c #8A6B4B",
"=3	c #EEBB83",
"-3	c #EEC188",
";3	c #EEBB85",
">3	c #EAB983",
",3	c #EBB982",
"'3	c #604B34",
")3	c #010201",
"!3	c #D4AA79",
"~3	c #D5AB78",
"{3	c #D0A272",
"]3	c #C49B6E",
"^3	c #A5825A",
"/3	c #BD976B",
"(3	c #2D2419",
"_3	c #6C553D",
":3	c #6E553D",
"<3	c #E2B57F",
"[3	c #EABA82",
"}3	c #D3AB78",
"|3	c #E5B781",
"13	c #D6AC78",
"23	c #E3C88D",
"33	c #A58C63",
"43	c #53432F",
"53	c #F0C288",
"63	c #846649",
"73	c #CAA575",
"83	c #D0AA77",
"93	c #D0A775",
"03	c #D3A876",
"a3	c #D6A978",
"b3	c #D9AE7B",
"c3	c #DDB47F",
"d3	c #DDB37F",
"e3	c #DEB17D",
"f3	c #E0B882",
"g3	c #E0AF7B",
"h3	c #E0B37E",
"i3	c #E2B47F",
"j3	c #E4B982",
"k3	c #6A543A",
"l3	c #D2A06F",
"m3	c #FFFDE4",
"n3	c #F2C98B",
"o3	c #6C563C",
"p3	c #F0BF87",
"q3	c #EEC087",
"r3	c #EEC088",
"s3	c #E1B580",
"t3	c #D9A977",
"u3	c #D1A977",
"v3	c #CDA373",
"w3	c #CCA474",
"x3	c #CAA272",
"y3	c #C8A271",
"z3	c #C59E6F",
"A3	c #C49D6F",
"B3	c #C3996D",
"C3	c #BC956A",
"D3	c #725940",
"E3	c #413223",
"F3	c #B99469",
"G3	c #987653",
"H3	c #E5BA84",
"I3	c #FDD194",
"J3	c #EBB882",
"K3	c #FECC90",
"L3	c #EECB90",
"M3	c #F5C58A",
"N3	c #A07F59",
"O3	c #BA9568",
"P3	c #CBA574",
"Q3	c #CEA976",
"R3	c #CCA473",
"S3	c #D2A775",
"T3	c #D5A976",
"U3	c #DFB881",
"V3	c #E3B37F",
"W3	c #2E2418",
"X3	c #9E7D58",
"Y3	c #F1CB8C",
"Z3	c #E7B57E",
"`3	c #E5B37F",
" 4	c #A38059",
".4	c #EAB780",
"+4	c #E5B27E",
"@4	c #DBAE7C",
"#4	c #D6AC7A",
"$4	c #CEA372",
"%4	c #CFA474",
"&4	c #C9A071",
"*4	c #BA9467",
"=4	c #FFCD92",
"-4	c #F1C48A",
";4	c #FFDA9B",
">4	c #F9C88C",
",4	c #EABC84",
"'4	c #68533A",
")4	c #3D3121",
"!4	c #CCA675",
"~4	c #CCA272",
"{4	c #CFA977",
"]4	c #CFA374",
"^4	c #D1A776",
"/4	c #D4A877",
"(4	c #C79B6E",
"_4	c #D9AC79",
":4	c #DBAF7C",
"<4	c #DEB07C",
"[4	c #E3B881",
"}4	c #18140E",
"|4	c #2C2419",
"14	c #997954",
"24	c #AE855F",
"34	c #FCF4C6",
"44	c #FFF5BE",
"54	c #DFAC79",
"64	c #ECB982",
"74	c #735B3F",
"84	c #6A5239",
"94	c #D5A775",
"04	c #C59B6C",
"a4	c #D5A977",
"b4	c #D2A676",
"c4	c #CCA372",
"d4	c #BC9669",
"e4	c #E4B681",
"f4	c #FFD495",
"g4	c #F8C88D",
"h4	c #A18C63",
"i4	c #F8C88B",
"j4	c #EABD85",
"k4	c #362B1F",
"l4	c #A7815C",
"m4	c #AE895F",
"n4	c #CDA574",
"o4	c #D0A574",
"p4	c #D3AA77",
"q4	c #D7AD7A",
"r4	c #D9AF7C",
"s4	c #E2B680",
"t4	c #4A3928",
"u4	c #C59767",
"v4	c #FADE9F",
"w4	c #DBAA78",
"x4	c #F6C189",
"y4	c #E7B47F",
"z4	c #EDB983",
"A4	c #F0C188",
"B4	c #A6815B",
"C4	c #A8855D",
"D4	c #D4A876",
"E4	c #D2A674",
"F4	c #FCD898",
"G4	c #D9B07C",
"H4	c #FFD193",
"I4	c #FFD597",
"J4	c #2E261B",
"K4	c #FACC8F",
"L4	c #EFC68B",
"M4	c #F3C589",
"N4	c #C69E6E",
"O4	c #D7AA78",
"P4	c #8D704E",
"Q4	c #2E231A",
"R4	c #B89368",
"S4	c #D2A877",
"T4	c #D2A776",
"U4	c #D5AA78",
"V4	c #D8AC79",
"W4	c #DAB27D",
"X4	c #DBAF7B",
"Y4	c #DFB680",
"Z4	c #E0B17E",
"`4	c #E0B781",
" 5	c #E1BA83",
".5	c #E3B781",
"+5	c #CCA06F",
"@5	c #644E38",
"#5	c #352B1D",
"$5	c #0F0D0A",
"%5	c #EDD093",
"&5	c #F4CD8F",
"*5	c #F2C087",
"=5	c #EEBB84",
"-5	c #EBBB84",
";5	c #D4AB78",
">5	c #CDA072",
",5	c #CFA675",
"'5	c #CAA171",
")5	c #C69D6F",
"!5	c #B38D62",
"~5	c #B78F64",
"{5	c #E8B681",
"]5	c #F9CD90",
"^5	c #FCCC90",
"/5	c #14110D",
"(5	c #645139",
"_5	c #FBD395",
":5	c #FBD496",
"<5	c #CCA574",
"[5	c #3E3223",
"}5	c #392E1F",
"|5	c #B79367",
"15	c #AB8961",
"25	c #54412F",
"35	c #3F3324",
"45	c #C5A071",
"55	c #C6A171",
"65	c #D0A676",
"75	c #D8AD7A",
"85	c #DAB47F",
"95	c #DBB17D",
"05	c #DEB580",
"a5	c #E0BA82",
"b5	c #E0B881",
"c5	c #755D40",
"d5	c #B28960",
"e5	c #FEF9D5",
"f5	c #EFC285",
"g5	c #E5B47F",
"h5	c #EEBC84",
"i5	c #ECB883",
"j5	c #F0BF88",
"k5	c #ECBA82",
"l5	c #F1C189",
"m5	c #EFBF87",
"n5	c #E4B27E",
"o5	c #AB855F",
"p5	c #D3A976",
"q5	c #9D8860",
"r5	c #846A4A",
"s5	c #FDD998",
"t5	c #D4AC7A",
"u5	c #B79468",
"v5	c #B89669",
"w5	c #B89569",
"x5	c #B9966A",
"y5	c #BA9669",
"z5	c #C59D6F",
"A5	c #CCA373",
"B5	c #CFA877",
"C5	c #D0AA78",
"D5	c #D1AA78",
"E5	c #D4AC78",
"F5	c #D8AD7B",
"G5	c #DCB07C",
"H5	c #DEB781",
"I5	c #E0B982",
"J5	c #E1B983",
"K5	c #0F0B07",
"L5	c #372A1E",
"M5	c #D6AC76",
"N5	c #FFFBCA",
"O5	c #E2AF7B",
"P5	c #EBB782",
"Q5	c #2D241A",
"R5	c #F4C187",
"S5	c #F0C389",
"T5	c #E2B07D",
"U5	c #C79C6D",
"V5	c #CAA273",
"W5	c #E9C289",
"X5	c #FDDA99",
"Y5	c #E3BD85",
"Z5	c #B68F66",
"`5	c #B79167",
" 6	c #BC986B",
".6	c #C0996C",
"+6	c #C59F71",
"@6	c #C69E6F",
"#6	c #C7A071",
"$6	c #C8A071",
"%6	c #C9A474",
"&6	c #CDA775",
"*6	c #CFA776",
"=6	c #D4AB79",
"-6	c #D8B17C",
";6	c #D9B37F",
">6	c #DAAD7A",
",6	c #DCB581",
"'6	c #DEB680",
")6	c #DEB07D",
"!6	c #E0B680",
"~6	c #DCAF7C",
"{6	c #060502",
"]6	c #000001",
"^6	c #AB8760",
"/6	c #F8EBB3",
"(6	c #FEE9AD",
"_6	c #D9A876",
":6	c #D1A877",
"<6	c #CFA676",
"[6	c #CBA171",
"}6	c #BA9166",
"|6	c #E5C287",
"16	c #2E291D",
"26	c #E5B681",
"36	c #FDD798",
"46	c #BB9669",
"56	c #C09A6D",
"66	c #C19C6E",
"76	c #C7A273",
"86	c #C9A273",
"96	c #CA9F71",
"06	c #CDA573",
"a6	c #CEA474",
"b6	c #D2AB79",
"c6	c #D3AE7A",
"d6	c #D5AB79",
"e6	c #D5A978",
"f6	c #D9B17D",
"g6	c #DCB37F",
"h6	c #DCAE7A",
"i6	c #DDB07D",
"j6	c #E0B782",
"k6	c #E3B681",
"l6	c #AA865F",
"m6	c #85674A",
"n6	c #B98F63",
"o6	c #FFFDE6",
"p6	c #F9D99B",
"q6	c #F0BE87",
"r6	c #3B3022",
"s6	c #7C5F41",
"t6	c #2C2216",
"u6	c #D3A676",
"v6	c #D2A977",
"w6	c #CDA575",
"x6	c #C99F70",
"y6	c #413222",
"z6	c #624D35",
"A6	c #E1C188",
"B6	c #FFF2AC",
"C6	c #AD9367",
"D6	c #FDD899",
"E6	c #EFC58B",
"F6	c #010202",
"G6	c #B59066",
"H6	c #B79569",
"I6	c #BA9368",
"J6	c #B48C64",
"K6	c #C49E6F",
"L6	c #C4996D",
"M6	c #CBA575",
"N6	c #CFAA77",
"O6	c #D0AB78",
"P6	c #D2AA77",
"Q6	c #D3AE7B",
"R6	c #D4AE7B",
"S6	c #D6AF7B",
"T6	c #D7AD7B",
"U6	c #DBB37E",
"V6	c #DCB480",
"W6	c #DEB480",
"X6	c #DFB982",
"Y6	c #E2B580",
"Z6	c #AA865D",
"`6	c #2D2219",
" 7	c #1E1911",
".7	c #85694B",
"+7	c #E6C388",
"@7	c #F2C78A",
"#7	c #EDBA84",
"$7	c #987654",
"%7	c #776149",
"&7	c #F1D7B0",
"*7	c #F8E6C4",
"=7	c #F8F2D9",
"-7	c #F9F4DB",
";7	c #F0E5C9",
">7	c #A7967D",
",7	c #D1A978",
"'7	c #6A5439",
")7	c #CAB18F",
"!7	c #E9DDC1",
"~7	c #BAA98E",
"{7	c #AA855F",
"]7	c #CFAC79",
"^7	c #FFCE90",
"/7	c #F2C78C",
"(7	c #B8966A",
"_7	c #B89568",
":7	c #B89067",
"<7	c #B78E65",
"[7	c #BB966A",
"}7	c #C19D6F",
"|7	c #C39E6F",
"17	c #C6A272",
"27	c #C7A070",
"37	c #CAA473",
"47	c #CEA575",
"57	c #D0A575",
"67	c #D3A875",
"77	c #D8AC7A",
"87	c #DAB37F",
"97	c #DCB27E",
"07	c #DCB57F",
"a7	c #DCB881",
"b7	c #DFB57F",
"c7	c #E1B681",
"d7	c #4F3D2A",
"e7	c #B58B62",
"f7	c #FCF7CA",
"g7	c #E6B57D",
"h7	c #1A130E",
"i7	c #F3C88D",
"j7	c #F0C189",
"k7	c #9D8365",
"l7	c #FBFBE5",
"m7	c #FCFCE6",
"n7	c #FEFEE8",
"o7	c #FDFCE6",
"p7	c #FAFBE5",
"q7	c #DFDAC4",
"r7	c #3B3023",
"s7	c #F7E5C3",
"t7	c #FCFDE8",
"u7	c #5A4B39",
"v7	c #C2A374",
"w7	c #322B1E",
"x7	c #FED697",
"y7	c #F3C68C",
"z7	c #5E4B35",
"A7	c #B79368",
"B7	c #BA956A",
"C7	c #C7A171",
"D7	c #C9A473",
"E7	c #CDA776",
"F7	c #CEAA78",
"G7	c #D0A674",
"H7	c #D0A978",
"I7	c #D1AC79",
"J7	c #D3A777",
"K7	c #D7AC7A",
"L7	c #D8AE7B",
"M7	c #D9B17C",
"N7	c #DAB17D",
"O7	c #DBB680",
"P7	c #DEB47F",
"Q7	c #DEB27D",
"R7	c #DFB67F",
"S7	c #E0B983",
"T7	c #997753",
"U7	c #E7C78F",
"V7	c #FFF1B6",
"W7	c #F2BE86",
"X7	c #F4C58B",
"Y7	c #DDAF7C",
"Z7	c #F1C38A",
"`7	c #CFA271",
" 8	c #896A4A",
".8	c #F8F5DD",
"+8	c #FDFDE7",
"@8	c #CDCCBA",
"#8	c #9C7955",
"$8	c #CBA172",
"%8	c #CBA173",
"&8	c #CEAB80",
"*8	c #FDFFEB",
"=8	c #EDE8D0",
"-8	c #8E6E4E",
";8	c #B0966A",
">8	c #FFDB99",
",8	c #A99166",
"'8	c #FFD395",
")8	c #FFD598",
"!8	c #FFD394",
"~8	c #FFD798",
"{8	c #685039",
"]8	c #B89369",
"^8	c #B99467",
"/8	c #BA986A",
"(8	c #BB956A",
"_8	c #BC976A",
":8	c #BC966A",
"<8	c #BE976A",
"[8	c #C19D6E",
"}8	c #C4A070",
"|8	c #C69D6D",
"18	c #CAA474",
"28	c #CBA272",
"38	c #CFAA78",
"48	c #947754",
"58	c #D4AB7A",
"68	c #D6AA78",
"78	c #DBB47F",
"88	c #DCB580",
"98	c #DEB17C",
"08	c #DEB681",
"a8	c #E0BA83",
"b8	c #E1B680",
"c8	c #E2B480",
"d8	c #A27E5A",
"e8	c #35291E",
"f8	c #957451",
"g8	c #F7E4AA",
"h8	c #F8D899",
"i8	c #83684A",
"j8	c #F2C48A",
"k8	c #F2C28A",
"l8	c #F0BC84",
"m8	c #F1C289",
"n8	c #AD8861",
"o8	c #E3C59D",
"p8	c #FDFEE8",
"q8	c #77756A",
"r8	c #D1A876",
"s8	c #CDA273",
"t8	c #F4DAB2",
"u8	c #594833",
"v8	c #9F7E58",
"w8	c #9B835C",
"x8	c #FAE09E",
"y8	c #FFCF92",
"z8	c #FFD294",
"A8	c #F9D093",
"B8	c #685138",
"C8	c #56422F",
"D8	c #B79165",
"E8	c #B89469",
"F8	c #BA976A",
"G8	c #BE986B",
"H8	c #BF9C6E",
"I8	c #C09D6E",
"J8	c #C29D6F",
"K8	c #C39E70",
"L8	c #C5A171",
"M8	c #CAA776",
"N8	c #CBA674",
"O8	c #CDA372",
"P8	c #16100B",
"Q8	c #BA986B",
"R8	c #D2A875",
"S8	c #D5AE7B",
"T8	c #D3A775",
"U8	c #D7AE7B",
"V8	c #D8AF7B",
"W8	c #D9B07D",
"X8	c #DAB47E",
"Y8	c #DBB27E",
"Z8	c #DCB680",
"`8	c #DDB680",
" 9	c #DFB37E",
".9	c #E0B580",
"+9	c #E3B580",
"@9	c #C2986A",
"#9	c #FEF5BF",
"$9	c #ECC388",
"%9	c #0E0B09",
"&9	c #F9F5DC",
"*9	c #CCCAB8",
"=9	c #CFA876",
"-9	c #433323",
";9	c #FFECC9",
">9	c #BA9E7C",
",9	c #9B845E",
"'9	c #FAE19E",
")9	c #362F21",
"!9	c #725B40",
"~9	c #FFD093",
"{9	c #FAD092",
"]9	c #523F2E",
"^9	c #BD996C",
"/9	c #BC9A6C",
"(9	c #AF8B62",
"_9	c #BD9668",
":9	c #C19A6D",
"<9	c #C29E70",
"[9	c #C9A573",
"}9	c #CAA675",
"|9	c #CBA776",
"19	c #B28D64",
"29	c #D6AD7A",
"39	c #D6AF7C",
"49	c #D7B07C",
"59	c #DCB47F",
"69	c #E2B982",
"79	c #957453",
"89	c #54432E",
"99	c #E1B07A",
"09	c #F2BF86",
"a9	c #483727",
"b9	c #E0DECA",
"c9	c #D1A674",
"d9	c #CEA776",
"e9	c #523F2A",
"f9	c #FFF4D4",
"g9	c #E7C599",
"h9	c #18120C",
"i9	c #A49065",
"j9	c #FBEEA7",
"k9	c #FFE9A6",
"l9	c #CBB27D",
"m9	c #F8CB8E",
"n9	c #A4825B",
"o9	c #7A6042",
"p9	c #1E1712",
"q9	c #B89468",
"r9	c #C09C6E",
"s9	c #C1996B",
"t9	c #C69F71",
"u9	c #C8A070",
"v9	c #CDAA77",
"w9	c #A3815C",
"x9	c #DAB17C",
"y9	c #DAB07D",
"z9	c #DBB27D",
"A9	c #DCB27C",
"B9	c #DCB681",
"C9	c #DDB780",
"D9	c #E1B982",
"E9	c #947553",
"F9	c #655037",
"G9	c #FFFAC4",
"H9	c #E3B17C",
"I9	c #E4B47E",
"J9	c #BC976F",
"K9	c #DFD8C1",
"L9	c #0C0A05",
"M9	c #D0A776",
"N9	c #CEA775",
"O9	c #CBA373",
"P9	c #57432D",
"Q9	c #FFF6D7",
"R9	c #E5BD8F",
"S9	c #8C6C4E",
"T9	c #A8986B",
"U9	c #FBDE9B",
"V9	c #C09B6E",
"W9	c #C39C6F",
"X9	c #C4A172",
"Y9	c #C9A372",
"Z9	c #CBA775",
"`9	c #CCA977",
" 0	c #CEAB78",
".0	c #030301",
"+0	c #221912",
"@0	c #BA966A",
"#0	c #DBB17C",
"$0	c #DDB27E",
"%0	c #E0B47F",
"&0	c #B99067",
"*0	c #765C42",
"=0	c #ECC187",
"-0	c #F9D395",
";0	c #D7A976",
">0	c #F3C188",
",0	c #F2C38A",
"'0	c #B28A63",
")0	c #775C41",
"!0	c #C49F74",
"~0	c #D5C3A4",
"{0	c #D2AA78",
"]0	c #453424",
"^0	c #FFEFCD",
"/0	c #D9AE7D",
"(0	c #BB9568",
"_0	c #AB9B6D",
":0	c #FEEBA5",
"<0	c #282319",
"[0	c #FACC90",
"}0	c #FEE19F",
"|0	c #FBD999",
"10	c #4A3B28",
"20	c #080603",
"30	c #6D543C",
"40	c #C09D6F",
"50	c #C19C6D",
"60	c #C29F71",
"70	c #C49D6D",
"80	c #C8A272",
"90	c #CBA474",
"00	c #CDA977",
"a0	c #644D37",
"b0	c #DDB580",
"c0	c #D8AA79",
"d0	c #E2B983",
"e0	c #FAE3A4",
"f0	c #F9D495",
"g0	c #FFCF91",
"h0	c #1A130D",
"i0	c #F1BF86",
"j0	c #F3C289",
"k0	c #F2C289",
"l0	c #F1C188",
"m0	c #D0A372",
"n0	c #FCFBE5",
"o0	c #FBFDE8",
"p0	c #C09C71",
"q0	c #D0A976",
"r0	c #F3D6AC",
"s0	c #FEFCE4",
"t0	c #B0885F",
"u0	c #1B140F",
"v0	c #ADA071",
"w0	c #282318",
"x0	c #FECF92",
"y0	c #FCD796",
"z0	c #EDC187",
"A0	c #030402",
"B0	c #775F42",
"C0	c #AC8960",
"D0	c #BB9167",
"E0	c #C69D70",
"F0	c #D4B07D",
"G0	c #B08D62",
"H0	c #E1B37D",
"I0	c #C19569",
"J0	c #FBE8AC",
"K0	c #F4CD8E",
"L0	c #FDCD90",
"M0	c #130F0C",
"N0	c #F3C087",
"O0	c #F2C48B",
"P0	c #F0EAD0",
"Q0	c #FAF2D8",
"R0	c #76593D",
"S0	c #7B6145",
"T0	c #FCFAE2",
"U0	c #F1E7CC",
"V0	c #917351",
"W0	c #9F7C59",
"X0	c #B0A071",
"Y0	c #282218",
"Z0	c #FDD596",
"`0	c #F4C68B",
" a	c #A6845E",
".a	c #D0A876",
"+a	c #E1BB83",
"@a	c #DFB681",
"#a	c #A07E57",
"$a	c #AF8862",
"%a	c #473726",
"&a	c #C29769",
"*a	c #FDF2BE",
"=a	c #F2CA8C",
"-a	c #DEAC7B",
";a	c #F9C78D",
">a	c #F2BD85",
",a	c #F2C188",
"'a	c #F0BD84",
")a	c #251C13",
"!a	c #B99168",
"~a	c #F6F2DB",
"{a	c #FEFEE9",
"]a	c #FAFBE7",
"^a	c #D2B28B",
"/a	c #D3A977",
"(a	c #EAC497",
"_a	c #F8F9E6",
":a	c #FAFAE4",
"<a	c #F8F8E3",
"[a	c #F4F3DD",
"}a	c #A88863",
"|a	c #271D14",
"1a	c #B6A676",
"2a	c #372F21",
"3a	c #FFCD91",
"4a	c #FEDB9A",
"5a	c #FED899",
"6a	c #7E6347",
"7a	c #6B553B",
"8a	c #7D6244",
"9a	c #A7835B",
"0a	c #C29B6E",
"aa	c #C69F70",
"ba	c #C9A675",
"ca	c #CAA373",
"da	c #CDA876",
"ea	c #E1B781",
"fa	c #74593F",
"ga	c #382B1E",
"ha	c #7C6143",
"ia	c #CDA270",
"ja	c #FFFBCE",
"ka	c #F1CB8D",
"la	c #F3C288",
"ma	c #F2C38B",
"na	c #DAAB7A",
"oa	c #937453",
"pa	c #DEBE94",
"qa	c #FFFBE3",
"ra	c #FEFFE9",
"sa	c #FDFDE8",
"ta	c #FAFBE6",
"ua	c #E1C095",
"va	c #CEA675",
"wa	c #CDA474",
"xa	c #DEB687",
"ya	c #EAD3AE",
"za	c #E2D1B3",
"Aa	c #866E52",
"Ba	c #AF8A63",
"Ca	c #BDB17D",
"Da	c #FFD897",
"Ea	c #4C412D",
"Fa	c #F8C98D",
"Ga	c #997B56",
"Ha	c #110E0B",
"Ia	c #BE986C",
"Ja	c #BF996C",
"Ka	c #C19B6D",
"La	c #C9A373",
"Ma	c #E0B27D",
"Na	c #D9B27B",
"Oa	c #E6B880",
"Pa	c #775E43",
"Qa	c #C2A077",
"Ra	c #E6C59A",
"Sa	c #E9C89D",
"Ta	c #D3AD82",
"Ua	c #7D6449",
"Va	c #D4AC79",
"Wa	c #C1B47F",
"Xa	c #4C412E",
"Ya	c #F9CB8E",
"Za	c #E2BF87",
"`a	c #A4865E",
" b	c #73593F",
".b	c #C6A070",
"+b	c #C69E70",
"@b	c #C9A170",
"#b	c #AB855D",
"$b	c #DDB47E",
"%b	c #C4A072",
"&b	c #231D14",
"*b	c #5B4933",
"=b	c #E5C68D",
"-b	c #F6D494",
";b	c #69513A",
">b	c #F0BB84",
",b	c #D4A878",
"'b	c #A07F58",
")b	c #FFD797",
"!b	c #FECE91",
"~b	c #FFC98E",
"{b	c #FBCA8E",
"]b	c #F5CD90",
"^b	c #B69669",
"/b	c #BE966B",
"(b	c #BF9B6D",
"_b	c #C39D6F",
":b	c #C49F6F",
"<b	c #C5A172",
"[b	c #C79F70",
"}b	c #CAA071",
"|b	c #DDB981",
"1b	c #B28B61",
"2b	c #A9815B",
"3b	c #F0DBA4",
"4b	c #F2C68C",
"5b	c #D1A676",
"6b	c #C9BD85",
"7b	c #FFE49F",
"8b	c #FDC68C",
"9b	c #FED295",
"0b	c #FCD093",
"ab	c #C7A374",
"bb	c #9D7D59",
"cb	c #53402E",
"db	c #C29C6D",
"eb	c #C8A273",
"fb	c #CAA172",
"gb	c #DEB881",
"hb	c #DFB882",
"ib	c #E0B47E",
"jb	c #AC835C",
"kb	c #F8EBB6",
"lb	c #FFFECC",
"mb	c #EDC387",
"nb	c #634C37",
"ob	c #D5AD7A",
"pb	c #CDA675",
"qb	c #846949",
"rb	c #A6835B",
"sb	c #B99366",
"tb	c #DEC98E",
"ub	c #FFD295",
"vb	c #4C402D",
"wb	c #F5C88D",
"xb	c #FFD092",
"yb	c #FFCC90",
"zb	c #FED193",
"Ab	c #D7B47F",
"Bb	c #A1825C",
"Cb	c #3C2E22",
"Db	c #493927",
"Eb	c #CAA574",
"Fb	c #CCA374",
"Gb	c #806548",
"Hb	c #B68D61",
"Ib	c #FCF1B8",
"Jb	c #F2BF87",
"Kb	c #E7B57F",
"Lb	c #B18A63",
"Mb	c #272017",
"Nb	c #D2A777",
"Ob	c #CCA273",
"Pb	c #967A55",
"Qb	c #F3D999",
"Rb	c #473A29",
"Sb	c #F8C98E",
"Tb	c #FCC98E",
"Ub	c #FDC78C",
"Vb	c #FFC98D",
"Wb	c #E7C189",
"Xb	c #A6855D",
"Yb	c #C49F71",
"Zb	c #C7A272",
"`b	c #CCA676",
" c	c #9A7856",
".c	c #DAB27C",
"+c	c #FFFBC5",
"@c	c #FFFBBA",
"#c	c #FADD9F",
"$c	c #EBC389",
"%c	c #E8BB85",
"&c	c #856A4A",
"*c	c #EDBC85",
"=c	c #CEA573",
"-c	c #B88F66",
";c	c #9D835C",
">c	c #FAE6A2",
",c	c #9E845D",
"'c	c #F9CA8E",
")c	c #FFCB8F",
"!c	c #FFCE91",
"~c	c #F5CF92",
"{c	c #B49469",
"]c	c #8D704F",
"^c	c #9A7957",
"/c	c #C49F70",
"(c	c #C5A070",
"_c	c #C59F70",
":c	c #C7A373",
"<c	c #DDB781",
"[c	c #F0D094",
"}c	c #FFFBC2",
"|c	c #D8A674",
"1c	c #E1B17E",
"2c	c #E5B67F",
"3c	c #F4C88D",
"4c	c #EFBB84",
"5c	c #F1C389",
"6c	c #F0C58B",
"7c	c #EEBF86",
"8c	c #A9845C",
"9c	c #DEB27E",
"0c	c #DCB07D",
"ac	c #B0986B",
"bc	c #FFD496",
"cc	c #9B815B",
"dc	c #FAD193",
"ec	c #FECB90",
"fc	c #9D7D58",
"gc	c #DFB580",
"hc	c #E0B37F",
"ic	c #AB825C",
"jc	c #F7E2A7",
"kc	c #E4B57F",
"lc	c #F0C589",
"mc	c #D7A978",
"nc	c #C99D70",
"oc	c #D1AA77",
"pc	c #C39B6E",
"qc	c #C2996D",
"rc	c #D1B882",
"sc	c #FFCA8F",
"tc	c #FFD293",
"uc	c #FFD595",
"vc	c #FCD597",
"wc	c #FBCF92",
"xc	c #FEC98F",
"yc	c #FAC38A",
"zc	c #BA976B",
"Ac	c #C29C6F",
"Bc	c #CDA374",
"Cc	c #0F0D08",
"Dc	c #9C7C57",
"Ec	c #B28A61",
"Fc	c #FAECB1",
"Gc	c #FDEBAB",
"Hc	c #C89B6E",
"Ic	c #EEBD84",
"Jc	c #B38B63",
"Kc	c #16100D",
"Lc	c #EEBA83",
"Mc	c #F0C088",
"Nc	c #EDC289",
"Oc	c #ECBF86",
"Pc	c #EABA83",
"Qc	c #E9BC84",
"Rc	c #EFDA99",
"Sc	c #9B7F5A",
"Tc	c #FEE09F",
"Uc	c #FBDB99",
"Vc	c #FECD91",
"Wc	c #FAC48A",
"Xc	c #FCC58B",
"Yc	c #FCC78D",
"Zc	c #D8BB84",
"`c	c #AF8D63",
" d	c #C9A574",
".d	c #F3E5AB",
"+d	c #D8A675",
"@d	c #DEAD7A",
"#d	c #F0C58A",
"$d	c #F0C68B",
"%d	c #EFC48B",
"&d	c #ECBE86",
"*d	c #E9B782",
"=d	c #E7B881",
"-d	c #E6B982",
";d	c #E5B882",
">d	c #DCB07B",
",d	c #CBA273",
"'d	c #BD956A",
")d	c #F9D999",
"!d	c #FFE09C",
"~d	c #FCDF9D",
"{d	c #F5BF88",
"]d	c #FFCA8E",
"^d	c #B3986B",
"/d	c #705A3F",
"(d	c #2E2319",
"_d	c #B99568",
":d	c #DDAC79",
"<d	c #554330",
"[d	c #927350",
"}d	c #F3ECB4",
"|d	c #DEAF7A",
"1d	c #F0C48A",
"2d	c #EFC48A",
"3d	c #EEC58A",
"4d	c #EDC189",
"5d	c #ECBC85",
"6d	c #E3B17D",
"7d	c #E2B882",
"8d	c #DDAC7A",
"9d	c #BE996C",
"0d	c #FFD195",
"ad	c #987E59",
"bd	c #FEC78D",
"cd	c #F9C48A",
"dd	c #FFC88E",
"ed	c #FFCB90",
"fd	c #FEC88C",
"gd	c #FAE3A1",
"hd	c #A0815B",
"id	c #080805",
"jd	c #C5A474",
"kd	c #BF986A",
"ld	c #F3ECB2",
"md	c #F8DF9C",
"nd	c #30241B",
"od	c #1B160E",
"pd	c #EFC288",
"qd	c #ECBD85",
"rd	c #EBC187",
"sd	c #EABD86",
"td	c #E9BD85",
"ud	c #E8BE86",
"vd	c #DAAC7A",
"wd	c #D0A173",
"xd	c #FFEFA7",
"yd	c #FFD796",
"zd	c #ECC68B",
"Ad	c #FFCD90",
"Bd	c #FDC68B",
"Cd	c #CCAD7B",
"Dd	c #C4A071",
"Ed	c #DCB17C",
"Fd	c #5F4C34",
"Gd	c #A27F5B",
"Hd	c #795D42",
"Id	c #F3EDB1",
"Jd	c #FFF8B9",
"Kd	c #CDA070",
"Ld	c #F0C087",
"Md	c #ECBB83",
"Nd	c #E7B781",
"Od	c #E6B782",
"Pd	c #E4BA83",
"Qd	c #816446",
"Rd	c #BC976B",
"Sd	c #FFD194",
"Td	c #FFD494",
"Ud	c #FFCC8F",
"Vd	c #F5C087",
"Wd	c #FBC68B",
"Xd	c #BA9B6C",
"Yd	c #664F37",
"Zd	c #594431",
"`d	c #C39D6E",
" e	c #C3986B",
".e	c #C8A171",
"+e	c #CAA372",
"@e	c #604A35",
"#e	c #DEB37F",
"$e	c #B08960",
"%e	c #68513B",
"&e	c #F2EDB4",
"*e	c #E7B780",
"=e	c #5C4834",
"-e	c #EFC088",
";e	c #EAC087",
">e	c #E9BE85",
",e	c #E3B882",
"'e	c #E0B480",
")e	c #BB9369",
"!e	c #F4C389",
"~e	c #EAC289",
"{e	c #F7C288",
"]e	c #FBC48A",
"^e	c #FEC98D",
"/e	c #FFCB8E",
"(e	c #967453",
"_e	c #463826",
":e	c #CDAA78",
"<e	c #EFE3A7",
"[e	c #EDBA82",
"}e	c #ECC289",
"|e	c #EAC188",
"1e	c #E3BC84",
"2e	c #E0B780",
"3e	c #D4A875",
"4e	c #F6C38B",
"5e	c #EAC78D",
"6e	c #FBC78C",
"7e	c #FFCC91",
"8e	c #FFDE9E",
"9e	c #7E6445",
"0e	c #483826",
"ae	c #040404",
"be	c #785D42",
"ce	c #AA875E",
"de	c #C5996D",
"ee	c #8A6E4D",
"fe	c #9E7C59",
"ge	c #E9D698",
"he	c #FEF3B3",
"ie	c #6C533B",
"je	c #AD895F",
"ke	c #9E7D57",
"le	c #A6845C",
"me	c #A5815A",
"ne	c #EEBF87",
"oe	c #EDC188",
"pe	c #ECBA84",
"qe	c #ECBD84",
"re	c #EABA84",
"se	c #E9B983",
"te	c #E7BC85",
"ue	c #BF996B",
"ve	c #EAC489",
"we	c #FED495",
"xe	c #FCC98D",
"ye	c #715A40",
"ze	c #382D1E",
"Ae	c #C5A273",
"Be	c #C8A574",
"Ce	c #C9A173",
"De	c #DEB37D",
"Ee	c #1C1711",
"Fe	c #E7D69A",
"Ge	c #FFFECA",
"He	c #DBA977",
"Ie	c #F6C48A",
"Je	c #EBBC85",
"Ke	c #D5A674",
"Le	c #C7A271",
"Me	c #FFE1A0",
"Ne	c #EAC48A",
"Oe	c #FED394",
"Pe	c #FAC58B",
"Qe	c #F9C68B",
"Re	c #352B1E",
"Se	c #140E0B",
"Te	c #4C3A29",
"Ue	c #CA9D6F",
"Ve	c #DCB781",
"We	c #D8C188",
"Xe	c #F5D192",
"Ye	c #DEAD7B",
"Ze	c #F1BC85",
"`e	c #EABF87",
" f	c #E6BD85",
".f	c #B88F64",
"+f	c #C0A776",
"@f	c #FED999",
"#f	c #33291D",
"$f	c #BA986C",
"%f	c #3B2D21",
"&f	c #A1815C",
"*f	c #C6A172",
"=f	c #CCA776",
"-f	c #CFA775",
";f	c #9F7E57",
">f	c #DBB580",
",f	c #CDB17E",
"'f	c #FDF2B1",
")f	c #F7CC90",
"!f	c #F6C98E",
"~f	c #AB885F",
"{f	c #E4B47F",
"]f	c #DFB07B",
"^f	c #CA9B6D",
"/f	c #463525",
"(f	c #A8815A",
"_f	c #55412E",
":f	c #FAD294",
"<f	c #C1A474",
"[f	c #F9D596",
"}f	c #BA996B",
"|f	c #C5A272",
"1f	c #C6A573",
"2f	c #C7A574",
"3f	c #C8A674",
"4f	c #CAA876",
"5f	c #CEA977",
"6f	c #D9B07B",
"7f	c #DAB57F",
"8f	c #B18961",
"9f	c #BD936A",
"0f	c #B9976A",
"af	c #FEFECA",
"bf	c #FAF7BF",
"cf	c #FFFDBE",
"df	c #CFA171",
"ef	c #F6C88E",
"ff	c #F5C289",
"gf	c #EBBA83",
"hf	c #ECC088",
"if	c #E7BA83",
"jf	c #E5B982",
"kf	c #916E4F",
"lf	c #95704E",
"mf	c #CF996C",
"nf	c #D19D6F",
"of	c #AF855D",
"pf	c #59422F",
"qf	c #B4865F",
"rf	c #C8976A",
"sf	c #C99F6F",
"tf	c #C8A172",
"uf	c #C79E70",
"vf	c #FFDE9B",
"wf	c #C1AA79",
"xf	c #FFE19D",
"yf	c #F1D798",
"zf	c #8F6F50",
"Af	c #4C3B2B",
"Bf	c #1A1510",
"Cf	c #B59266",
"Df	c #917051",
"Ef	c #BB986B",
"Ff	c #C19B6E",
"Gf	c #C6A372",
"Hf	c #C7A573",
"If	c #C8A575",
"Jf	c #C9A775",
"Kf	c #CBA473",
"Lf	c #CFA173",
"Mf	c #D1AB78",
"Nf	c #D2A876",
"Of	c #DCAE7C",
"Pf	c #D9BB86",
"Qf	c #F3CD8F",
"Rf	c #BC9369",
"Sf	c #F9CA8F",
"Tf	c #31251C",
"Uf	c #A7825B",
"Vf	c #E9BA84",
"Wf	c #624B35",
"Xf	c #CD9C6D",
"Yf	c #CB9A6C",
"Zf	c #BF9065",
"`f	c #9D7553",
" g	c #846144",
".g	c #453324",
"+g	c #543B2A",
"@g	c #A17553",
"#g	c #B4835D",
"$g	c #C18D64",
"%g	c #C19167",
"&g	c #A27D59",
"*g	c #776245",
"=g	c #EBC88C",
"-g	c #6E573E",
";g	c #BA9265",
">g	c #BB9A6B",
",g	c #BB976B",
"'g	c #B38E65",
")g	c #C09B6D",
"!g	c #C19F6F",
"~g	c #C29F70",
"{g	c #C6A071",
"]g	c #CDA877",
"^g	c #CEA978",
"/g	c #CFAB7A",
"(g	c #D1AD79",
"_g	c #D2A978",
":g	c #D3A978",
"<g	c #D7AF7B",
"[g	c #D8B47F",
"}g	c #DCB37E",
"|g	c #D0A273",
"1g	c #BB9467",
"2g	c #795E41",
"3g	c #FAF1AE",
"4g	c #FEF1AE",
"5g	c #997654",
"6g	c #F8C58A",
"7g	c #A9835D",
"8g	c #E3B37D",
"9g	c #302419",
"0g	c #5B432F",
"ag	c #644A34",
"bg	c #6E4F37",
"cg	c #523B2A",
"dg	c #35271B",
"eg	c #674F37",
"fg	c #71573F",
"gg	c #E9C48A",
"hg	c #FFCF93",
"ig	c #E5C388",
"jg	c #B48F63",
"kg	c #BD986C",
"lg	c #BF9D6F",
"mg	c #C19F70",
"ng	c #C2A071",
"og	c #CDAA79",
"pg	c #CFAC7A",
"qg	c #D0AC7A",
"rg	c #D3AF7B",
"sg	c #D4B17C",
"tg	c #D6B07C",
"ug	c #D7B17C",
"vg	c #D8B37E",
"wg	c #D9AF7B",
"xg	c #DAAE79",
"yg	c #FFF1B1",
"zg	c #906F4E",
"Ag	c #433222",
"Bg	c #E5B57F",
"Cg	c #E6B681",
"Dg	c #866849",
"Eg	c #634B35",
"Fg	c #473425",
"Gg	c #402E21",
"Hg	c #503928",
"Ig	c #6F4F38",
"Jg	c #8C6648",
"Kg	c #C69D6E",
"Lg	c #FCE2A0",
"Mg	c #FFD698",
"Ng	c #66543B",
"Og	c #E1C48A",
"Pg	c #B79266",
"Qg	c #B8976B",
"Rg	c #BB996C",
"Sg	c #BD9A6C",
"Tg	c #C19C6F",
"Ug	c #C1A070",
"Vg	c #C39F6F",
"Wg	c #C7A674",
"Xg	c #C8A474",
"Yg	c #CAA775",
"Zg	c #CBA876",
"`g	c #CCAA77",
" h	c #D0AD7A",
".h	c #D1AB79",
"+h	c #D2AD7A",
"@h	c #D3B07C",
"#h	c #D3AD7A",
"$h	c #D4AE7C",
"%h	c #D5B17C",
"&h	c #D6B27E",
"*h	c #D6B07D",
"=h	c #D8B17D",
"-h	c #DAB580",
";h	c #DBB480",
">h	c #F4DD9F",
",h	c #6E553C",
"'h	c #F3C88C",
")h	c #F5C68B",
"!h	c #584532",
"~h	c #D4B682",
"{h	c #EABB84",
"]h	c #AF9567",
"^h	c #FFF9BE",
"/h	c #FFFCB9",
"(h	c #E9BA83",
"_h	c #D1A273",
":h	c #BE9166",
"<h	c #9E7553",
"[h	c #8B684A",
"}h	c #685038",
"|h	c #FEE9A5",
"1h	c #F6C68C",
"2h	c #B29065",
"3h	c #B69368",
"4h	c #B29D6F",
"5h	c #FEDB9B",
"6h	c #392F21",
"7h	c #DDBF87",
"8h	c #70593F",
"9h	c #B29066",
"0h	c #BD986B",
"ah	c #BE996B",
"bh	c #BF9C6F",
"ch	c #C09F6F",
"dh	c #C3A172",
"eh	c #C6A473",
"fh	c #C7A172",
"gh	c #CCA877",
"hh	c #CFA978",
"ih	c #D0AB79",
"jh	c #D2AB78",
"kh	c #D3AC7A",
"lh	c #D4AF7C",
"mh	c #D5B17D",
"nh	c #D6AE7A",
"oh	c #D6AF7A",
"ph	c #D7B07D",
"qh	c #D9B37E",
"rh	c #DAAE7C",
"sh	c #C69A6C",
"th	c #BB8F64",
"uh	c #DEB07A",
"vh	c #D7B982",
"wh	c #231A12",
"xh	c #3B2B1F",
"yh	c #FCF8C4",
"zh	c #E9D99D",
"Ah	c #F6D697",
"Bh	c #DFB07D",
"Ch	c #C59E70",
"Dh	c #A9865F",
"Eh	c #F8C58B",
"Fh	c #B3956A",
"Gh	c #2B2419",
"Hh	c #F6D899",
"Ih	c #AB8C62",
"Jh	c #BF9D6E",
"Kh	c #C09E6F",
"Lh	c #C19E6F",
"Mh	c #C19E70",
"Nh	c #C3A171",
"Oh	c #C4A171",
"Ph	c #AA8860",
"Qh	c #3F3022",
"Rh	c #CCA976",
"Sh	c #CEA877",
"Th	c #D1AE7B",
"Uh	c #D2AC79",
"Vh	c #D3AC79",
"Wh	c #D7B27D",
"Xh	c #D8B27D",
"Yh	c #D9B47F",
"Zh	c #C09368",
"`h	c #C6996C",
" i	c #C5986B",
".i	c #BD9267",
"+i	c #BE9367",
"@i	c #BE9268",
"#i	c #B98F65",
"$i	c #F9D396",
"%i	c #FFFCC6",
"&i	c #FFFDC4",
"*i	c #211A11",
"=i	c #B49467",
"-i	c #FFFEBF",
";i	c #CC9F6F",
">i	c #D4A473",
",i	c #FCE7A3",
"'i	c #FFFDBA",
")i	c #CFA070",
"!i	c #6B533C",
"~i	c #E8C48A",
"{i	c #9D7C56",
"]i	c #B39166",
"^i	c #18150F",
"/i	c #B9986C",
"(i	c #BC986C",
"_i	c #BD9C6D",
":i	c #BE9C6E",
"<i	c #C09E70",
"[i	c #A7855D",
"}i	c #C7A474",
"|i	c #CEA876",
"1i	c #D1AE7A",
"2i	c #D5B07C",
"3i	c #D5B27D",
"4i	c #D6B37E",
"5i	c #D7AA77",
"6i	c #DAB680",
"7i	c #DBB781",
"8i	c #FDF2B2",
"9i	c #FFF6B3",
"0i	c #FFF5B2",
"ai	c #FDEEAD",
"bi	c #FEEFAF",
"ci	c #FDECAB",
"di	c #F9E0A1",
"ei	c #F9E1A1",
"fi	c #FBE4A5",
"gi	c #FFF9B9",
"hi	c #A47F59",
"ii	c #7A5E44",
"ji	c #FBF7C4",
"ki	c #FDE29E",
"li	c #FFFBBF",
"mi	c #B48B63",
"ni	c #C4986C",
"oi	c #DEBA83",
"pi	c #BC9A6D",
"qi	c #BC9B6D",
"ri	c #BD9C6E",
"si	c #BD9A6D",
"ti	c #BE9A6C",
"ui	c #C3A070",
"vi	c #C49E70",
"wi	c #C6A373",
"xi	c #CEAC79",
"yi	c #D2AE7B",
"zi	c #D5B07B",
"Ai	c #DAB67F",
"Bi	c #8F724E",
"Ci	c #FCFDC3",
"Di	c #F8CE91",
"Ei	c #F6CC8F",
"Fi	c #F1BF87",
"Gi	c #CEB37F",
"Hi	c #FFFCB4",
"Ii	c #E4B782",
"Ji	c #C29B6C",
"Ki	c #72583E",
"Li	c #403425",
"Mi	c #FBC68C",
"Ni	c #BE9A6D",
"Oi	c #C8A372",
"Pi	c #CFA878",
"Qi	c #D4AD7A",
"Ri	c #D5AC7A",
"Si	c #D8B07B",
"Ti	c #D9B480",
"Ui	c #997A55",
"Vi	c #FCFDC6",
"Wi	c #CFAF7A",
"Xi	c #A27D58",
"Yi	c #FBCC90",
"Zi	c #483A28",
"`i	c #6D5239",
" j	c #FDFAC1",
".j	c #C4966A",
"+j	c #B49267",
"@j	c #3A3022",
"#j	c #BF9C6D",
"$j	c #CDA271",
"%j	c #D1AF7B",
"&j	c #D2AF7B",
"*j	c #D7B37E",
"=j	c #C29F6F",
"-j	c #FBFDC7",
";j	c #FFFDC1",
">j	c #B38F64",
",j	c #F6CA8D",
"'j	c #F6C58B",
")j	c #FFFABB",
"!j	c #C89B6D",
"~j	c #EBD293",
"{j	c #F1CA8E",
"]j	c #E6B780",
"^j	c #E5BA83",
"/j	c #C0956A",
"(j	c #E5C88D",
"_j	c #BF9B6E",
":j	c #CEA674",
"<j	c #D1AD7A",
"[j	c #D1AC7A",
"}j	c #D4AD7B",
"|j	c #D6B17C",
"1j	c #D8B27E",
"2j	c #A8835B",
"3j	c #CAA573",
"4j	c #FBFDC1",
"5j	c #634C36",
"6j	c #F8CB8F",
"7j	c #F5C68C",
"8j	c #FACF91",
"9j	c #FFFEC0",
"0j	c #F0C489",
"aj	c #2A2016",
"bj	c #C3986A",
"cj	c #FBF6B6",
"dj	c #FFFAB5",
"ej	c #CFA071",
"fj	c #D1A475",
"gj	c #F6CA8F",
"hj	c #B58C64",
"ij	c #F6C288",
"jj	c #FED293",
"kj	c #5C533A",
"lj	c #FEC88D",
"mj	c #FFC88D",
"nj	c #C1A071",
"oj	c #C4A272",
"pj	c #D4B07C",
"qj	c #D4B07B",
"rj	c #FBFDC5",
"sj	c #CEA070",
"tj	c #F4CA8F",
"uj	c #F6CB8F",
"vj	c #FEF6B3",
"wj	c #BC9268",
"xj	c #72583F",
"yj	c #F7CD90",
"zj	c #FEFFC3",
"Aj	c #F8DA99",
"Bj	c #C99F71",
"Cj	c #AA8960",
"Dj	c #E0B27C",
"Ej	c #4E3C2B",
"Fj	c #E9B680",
"Gj	c #FDCC90",
"Hj	c #FFD094",
"Ij	c #BE9B6E",
"Jj	c #BF9A6D",
"Kj	c #907351",
"Lj	c #A17F5B",
"Mj	c #D0AA79",
"Nj	c #DAB27E",
"Oj	c #FCFEC5",
"Pj	c #F7D295",
"Qj	c #F8CD91",
"Rj	c #F4C288",
"Sj	c #FACD90",
"Tj	c #F3BF87",
"Uj	c #FAEFAF",
"Vj	c #FFFEBA",
"Wj	c #D8A876",
"Xj	c #977752",
"Yj	c #A5835C",
"Zj	c #E4B17D",
"`j	c #564431",
" k	c #7B6244",
".k	c #2E271C",
"+k	c #CFAC78",
"@k	c #D0AC79",
"#k	c #D6AC79",
"$k	c #D9B27D",
"%k	c #A8825C",
"&k	c #D1AE79",
"*k	c #FCFEC4",
"=k	c #F4C087",
"-k	c #F4BD86",
";k	c #F6D293",
">k	c #FEFEC1",
",k	c #FEEAA6",
"'k	c #C3976B",
")k	c #090707",
"!k	c #EDC087",
"~k	c #090905",
"{k	c #FDCB90",
"]k	c #211C14",
"^k	c #FAD798",
"/k	c #BD996B",
"(k	c #C49D70",
"_k	c #C09C6D",
":k	c #D0AD79",
"<k	c #B28E63",
"[k	c #D7B37D",
"}k	c #D1AF7A",
"|k	c #FDFEC3",
"1k	c #FEE2A0",
"2k	c #FAD093",
"3k	c #FFFDBD",
"4k	c #CB9E6F",
"5k	c #F6C086",
"6k	c #F8EEAA",
"7k	c #FFF7B0",
"8k	c #DFB17E",
"9k	c #DDB07B",
"0k	c #DBAD7B",
"ak	c #614B34",
"bk	c #FEC78C",
"ck	c #13110C",
"dk	c #342B1D",
"ek	c #5C4631",
"fk	c #D9B27E",
"gk	c #CBA573",
"hk	c #FEFFC2",
"ik	c #F4BF87",
"jk	c #FFF4B0",
"kk	c #B48C62",
"lk	c #F6CB8E",
"mk	c #FDFDBF",
"nk	c #E4B881",
"ok	c #1F1A11",
"pk	c #D4A574",
"qk	c #D2A475",
"rk	c #FBC58B",
"sk	c #FFC98C",
"tk	c #FDD898",
"uk	c #654E37",
"vk	c #AE8B62",
"wk	c #231B12",
"xk	c #D4B581",
"yk	c #FBD998",
"zk	c #FFFAB8",
"Ak	c #FBCB8F",
"Bk	c #F9C68C",
"Ck	c #F7E4A4",
"Dk	c #F6D193",
"Ek	c #0B0A06",
"Fk	c #D6A875",
"Gk	c #C69C6F",
"Hk	c #C49B6C",
"Ik	c #FED294",
"Jk	c #967955",
"Kk	c #E8C68D",
"Lk	c #C2A070",
"Mk	c #9C7957",
"Nk	c #D0B581",
"Ok	c #FEFFC9",
"Pk	c #F4C68C",
"Qk	c #FFF7B3",
"Rk	c #F8C68D",
"Sk	c #F6C88D",
"Tk	c #261C14",
"Uk	c #E6BA82",
"Vk	c #F6C98D",
"Wk	c #FCFBBF",
"Xk	c #BC9167",
"Yk	c #DEBB85",
"Zk	c #EEBE85",
"`k	c #F1CF92",
" l	c #ECCA8E",
".l	c #F4C189",
"+l	c #F4C289",
"@l	c #B1976B",
"#l	c #FEE39F",
"$l	c #BD9B6E",
"%l	c #C29E6F",
"&l	c #D2B882",
"*l	c #F3C489",
"=l	c #FBD797",
"-l	c #FBCF90",
";l	c #F8C188",
">l	c #FFF6AF",
",l	c #E7C88D",
"'l	c #FDD294",
")l	c #F2C98D",
"!l	c #FFC88C",
"~l	c #6A5D42",
"{l	c #D0AE7A",
"]l	c #D5AC79",
"^l	c #D8B37F",
"/l	c #D0B27D",
"(l	c #F4C38A",
"_l	c #F9C88D",
":l	c #F1D496",
"<l	c #E9BB84",
"[l	c #F6C78C",
"}l	c #FAF8B2",
"|l	c #F9C58B",
"1l	c #FBF2AB",
"2l	c #896A4C",
"3l	c #EBC28A",
"4l	c #937553",
"5l	c #FCCB8F",
"6l	c #F1BE85",
"7l	c #F5C088",
"8l	c #6B593E",
"9l	c #574B35",
"0l	c #FFC98F",
"al	c #FED596",
"bl	c #C89C6D",
"cl	c #33271D",
"dl	c #C29C6E",
"el	c #C9A676",
"fl	c #CEB17D",
"gl	c #FBE2A0",
"hl	c #806346",
"il	c #AC8660",
"jl	c #FACA8F",
"kl	c #F6D897",
"ll	c #FDD495",
"ml	c #F6C087",
"nl	c #FFD192",
"ol	c #FBD093",
"pl	c #C7A473",
"ql	c #CEA173",
"rl	c #D1B580",
"sl	c #F4CD91",
"tl	c #FEE8A3",
"ul	c #E7B47E",
"vl	c #6E583E",
"wl	c #F2BC85",
"xl	c #FCF5B0",
"yl	c #B08F66",
"zl	c #F3C58C",
"Al	c #AC855F",
"Bl	c #D5A774",
"Cl	c #F6CE91",
"Dl	c #F4C088",
"El	c #C99E6D",
"Fl	c #453727",
"Gl	c #C19D70",
"Hl	c #D7B27E",
"Il	c #D8AE7C",
"Jl	c #CFB27D",
"Kl	c #3E3021",
"Ll	c #F4C188",
"Ml	c #FBE5A2",
"Nl	c #CE9F70",
"Ol	c #F1C68A",
"Pl	c #FFFCB7",
"Ql	c #FAC98D",
"Rl	c #F3DC9C",
"Sl	c #FBD798",
"Tl	c #C4986D",
"Ul	c #D0A374",
"Vl	c #A9875F",
"Wl	c #FED093",
"Xl	c #A7825D",
"Yl	c #7C6045",
"Zl	c #F7C187",
"`l	c #FDC88D",
" m	c #FDCA8F",
".m	c #CBA675",
"+m	c #90704E",
"@m	c #DDC38A",
"#m	c #FCDC9C",
"$m	c #FEF2AD",
"%m	c #CB9C6E",
"&m	c #FFFEB8",
"*m	c #B89064",
"=m	c #FDFBB4",
"-m	c #FEDF9E",
";m	c #896B4A",
">m	c #F9C38A",
",m	c #C29D6E",
"'m	c #D5AF7B",
")m	c #D6B27D",
"!m	c #D7AF7A",
"~m	c #DBC188",
"{m	c #AA845C",
"]m	c #FCF1B0",
"^m	c #FFF4AE",
"/m	c #D3A473",
"(m	c #6A5139",
"_m	c #FBD394",
":m	c #765F43",
"<m	c #7D6547",
"[m	c #FECA8E",
"}m	c #FECA8F",
"|m	c #FCD395",
"1m	c #C9A271",
"2m	c #D4AD79",
"3m	c #D7AD79",
"4m	c #DFC68D",
"5m	c #CDAB79",
"6m	c #9A7754",
"7m	c #CBAB79",
"8m	c #CBA372",
"9m	c #EDBB83",
"0m	c #FCC88D",
"am	c #FDC78B",
"bm	c #FBC48B",
"cm	c #D9C189",
"dm	c #DFC48A",
"em	c #F5F6B1",
"fm	c #FFF8B1",
"gm	c #F7E19D",
"hm	c #020001",
"im	c #F1BD86",
"jm	c #FBC58A",
"km	c #FEC88E",
"lm	c #FCC68B",
"mm	c #F7C78C",
"nm	c #FCD496",
"om	c #C39F70",
"pm	c #A8855C",
"qm	c #0E0D09",
"rm	c #BCA373",
"sm	c #F1DF9E",
"tm	c #F8F9B3",
"um	c #FCD193",
"vm	c #8C6F4D",
"wm	c #F8C289",
"xm	c #F4C086",
"ym	c #C8A473",
"zm	c #AB9065",
"Am	c #EFEFA8",
"Bm	c #E8B782",
"Cm	c #F2EDAB",
"Dm	c #FCFCB7",
"Em	c #907552",
"Fm	c #D8AA76",
"Gm	c #8D6D4D",
"Hm	c #D6A777",
"Im	c #896E4E",
"Jm	c #FCC68C",
"Km	c #CFA575",
"Lm	c #E7E5A5",
"Mm	c #FFF9B2",
"Nm	c #C39569",
"Om	c #F7C188",
"Pm	c #F3C98E",
"Qm	c #F3EFAA",
"Rm	c #FEFEBA",
"Sm	c #EABE86",
"Tm	c #EFC98D",
"Um	c #C5996C",
"Vm	c #DEBD85",
"Wm	c #FCC78C",
"Xm	c #FED798",
"Ym	c #FBCD91",
"Zm	c #D2A976",
"`m	c #EEEEA9",
" n	c #F3CE91",
".n	c #F4F6B2",
"+n	c #D6A676",
"@n	c #2E2218",
"#n	c #FBE9A3",
"$n	c #F9C88E",
"%n	c #E8BB84",
"&n	c #FDC98D",
"*n	c #FECB8E",
"=n	c #D6AD7B",
"-n	c #E6DA9A",
";n	c #FCF9AF",
">n	c #FBCD90",
",n	c #E7B480",
"'n	c #F2C189",
")n	c #F2D797",
"!n	c #F6F5AC",
"~n	c #F4C98D",
"{n	c #E7B983",
"]n	c #F5C38A",
"^n	c #FCCB90",
"/n	c #FEC68C",
"(n	c #FDC58C",
"_n	c #937150",
":n	c #F1C088",
"<n	c #F3C58B",
"[n	c #F3DF9C",
"}n	c #FAF9B0",
"|n	c #A98961",
"1n	c #F5CA8E",
"2n	c #957250",
"3n	c #FDC78D",
"4n	c #FED797",
"5n	c #D0A877",
"6n	c #9B7A57",
"7n	c #D7AB7A",
"8n	c #FCD495",
"9n	c #FEE29E",
"0n	c #836848",
"an	c #F1BE86",
"bn	c #F3E3A1",
"cn	c #FDF5AD",
"dn	c #EAC98E",
"en	c #FFE7A5",
"fn	c #FDD496",
"gn	c #9D7552",
"hn	c #7A4A34",
"in	c #4C3727",
"jn	c #977552",
"kn	c #D1B47F",
"ln	c #FCC58A",
"mn	c #F8C288",
"nn	c #F8C389",
"on	c #F8C48B",
"pn	c #FDDF9D",
"qn	c #1C160E",
"rn	c #DAAA77",
"sn	c #F1BD85",
"tn	c #F3C78D",
"un	c #F4F1AA",
"vn	c #392B1E",
"wn	c #FDE8A3",
"xn	c #AB845E",
"yn	c #281B12",
"zn	c #693A29",
"An	c #321B13",
"Bn	c #38251B",
"Cn	c #4E3B2A",
"Dn	c #74553B",
"En	c #57422F",
"Fn	c #D9B881",
"Gn	c #FAC48B",
"Hn	c #F4BE87",
"In	c #FFCF90",
"Jn	c #F8CC90",
"Kn	c #FCD697",
"Ln	c #F4D394",
"Mn	c #F6ECA7",
"Nn	c #F3CB8F",
"On	c #7D6447",
"Pn	c #0D0806",
"Qn	c #0E0906",
"Rn	c #542E20",
"Sn	c #784531",
"Tn	c #321C14",
"Un	c #6C3A29",
"Vn	c #20130E",
"Wn	c #A4835C",
"Xn	c #F3BE86",
"Yn	c #F6C088",
"Zn	c #FEE5A1",
"`n	c #EFC38A",
" o	c #A07D5A",
".o	c #F0BC85",
"+o	c #F4DD9C",
"@o	c #120A07",
"#o	c #120B08",
"$o	c #100A07",
"%o	c #5C3223",
"&o	c #76402D",
"*o	c #784430",
"=o	c #57402D",
"-o	c #0A0604",
";o	c #3A2016",
">o	c #0C0705",
",o	c #382017",
"'o	c #F0C88C",
")o	c #EAB883",
"!o	c #F8C28A",
"~o	c #F3C088",
"{o	c #F8C68C",
"]o	c #FACA8E",
"^o	c #7C6146",
"/o	c #967451",
"(o	c #F5C389",
"_o	c #8E6F4D",
":o	c #F4DC9C",
"<o	c #FCF5AC",
"[o	c #F3D594",
"}o	c #977855",
"|o	c #2E1711",
"1o	c #140B08",
"2o	c #281710",
"3o	c #542E21",
"4o	c #78422F",
"5o	c #75412E",
"6o	c #956D4C",
"7o	c #21130F",
"8o	c #2F1B12",
"9o	c #713D2B",
"0o	c #5E4531",
"ao	c #F8D697",
"bo	c #FFCA90",
"co	c #F9C489",
"do	c #F9C389",
"eo	c #FDCF92",
"fo	c #F5C089",
"go	c #272015",
"ho	c #F5EDA8",
"io	c #271E17",
"jo	c #110C08",
"ko	c #462319",
"lo	c #713F2D",
"mo	c #7B4531",
"no	c #7B4732",
"oo	c #7E4934",
"po	c #7A4631",
"qo	c #8B6144",
"ro	c #72402D",
"so	c #673B2B",
"to	c #95553B",
"uo	c #8C4C36",
"vo	c #1B100C",
"wo	c #442F22",
"xo	c #F3BF86",
"yo	c #FAC78C",
"zo	c #FDD193",
"Ao	c #FED496",
"Bo	c #241B12",
"Co	c #C89E6E",
"Do	c #A17F58",
"Eo	c #B58D65",
"Fo	c #F6D798",
"Go	c #9B7E57",
"Ho	c #FEE9A4",
"Io	c #F6C38A",
"Jo	c #23140E",
"Ko	c #5A2E20",
"Lo	c #502D1F",
"Mo	c #794431",
"No	c #7B4632",
"Oo	c #794631",
"Po	c #774632",
"Qo	c #794531",
"Ro	c #82543B",
"So	c #71412E",
"To	c #895038",
"Uo	c #99583E",
"Vo	c #97553C",
"Wo	c #160E09",
"Xo	c #2A1710",
"Yo	c #6F533A",
"Zo	c #B48F65",
"`o	c #DAB882",
" p	c #F6C187",
".p	c #FBCC8F",
"+p	c #FEDA99",
"@p	c #D6A775",
"#p	c #937250",
"$p	c #F1D899",
"%p	c #271E14",
"&p	c #F5C48A",
"*p	c #F8CC8F",
"=p	c #F6DC9B",
"-p	c #DFBD85",
";p	c #4E281D",
">p	c #743A29",
",p	c #7E4732",
"'p	c #7A4530",
")p	c #774530",
"!p	c #7D4933",
"~p	c #76432F",
"{p	c #784631",
"]p	c #74422F",
"^p	c #70402D",
"/p	c #874E37",
"(p	c #9B5A3F",
"_p	c #9D593E",
":p	c #21130E",
"<p	c #572D20",
"[p	c #2A1D15",
"}p	c #2D2117",
"|p	c #E5B983",
"1p	c #F7C489",
"2p	c #EEBA84",
"3p	c #F5C188",
"4p	c #FFD497",
"5p	c #1E170F",
"6p	c #997856",
"7p	c #F1BF88",
"8p	c #F6EBA5",
"9p	c #FAF2AA",
"0p	c #BF9568",
"ap	c #31251A",
"bp	c #FDD092",
"cp	c #614A36",
"dp	c #1A100C",
"ep	c #673023",
"fp	c #743C29",
"gp	c #7C4632",
"hp	c #7D4834",
"ip	c #7F4B35",
"jp	c #7E4A34",
"kp	c #784632",
"lp	c #7B4833",
"mp	c #794732",
"np	c #90543C",
"op	c #9E5C40",
"pp	c #9C593F",
"qp	c #40251A",
"rp	c #412017",
"sp	c #3A1E14",
"tp	c #533B2A",
"up	c #FFD091",
"vp	c #735940",
"wp	c #83674A",
"xp	c #F8C38A",
"yp	c #F4BF86",
"zp	c #FDC88E",
"Ap	c #261D13",
"Bp	c #9C7C56",
"Cp	c #F6EDA6",
"Dp	c #FEEFA9",
"Ep	c #4F3E2D",
"Fp	c #381E15",
"Gp	c #753A29",
"Hp	c #7B432F",
"Ip	c #7C4733",
"Jp	c #804B35",
"Kp	c #7D4934",
"Lp	c #7C4934",
"Mp	c #7E4C35",
"Np	c #7C4A35",
"Op	c #794832",
"Pp	c #8F553D",
"Qp	c #9F5D41",
"Rp	c #9E5B42",
"Sp	c #593325",
"Tp	c #23120D",
"Up	c #7D3F2C",
"Vp	c #FCCF93",
"Wp	c #FAC28A",
"Xp	c #F0BB85",
"Yp	c #FDC98E",
"Zp	c #F9CD91",
"`p	c #EBCB8F",
" q	c #0D0C07",
".q	c #BE9368",
"+q	c #F6EBA6",
"@q	c #D6B47F",
"#q	c #785A40",
"$q	c #613123",
"%q	c #763B29",
"&q	c #7C4531",
"*q	c #7B4530",
"=q	c #7E4933",
"-q	c #814D36",
";q	c #804C36",
">q	c #7C4A34",
",q	c #794833",
"'q	c #7B4834",
")q	c #7A4934",
"!q	c #97583E",
"~q	c #A36044",
"{q	c #A05D41",
"]q	c #78412E",
"^q	c #1B0E0B",
"/q	c #88442F",
"(q	c #361F16",
"_q	c #CFAB78",
":q	c #F8C78C",
"<q	c #FDD597",
"[q	c #C1966B",
"}q	c #C1956A",
"|q	c #FFF1A8",
"1q	c #4E3E2A",
"2q	c #F8CE90",
"3q	c #F7E7A2",
"4q	c #755E42",
"5q	c #745A3E",
"6q	c #FBE4A1",
"7q	c #3E2B1F",
"8q	c #25130E",
"9q	c #773F2C",
"0q	c #7A402D",
"aq	c #7E4832",
"bq	c #7D4631",
"cq	c #814B36",
"dq	c #7F4C35",
"eq	c #7A4833",
"fq	c #7D4B35",
"gq	c #9A5C42",
"hq	c #A36043",
"iq	c #9F5C41",
"jq	c #925139",
"kq	c #0E0806",
"lq	c #6C3425",
"mq	c #7C3B2A",
"nq	c #271B13",
"oq	c #60442F",
"pq	c #080606",
"qq	c #FCCA8E",
"rq	c #FECF91",
"sq	c #FED094",
"tq	c #FEDC9A",
"uq	c #554430",
"vq	c #F5D698",
"wq	c #F9CB90",
"xq	c #F9DB99",
"yq	c #FFDB9C",
"zq	c #836346",
"Aq	c #4D271B",
"Bq	c #773C2B",
"Cq	c #7A412E",
"Dq	c #7E4733",
"Eq	c #7D4832",
"Fq	c #824D37",
"Gq	c #834E37",
"Hq	c #7A4933",
"Iq	c #774732",
"Jq	c #98583E",
"Kq	c #9B5A3E",
"Lq	c #944F37",
"Mq	c #140D09",
"Nq	c #643324",
"Oq	c #8D4430",
"Pq	c #3B1C13",
"Qq	c #704D37",
"Rq	c #433122",
"Sq	c #FAC68B",
"Tq	c #FCCA8F",
"Uq	c #FED092",
"Vq	c #FED395",
"Wq	c #D4A474",
"Xq	c #C4986B",
"Yq	c #4A392A",
"Zq	c #4F3F2B",
"`q	c #FACB8E",
" r	c #DBAE7A",
".r	c #3F3023",
"+r	c #513828",
"@r	c #180D09",
"#r	c #6B3425",
"$r	c #773E2B",
"%r	c #7B4430",
"&r	c #865139",
"*r	c #88543C",
"=r	c #824E37",
"-r	c #9D5B41",
";r	c #A25E42",
">r	c #A05E41",
",r	c #9E583D",
"'r	c #25140F",
")r	c #4C281C",
"!r	c #8A422E",
"~r	c #7D3B29",
"{r	c #241811",
"]r	c #936A4B",
"^r	c #1C140F",
"/r	c #FECB8F",
"(r	c #F7C38A",
"_r	c #FECA8D",
":r	c #1A160F",
"<r	c #F9CE91",
"[r	c #957652",
"}r	c #3A2B1F",
"|r	c #F8D898",
"1r	c #876849",
"2r	c #18110B",
"3r	c #3B1F16",
"4r	c #753828",
"5r	c #753B29",
"6r	c #753C2B",
"7r	c #89553D",
"8r	c #804A35",
"9r	c #7D4A34",
"0r	c #7E4C36",
"ar	c #7B4933",
"br	c #865038",
"cr	c #A15F43",
"dr	c #A56145",
"er	c #A56045",
"fr	c #9F5B40",
"gr	c #3E2117",
"hr	c #341A13",
"ir	c #89422F",
"jr	c #8A412E",
"kr	c #442117",
"lr	c #624631",
"mr	c #6E553B",
"nr	c #FFC78D",
"or	c #FAC389",
"pr	c #FED192",
"qr	c #FDCC8F",
"rr	c #FBCE92",
"sr	c #E3BC85",
"tr	c #372D1F",
"ur	c #30261C",
"vr	c #CAAB78",
"wr	c #613324",
"xr	c #9A6B4C",
"yr	c #7F4A34",
"zr	c #814C36",
"Ar	c #804C35",
"Br	c #7F4C36",
"Cr	c #7B4A34",
"Dr	c #A06043",
"Er	c #A66246",
"Fr	c #A15E43",
"Gr	c #A05C40",
"Hr	c #562D1F",
"Ir	c #1E0F0B",
"Jr	c #88422E",
"Kr	c #7F3929",
"Lr	c #1F120C",
"Mr	c #A07E5A",
"Nr	c #392D21",
"Or	c #433524",
"Pr	c #251D13",
"Qr	c #5D4732",
"Rr	c #FEDA9A",
"Sr	c #221810",
"Tr	c #24150F",
"Ur	c #783F2C",
"Vr	c #743828",
"Wr	c #814A34",
"Xr	c #98694B",
"Yr	c #7F4934",
"Zr	c #7F4B34",
"`r	c #804C37",
" s	c #7E4D35",
".s	c #A16043",
"+s	c #A56246",
"@s	c #A05E42",
"#s	c #A05D42",
"$s	c #703B2A",
"%s	c #0F0A06",
"&s	c #81402D",
"*s	c #873E2C",
"=s	c #843C2A",
"-s	c #4A2017",
";s	c #FAC489",
">s	c #F0BE85",
",s	c #FECE92",
"'s	c #F8C68B",
")s	c #FFCD8F",
"!s	c #F3C28A",
"~s	c #8E5F43",
"{s	c #724B36",
"]s	c #FBD495",
"^s	c #2F241B",
"/s	c #E6BA83",
"(s	c #542F22",
"_s	c #773B2A",
":s	c #753928",
"<s	c #5D3627",
"[s	c #6F4933",
"}s	c #814C35",
"|s	c #7E4B35",
"1s	c #8D543C",
"2s	c #A26044",
"3s	c #854933",
"4s	c #0D0706",
"5s	c #723526",
"6s	c #873F2C",
"7s	c #833C2A",
"8s	c #813A29",
"9s	c #A07B58",
"0s	c #341B13",
"as	c #8E4933",
"bs	c #693526",
"cs	c #0C0805",
"ds	c #A18059",
"es	c #110A08",
"fs	c #774430",
"gs	c #7A3F2D",
"hs	c #773C2A",
"is	c #783B2A",
"js	c #3E251A",
"ks	c #160D09",
"ls	c #804D36",
"ms	c #804B36",
"ns	c #93583D",
"os	c #A56144",
"ps	c #95523A",
"qs	c #110A06",
"rs	c #59291D",
"ss	c #863F2C",
"ts	c #86412E",
"us	c #683827",
"vs	c #35281C",
"ws	c #1C1611",
"xs	c #FCC88C",
"ys	c #FDC88C",
"zs	c #F9CC90",
"As	c #F2C089",
"Bs	c #884632",
"Cs	c #924C34",
"Ds	c #2A1811",
"Es	c #F9D998",
"Fs	c #F5C78D",
"Gs	c #19150F",
"Hs	c #72553D",
"Is	c #382117",
"Js	c #834934",
"Ks	c #793F2C",
"Ls	c #1C120D",
"Ms	c #22140E",
"Ns	c #7B4934",
"Os	c #995B41",
"Ps	c #A15E42",
"Qs	c #A46044",
"Rs	c #9C583F",
"Ss	c #190E09",
"Ts	c #52251A",
"Us	c #863D2C",
"Vs	c #89422E",
"Ws	c #894530",
"Xs	c #934F38",
"Ys	c #361E15",
"Zs	c #FCC58C",
"`s	c #FAC98E",
" t	c #FDCE92",
".t	c #5B3123",
"+t	c #9B523B",
"@t	c #965239",
"#t	c #834732",
"$t	c #552E20",
"%t	c #745A41",
"&t	c #2C231A",
"*t	c #3C281D",
"=t	c #643927",
"-t	c #7D4330",
";t	c #743928",
">t	c #733828",
",t	c #53281D",
"'t	c #060505",
")t	c #291911",
"!t	c #834C36",
"~t	c #814B35",
"{t	c #794733",
"]t	c #94573D",
"^t	c #A56245",
"/t	c #A25F43",
"(t	c #9E5C41",
"_t	c #9E5A3F",
":t	c #2C1811",
"<t	c #371A13",
"[t	c #853B2A",
"}t	c #853E2B",
"|t	c #873F2D",
"1t	c #924E38",
"2t	c #7E4531",
"3t	c #2C2017",
"4t	c #F7C189",
"5t	c #FBD193",
"6t	c #664B35",
"7t	c #150E0A",
"8t	c #97543B",
"9t	c #9A563D",
"0t	c #7F4532",
"at	c #6D3C2A",
"bt	c #0F0907",
"ct	c #7C6246",
"dt	c #0E0A06",
"et	c #947251",
"ft	c #F5C98E",
"gt	c #A9835C",
"ht	c #906C4C",
"it	c #110B08",
"jt	c #1E110D",
"kt	c #77422F",
"lt	c #77402D",
"mt	c #713626",
"nt	c #733928",
"ot	c #22130D",
"pt	c #341E15",
"qt	c #794731",
"rt	c #7A4832",
"st	c #784732",
"tt	c #92553C",
"ut	c #A45F44",
"vt	c #A35F43",
"wt	c #9F5D42",
"xt	c #47261B",
"yt	c #7E3827",
"zt	c #813627",
"At	c #823A2A",
"Bt	c #904F37",
"Ct	c #945139",
"Dt	c #583223",
"Et	c #F9C289",
"Ft	c #ECB981",
"Gt	c #FCD798",
"Ht	c #150F0A",
"It	c #110A07",
"Jt	c #643626",
"Kt	c #BB805A",
"Lt	c #3B2218",
"Mt	c #A45C41",
"Nt	c #A05940",
"Ot	c #9A573D",
"Pt	c #844A33",
"Qt	c #703E2C",
"Rt	c #020203",
"St	c #E8BF87",
"Tt	c #FFDF9F",
"Ut	c #6B4532",
"Vt	c #4D2B1F",
"Wt	c #7C4430",
"Xt	c #763E2C",
"Yt	c #6F3425",
"Zt	c #52281B",
"`t	c #261812",
" u	c #3D241A",
".u	c #7B4832",
"+u	c #764532",
"@u	c #A46043",
"#u	c #A05C41",
"$u	c #643727",
"%u	c #6E2F21",
"&u	c #823827",
"*u	c #843D2B",
"=u	c #945039",
"-u	c #915039",
";u	c #915038",
">u	c #331F15",
",u	c #9A6E4E",
"'u	c #B1875F",
")u	c #EFBB83",
"!u	c #F2BE85",
"~u	c #FBC58C",
"{u	c #371E16",
"]u	c #381F15",
"^u	c #A46245",
"/u	c #7C4833",
"(u	c #9E5B40",
"_u	c #A25D41",
":u	c #884E37",
"<u	c #74432F",
"[u	c #311D13",
"}u	c #916E4E",
"|u	c #2C1A12",
"1u	c #6E3B2B",
"2u	c #763D2C",
"3u	c #713827",
"4u	c #1B0F0A",
"5u	c #5B3D2B",
"6u	c #130D09",
"7u	c #46271C",
"8u	c #7D4531",
"9u	c #824C36",
"0u	c #774531",
"au	c #8C513A",
"bu	c #A26043",
"cu	c #A15F42",
"du	c #72412E",
"eu	c #471E16",
"fu	c #7E3425",
"gu	c #884C35",
"hu	c #78432F",
"iu	c #7A4330",
"ju	c #603425",
"ku	c #26140F",
"lu	c #895139",
"mu	c #876648",
"nu	c #624E35",
"ou	c #957956",
"pu	c #733F2D",
"qu	c #1F110D",
"ru	c #94573E",
"su	c #916A4B",
"tu	c #19100B",
"uu	c #9B583E",
"vu	c #A76245",
"wu	c #A35E43",
"xu	c #95553C",
"yu	c #764430",
"zu	c #45271C",
"Au	c #A5805B",
"Bu	c #BD9367",
"Cu	c #81553C",
"Du	c #361E16",
"Eu	c #76422F",
"Fu	c #76412E",
"Gu	c #743C2A",
"Hu	c #4F261B",
"Iu	c #18100B",
"Ju	c #673A29",
"Ku	c #7C4530",
"Lu	c #7A4732",
"Mu	c #764530",
"Nu	c #784731",
"Ou	c #98593E",
"Pu	c #9E5B41",
"Qu	c #A25D43",
"Ru	c #8C5038",
"Su	c #0D0805",
"Tu	c #6E3122",
"Uu	c #793727",
"Vu	c #26150F",
"Wu	c #2E1B13",
"Xu	c #301C13",
"Yu	c #301A12",
"Zu	c #1E100B",
"`u	c #915A3F",
" v	c #F6D596",
".v	c #A07F5A",
"+v	c #A9865D",
"@v	c #6C533C",
"#v	c #170E0B",
"$v	c #874A34",
"%v	c #5B3323",
"&v	c #49281D",
"*v	c #A96345",
"=v	c #A25E43",
"-v	c #A66145",
";v	c #995940",
">v	c #794632",
",v	c #573023",
"'v	c #A5825D",
")v	c #957351",
"!v	c #553022",
"~v	c #5F3526",
"{v	c #743F2D",
"]v	c #733E2C",
"^v	c #6B3625",
"/v	c #150D09",
"(v	c #42291D",
"_v	c #6D4330",
":v	c #522A1E",
"<v	c #763C2B",
"[v	c #74422E",
"}v	c #97563D",
"|v	c #9E5A40",
"1v	c #A35E42",
"2v	c #9F5B41",
"3v	c #9C5B40",
"4v	c #98573D",
"5v	c #27130D",
"6v	c #3F1D14",
"7v	c #823A29",
"8v	c #8A4C36",
"9v	c #884C36",
"0v	c #8E5038",
"av	c #804631",
"bv	c #8D4E36",
"cv	c #2A1911",
"dv	c #703D2B",
"ev	c #E4C287",
"fv	c #786043",
"gv	c #987955",
"hv	c #1B100B",
"iv	c #96563D",
"jv	c #6F3F2D",
"kv	c #1C110D",
"lv	c #1D120C",
"mv	c #71432F",
"nv	c #A35F44",
"ov	c #A76346",
"pv	c #9C5C40",
"qv	c #6D3F2D",
"rv	c #E6B67F",
"sv	c #C99B6E",
"tv	c #F9CC8F",
"uv	c #895D41",
"vv	c #23130D",
"wv	c #21140F",
"xv	c #75422E",
"yv	c #723E2C",
"zv	c #3E1E15",
"Av	c #100907",
"Bv	c #7A4F38",
"Cv	c #5D3C29",
"Dv	c #5B2D20",
"Ev	c #794530",
"Fv	c #96573E",
"Gv	c #A15D42",
"Hv	c #99563C",
"Iv	c #170F0A",
"Jv	c #4D2319",
"Kv	c #22100C",
"Lv	c #642E20",
"Mv	c #995A40",
"Nv	c #8F5038",
"Ov	c #4F2D20",
"Pv	c #894C35",
"Qv	c #B98860",
"Rv	c #AC895F",
"Sv	c #FDC68D",
"Tv	c #F5BF87",
"Uv	c #765E41",
"Vv	c #25160F",
"Wv	c #99553D",
"Xv	c #9A593F",
"Yv	c #1C110C",
"Zv	c #A86446",
"`v	c #A96447",
" w	c #824D36",
".w	c #75422F",
"+w	c #110B07",
"@w	c #D6A677",
"#w	c #D7A776",
"$w	c #764230",
"%w	c #522D21",
"&w	c #683928",
"*w	c #8F6B4B",
"=w	c #4E2B1E",
"-w	c #0B0605",
";w	c #613022",
">w	c #773F2E",
",w	c #7A4733",
"'w	c #885E42",
")w	c #73412E",
"!w	c #74422D",
"~w	c #9B5940",
"{w	c #9D583E",
"]w	c #9F5A40",
"^w	c #9D5A3F",
"/w	c #98563D",
"(w	c #241610",
"_w	c #3C1A13",
":w	c #6C3524",
"<w	c #281410",
"[w	c #765138",
"}w	c #1D110C",
"|w	c #341C15",
"1w	c #874A35",
"2w	c #C7976A",
"3w	c #352117",
"4w	c #A66144",
"5w	c #543223",
"6w	c #2B1C13",
"7w	c #A86346",
"8w	c #A66346",
"9w	c #A16143",
"0w	c #854E38",
"aw	c #744330",
"bw	c #190F0B",
"cw	c #FBC98E",
"dw	c #8B6447",
"ew	c #46271B",
"fw	c #6D3D2B",
"gw	c #723F2C",
"hw	c #77402E",
"iw	c #3D231A",
"jw	c #0B0505",
"kw	c #744D36",
"lw	c #8C694A",
"mw	c #401E15",
"nw	c #6A3526",
"ow	c #7C4631",
"pw	c #7A4531",
"qw	c #8F6447",
"rw	c #7E4833",
"sw	c #A25C42",
"tw	c #382016",
"uw	c #2A140F",
"vw	c #7D3D2B",
"ww	c #513526",
"xw	c #684430",
"yw	c #724632",
"zw	c #8E5139",
"Aw	c #905038",
"Bw	c #904E37",
"Cw	c #7F4430",
"Dw	c #3A2017",
"Ew	c #905D41",
"Fw	c #BF9368",
"Gw	c #B18F64",
"Hw	c #937552",
"Iw	c #41281C",
"Jw	c #9F6044",
"Kw	c #A86447",
"Lw	c #A86547",
"Mw	c #A86546",
"Nw	c #A56244",
"Ow	c #90563D",
"Pw	c #FFE0A0",
"Qw	c #140C09",
"Rw	c #3A1F17",
"Sw	c #733F2C",
"Tw	c #74412F",
"Uw	c #603626",
"Vw	c #8C6C4C",
"Ww	c #865A3F",
"Xw	c #361812",
"Yw	c #170C09",
"Zw	c #6D3828",
"`w	c #79452F",
" x	c #83563C",
".x	c #6F3E2C",
"+x	c #7B4631",
"@x	c #A45F42",
"#x	c #9C593E",
"$x	c #392218",
"%x	c #29130E",
"&x	c #783324",
"*x	c #896346",
"=x	c #2D1A11",
"-x	c #683C2B",
";x	c #AC7250",
">x	c #8E4E37",
",x	c #8F5139",
"'x	c #8B4D36",
")x	c #8F4F37",
"!x	c #854A33",
"~x	c #26160F",
"{x	c #1E110C",
"]x	c #8F6849",
"^x	c #4D3E2C",
"/x	c #63422F",
"(x	c #A36144",
"_x	c #A05E43",
":x	c #A56346",
"<x	c #A96547",
"[x	c #92573E",
"}x	c #46291D",
"|x	c #6C563B",
"1x	c #D8A776",
"2x	c #F8D798",
"3x	c #FDDD9D",
"4x	c #8E694A",
"5x	c #5D3324",
"6x	c #663828",
"7x	c #73402D",
"8x	c #723F2D",
"9x	c #080403",
"0x	c #8A6446",
"ax	c #7A4431",
"bx	c #26120C",
"cx	c #1C0E0B",
"dx	c #764330",
"ex	c #855B3F",
"fx	c #A25D42",
"gx	c #A35D41",
"hx	c #351F15",
"ix	c #180C09",
"jx	c #753122",
"kx	c #866245",
"lx	c #875B40",
"mx	c #966C4C",
"nx	c #97573E",
"ox	c #94543B",
"px	c #92533A",
"qx	c #905139",
"rx	c #8A4B35",
"sx	c #4A2A1D",
"tx	c #604B36",
"ux	c #FBC78D",
"vx	c #FACD91",
"wx	c #957754",
"xx	c #71573D",
"yx	c #755A41",
"zx	c #D3AB79",
"Ax	c #604934",
"Bx	c #633A29",
"Cx	c #2B1A13",
"Dx	c #5C3727",
"Ex	c #AA6548",
"Fx	c #AA6547",
"Gx	c #95593F",
"Hx	c #593425",
"Ix	c #FFD89A",
"Jx	c #FCD89A",
"Kx	c #F0BF86",
"Lx	c #F8CA8F",
"Mx	c #84523B",
"Nx	c #1E130D",
"Ox	c #2E1913",
"Px	c #723C2B",
"Qx	c #713C29",
"Rx	c #583122",
"Sx	c #573C2B",
"Tx	c #6F3526",
"Ux	c #1E0E0A",
"Vx	c #713E2C",
"Wx	c #74412E",
"Xx	c #81533B",
"Yx	c #9C5940",
"Zx	c #2B1912",
"`x	c #0F0906",
" y	c #713324",
".y	c #885B40",
"+y	c #885038",
"@y	c #21150F",
"#y	c #6B412E",
"$y	c #8B4C36",
"%y	c #8F5138",
"&y	c #8C4D36",
"*y	c #8C4E37",
"=y	c #6E3D2B",
"-y	c #130C09",
";y	c #AB8E64",
">y	c #D5B17B",
",y	c #9F7854",
"'y	c #70422F",
")y	c #A66345",
"!y	c #975A3F",
"~y	c #382218",
"{y	c #A66446",
"]y	c #9A5C41",
"^y	c #663B29",
"/y	c #8D6A4B",
"(y	c #6A3B29",
"_y	c #5E3324",
":y	c #6D3A29",
"<y	c #6C3A28",
"[y	c #271511",
"}y	c #866346",
"|y	c #622A1E",
"1y	c #180C08",
"2y	c #312016",
"3y	c #6F3D2B",
"4y	c #73412D",
"5y	c #774631",
"6y	c #75432E",
"7y	c #A45E42",
"8y	c #A15D41",
"9y	c #9B573D",
"0y	c #2C1912",
"ay	c #713525",
"by	c #8E573D",
"cy	c #92674A",
"dy	c #874833",
"ey	c #351D14",
"fy	c #1F120D",
"gy	c #4C2C1E",
"hy	c #8D4E37",
"iy	c #884B34",
"jy	c #814531",
"ky	c #44251A",
"ly	c #7F6649",
"my	c #FEDC9B",
"ny	c #D0B780",
"oy	c #1C1712",
"py	c #A87E59",
"qy	c #130C08",
"ry	c #8A513A",
"sy	c #94583E",
"ty	c #261810",
"uy	c #A76547",
"vy	c #A76246",
"wy	c #9B5C41",
"xy	c #70412E",
"yy	c #FFDC9D",
"zy	c #86573D",
"Ay	c #2D1912",
"By	c #1A0F0B",
"Cy	c #78412F",
"Dy	c #6F3C2A",
"Ey	c #512D1F",
"Fy	c #8A694A",
"Gy	c #7B533B",
"Hy	c #5A271B",
"Iy	c #372218",
"Jy	c #6E3D2C",
"Ky	c #784530",
"Ly	c #8E533B",
"My	c #A45F43",
"Ny	c #9A583E",
"Oy	c #673324",
"Py	c #95583E",
"Qy	c #8C704D",
"Ry	c #995F43",
"Sy	c #8F4C36",
"Ty	c #351E15",
"Uy	c #150D08",
"Vy	c #271610",
"Wy	c #522E21",
"Xy	c #8B4D38",
"Yy	c #864933",
"Zy	c #703C2A",
"`y	c #22130E",
" z	c #433325",
".z	c #DEA273",
"+z	c #AE835D",
"@z	c #D3A576",
"#z	c #FCDC9B",
"$z	c #EACC90",
"%z	c #886D4C",
"&z	c #876345",
"*z	c #130C07",
"=z	c #A56345",
"-z	c #180F0B",
";z	c #513122",
">z	c #A76447",
",z	c #7B4733",
"'z	c #190E0A",
")z	c #8F6D4E",
"!z	c #804731",
"~z	c #4C2B1E",
"{z	c #7B442F",
"]z	c #79422E",
"^z	c #1F130D",
"/z	c #201710",
"(z	c #F9D194",
"_z	c #6C3C2B",
":z	c #451E15",
"<z	c #3B261A",
"[z	c #703F2D",
"}z	c #754230",
"|z	c #754330",
"1z	c #754430",
"2z	c #844D37",
"3z	c #A05B41",
"4z	c #9C583E",
"5z	c #9C573E",
"6z	c #331D14",
"7z	c #5C3324",
"8z	c #9D7956",
"9z	c #8F6648",
"0z	c #996144",
"az	c #884933",
"bz	c #5F3224",
"cz	c #311B13",
"dz	c #24140F",
"ez	c #49291D",
"fz	c #693928",
"gz	c #804430",
"hz	c #854632",
"iz	c #5E3223",
"jz	c #20120C",
"kz	c #3A2118",
"lz	c #3C2117",
"mz	c #140C08",
"nz	c #EBD093",
"oz	c #1E120D",
"pz	c #9C5D42",
"qz	c #91573D",
"rz	c #A66245",
"sz	c #99593F",
"tz	c #261711",
"uz	c #4A3828",
"vz	c #A06849",
"wz	c #955139",
"xz	c #99533A",
"yz	c #593223",
"zz	c #BA8F65",
"Az	c #662F21",
"Bz	c #29130D",
"Cz	c #472C20",
"Dz	c #6E3F2C",
"Ez	c #6C3F2C",
"Fz	c #6F402D",
"Gz	c #6D3E2C",
"Hz	c #6B3D2B",
"Iz	c #6F412E",
"Jz	c #72442F",
"Kz	c #9C563D",
"Lz	c #3A2117",
"Mz	c #4D2A1E",
"Nz	c #A46E4E",
"Oz	c #886548",
"Pz	c #956547",
"Qz	c #9E6144",
"Rz	c #6E3C2A",
"Sz	c #382015",
"Tz	c #150C08",
"Uz	c #512A1E",
"Vz	c #683727",
"Wz	c #5D3223",
"Xz	c #FFCA8D",
"Yz	c #F8E29F",
"Zz	c #B68D64",
"`z	c #4B3727",
" A	c #372016",
".A	c #A46246",
"+A	c #A05A3F",
"@A	c #A76446",
"#A	c #8F533B",
"$A	c #764431",
"%A	c #A35B40",
"&A	c #412318",
"*A	c #A5583E",
"=A	c #98533B",
"-A	c #7F5E42",
";A	c #5C261B",
">A	c #130B07",
",A	c #4A2C1F",
"'A	c #6C3E2B",
")A	c #683C29",
"!A	c #683C2A",
"~A	c #6C3F2D",
"{A	c #6E3F2D",
"]A	c #7E4935",
"^A	c #98583D",
"/A	c #9D593F",
"(A	c #99553C",
"_A	c #4E2C1F",
":A	c #543F2D",
"<A	c #F8C48A",
"[A	c #856748",
"}A	c #956145",
"|A	c #94563D",
"1A	c #7E4530",
"2A	c #532B1E",
"3A	c #2C1711",
"4A	c #180E0A",
"5A	c #FCC98F",
"6A	c #CEA475",
"7A	c #332319",
"8A	c #47291D",
"9A	c #9F5E42",
"0A	c #9F5B3F",
"aA	c #A05F43",
"bA	c #9D5B40",
"cA	c #854D37",
"dA	c #512E21",
"eA	c #3A2C20",
"fA	c #9C7A55",
"gA	c #9A694B",
"hA	c #6E3B2A",
"iA	c #874733",
"jA	c #A6583F",
"kA	c #5F3424",
"lA	c #0C0706",
"mA	c #734A34",
"nA	c #51241A",
"oA	c #513021",
"pA	c #6D3B2B",
"qA	c #6A3B2A",
"rA	c #693B2A",
"sA	c #663A29",
"tA	c #653A29",
"uA	c #673B2A",
"vA	c #673C2A",
"wA	c #8D4F38",
"xA	c #9B573E",
"yA	c #9B563E",
"zA	c #7E6547",
"AA	c #866648",
"BA	c #906446",
"CA	c #915A40",
"DA	c #5C3123",
"EA	c #1C0F0A",
"FA	c #F8C189",
"GA	c #FAC58A",
"HA	c #A48760",
"IA	c #443627",
"JA	c #CE9D6F",
"KA	c #211811",
"LA	c #583425",
"MA	c #A36245",
"NA	c #9B563D",
"OA	c #A56044",
"PA	c #864E37",
"QA	c #A15C41",
"RA	c #1A100B",
"SA	c #291710",
"TA	c #A7593E",
"UA	c #9A533A",
"VA	c #170D0A",
"WA	c #785B40",
"XA	c #5B3928",
"YA	c #663929",
"ZA	c #653727",
"`A	c #643928",
" B	c #864B35",
".B	c #96513A",
"+B	c #9A553B",
"@B	c #975239",
"#B	c #925039",
"$B	c #FBC88D",
"%B	c #34261B",
"&B	c #C5AA77",
"*B	c #937753",
"=B	c #C6966B",
"-B	c #110B09",
";B	c #6A3D2B",
">B	c #9F5E43",
",B	c #9C573D",
"'B	c #9F5C42",
")B	c #9D5C41",
"!B	c #8B5139",
"~B	c #774330",
"{B	c #916446",
"]B	c #7F432F",
"^B	c #693827",
"/B	c #A9593E",
"(B	c #5A3023",
"_B	c #673323",
":B	c #25140E",
"<B	c #392016",
"[B	c #633625",
"}B	c #623525",
"|B	c #643627",
"1B	c #653828",
"2B	c #653827",
"3B	c #633726",
"4B	c #7C432F",
"5B	c #8B4933",
"6B	c #925239",
"7B	c #AA694A",
"8B	c #B17352",
"9B	c #9C6C4B",
"0B	c #291D14",
"aB	c #7D5D42",
"bB	c #FDD595",
"cB	c #544330",
"dB	c #8B6748",
"eB	c #0F0A08",
"fB	c #A36145",
"gB	c #9E593F",
"hB	c #A25F44",
"iB	c #834D36",
"jB	c #78442F",
"kB	c #170D09",
"lB	c #301A13",
"mB	c #180F0A",
"nB	c #9D543C",
"oB	c #934E38",
"pB	c #B88B63",
"qB	c #815F44",
"rB	c #50261B",
"sB	c #392117",
"tB	c #623324",
"uB	c #643525",
"vB	c #633425",
"wB	c #623626",
"xB	c #633626",
"yB	c #693F2C",
"zB	c #724631",
"AB	c #7D533B",
"BB	c #8B6044",
"CB	c #8C694B",
"DB	c #71583D",
"EB	c #E9B780",
"FB	c #FAC88D",
"GB	c #F4D999",
"HB	c #604D36",
"IB	c #8B6849",
"JB	c #884F38",
"KB	c #9E5E42",
"LB	c #97593F",
"MB	c #693F2D",
"NB	c #563425",
"OB	c #A46145",
"PB	c #8D533B",
"QB	c #FFDD9A",
"RB	c #916849",
"SB	c #030403",
"TB	c #502C20",
"UB	c #AB5E42",
"VB	c #44251B",
"WB	c #59432E",
"XB	c #744F37",
"YB	c #341D14",
"ZB	c #1D130D",
"`B	c #392118",
" C	c #2F1C14",
".C	c #342117",
"+C	c #332218",
"@C	c #322319",
"#C	c #F2BD86",
"$C	c #F4DA99",
"%C	c #8A6F4E",
"&C	c #6E523A",
"*C	c #190F0A",
"=C	c #8D5039",
"-C	c #9C5A40",
";C	c #513022",
">C	c #362118",
",C	c #9E5C42",
"'C	c #93573D",
")C	c #3D2419",
"!C	c #A26446",
"~C	c #3A1F15",
"{C	c #97533A",
"]C	c #844733",
"^C	c #724531",
"/C	c #1D100B",
"(C	c #F4BE86",
"_C	c #F3C086",
":C	c #E4C58A",
"<C	c #A5845D",
"[C	c #291811",
"}C	c #A05F42",
"|C	c #A46144",
"1C	c #9A5A3F",
"2C	c #75432F",
"3C	c #532F21",
"4C	c #3B2E1F",
"5C	c #574330",
"6C	c #896648",
"7C	c #925038",
"8C	c #3F2318",
"9C	c #A3553D",
"0C	c #281610",
"aC	c #FBC38B",
"bC	c #734530",
"cC	c #100908",
"dC	c #CBAA78",
"eC	c #957753",
"fC	c #191511",
"gC	c #34271C",
"hC	c #41261B",
"iC	c #9E5D42",
"jC	c #A05D43",
"kC	c #9A583F",
"lC	c #9B5B40",
"mC	c #693B2B",
"nC	c #F0C38A",
"oC	c #9A6145",
"pC	c #49271C",
"qC	c #5B3223",
"rC	c #211812",
"sC	c #FBC88C",
"tC	c #7E6044",
"uC	c #69422E",
"vC	c #403222",
"wC	c #3F3323",
"xC	c #67523A",
"yC	c #CCA072",
"zC	c #17110B",
"AC	c #4D3E2B",
"BC	c #A98A61",
"CC	c #563122",
"DC	c #96553C",
"EC	c #995B40",
"FC	c #896849",
"GC	c #371F16",
"HC	c #8C4A35",
"IC	c #7E5C41",
"JC	c #5D3F2D",
"KC	c #FEE09D",
"LC	c #907251",
"MC	c #896D4D",
"NC	c #653A28",
"OC	c #9E5D41",
"PC	c #7F4B36",
"QC	c #7C4832",
"RC	c #513D2B",
"SC	c #DEB882",
"TC	c #EFCC90",
"UC	c #976347",
"VC	c #522C1F",
"WC	c #7A402E",
"XC	c #40271D",
"YC	c #090505",
"ZC	c #F1BC84",
"`C	c #C99E6E",
" D	c #A7815B",
".D	c #804934",
"+D	c #9F5E41",
"@D	c #A26045",
"#D	c #A15F44",
"$D	c #9C5B41",
"%D	c #7E4A35",
"&D	c #301C15",
"*D	c #E9C98D",
"=D	c #9F6648",
"-D	c #371E15",
";D	c #F9CB8F",
">D	c #E8CC90",
",D	c #735C42",
"'D	c #8E6E4D",
")D	c #100A08",
"!D	c #99593E",
"~D	c #A05C42",
"{D	c #8A5138",
"]D	c #7E4A33",
"^D	c #4D2E20",
"/D	c #E3C389",
"(D	c #A8815C",
"_D	c #795A3F",
":D	c #6B3828",
"<D	c #291610",
"[D	c #D5B580",
"}D	c #50402E",
"|D	c #F1BD87",
"1D	c #674F38",
"2D	c #1C100C",
"3D	c #93543B",
"4D	c #98573E",
"5D	c #95563D",
"6D	c #5F3625",
"7D	c #0C0605",
"8D	c #AC845C",
"9D	c #E2C78C",
"0D	c #FEDE9D",
"aD	c #F7C78D",
"bD	c #C49367",
"cD	c #43241A",
"dD	c #5C3122",
"eD	c #362319",
"fD	c #86684A",
"gD	c #8D6D4E",
"hD	c #816546",
"iD	c #4B3E2B",
"jD	c #BD9D6E",
"kD	c #DDB67F",
"lD	c #513E2B",
"mD	c #301D14",
"nD	c #9B593F",
"oD	c #864F37",
"pD	c #7B4731",
"qD	c #836246",
"rD	c #FBDD9C",
"sD	c #FDCD91",
"tD	c #876447",
"uD	c #754431",
"vD	c #755C42",
"wD	c #ECC086",
"xD	c #967C58",
"yD	c #492A1E",
"zD	c #9D5A40",
"AD	c #8C523A",
"BD	c #794430",
"CD	c #140B09",
"DD	c #58422F",
"ED	c #FFC78E",
"FD	c #593A28",
"GD	c #986245",
"HD	c #3F2D20",
"ID	c #64543C",
"JD	c #593324",
"KD	c #95573E",
"LD	c #7A442F",
"MD	c #37291C",
"ND	c #DBB681",
"OD	c #F7C389",
"PD	c #F7C28A",
"QD	c #1E140E",
"RD	c #432D20",
"SD	c #846346",
"TD	c #F2C88C",
"UD	c #E7C38A",
"VD	c #6A3C2A",
"WD	c #9C5A3F",
"XD	c #98553B",
"YD	c #8D533A",
"ZD	c #EFBB85",
"`D	c #7F6448",
" E	c #806B4B",
".E	c #D7BB83",
"+E	c #644F3A",
"@E	c #844B33",
"#E	c #94553C",
"$E	c #A86949",
"%E	c #A35F42",
"&E	c #A45E44",
"*E	c #8E533A",
"=E	c #6A412E",
"-E	c #EAC78C",
";E	c #E7B581",
">E	c #FFC78C",
",E	c #6D563B",
"'E	c #513F2E",
")E	c #201C14",
"!E	c #C3A072",
"~E	c #170E09",
"{E	c #8E5039",
"]E	c #96563C",
"^E	c #9B593E",
"/E	c #8A583E",
"(E	c #B17B57",
"_E	c #97533B",
":E	c #9B553C",
"<E	c #98553C",
"[E	c #9E583E",
"}E	c #95543C",
"|E	c #7D4D37",
"1E	c #E6BE86",
"2E	c #FCCD91",
"3E	c #FEC68D",
"4E	c #FFCC92",
"5E	c #F2BF85",
"6E	c #967A56",
"7E	c #A6865E",
"8E	c #17110E",
"9E	c #D2B07C",
"0E	c #E1B07B",
"aE	c #2E1912",
"bE	c #94533A",
"cE	c #99563D",
"dE	c #683B2A",
"eE	c #B38960",
"fE	c #B8815B",
"gE	c #A16144",
"hE	c #37291D",
"iE	c #E4BD86",
"jE	c #E3B27F",
"kE	c #352F21",
"lE	c #54402E",
"mE	c #48281C",
"nE	c #9B583D",
"oE	c #C99C6D",
"pE	c #BA845E",
"qE	c #A35D43",
"rE	c #9A593E",
"sE	c #74402C",
"tE	c #FDC58B",
"uE	c #9C865F",
"vE	c #3C2C1F",
"wE	c #96533B",
"xE	c #904D36",
"yE	c #95533A",
"zE	c #3A2218",
"AE	c #170E0A",
"BE	c #D09A6D",
"CE	c #9D573D",
"DE	c #9E593E",
"EE	c #91523A",
"FE	c #733D2B",
"GE	c #542D1E",
"HE	c #927150",
"IE	c #FCC48A",
"JE	c #90724F",
"KE	c #512C1E",
"LE	c #935139",
"ME	c #98543B",
"NE	c #78432E",
"OE	c #804530",
"PE	c #733C2A",
"QE	c #FECC91",
"RE	c #7F6445",
"SE	c #5F4C36",
"TE	c #8E4F38",
"UE	c #A06144",
"VE	c #402319",
"WE	c #482B1E",
"XE	c #A07C57",
"YE	c #B1704F",
"ZE	c #A0593F",
"`E	c #9A543A",
" F	c #6F3B29",
".F	c #7F5F43",
"+F	c #B07955",
"@F	c #81432F",
"#F	c #56402D",
"$F	c #89583E",
"%F	c #98523A",
"&F	c #9A553C",
"*F	c #9F583F",
"=F	c #9A543B",
"-F	c #944F38",
";F	c #E4B27D",
">F	c #FFCE93",
",F	c #BE946A",
"'F	c #673626",
")F	c #130B08",
"!F	c #9B6043",
"~F	c #78412D",
"{F	c #9A533B",
"]F	c #9B543B",
"^F	c #C0835C",
"/F	c #BC855E",
"(F	c #543E2B",
"_F	c #8C6E4C",
":F	c #FCC78B",
"<F	c #402A1E",
"[F	c #342016",
"}F	c #392318",
"|F	c #B67B56",
"1F	c #5F4933",
"2F	c #995138",
"3F	c #985139",
"4F	c #CF986B",
"5F	c #FDCA8E",
"6F	c #D9AA76",
"7F	c #E6B480",
"8F	c #684631",
"9F	c #CE996C",
"0F	c #78402D",
"aF	c #944C35",
"bF	c #AF7150",
"cF	c #FEC68B",
"dF	c #FDC98F",
"eF	c #1A120F",
"fF	c #75573E",
"gF	c #BF8F64",
"hF	c #6E3928",
"iF	c #B87B57",
"jF	c #F9C28A",
"kF	c #FFC88F",
"lF	c #D3A573",
"mF	c #BD8E64",
"nF	c #99543B",
"oF	c #46251A",
"pF	c #75563D",
"qF	c #997756",
"rF	c #B77E59",
"sF	c #B77C58",
"tF	c #806042",
"uF	c #806448",
"vF	c #F9C48B",
"wF	c #7E6145",
"xF	c #C19769",
"yF	c #443524",
"zF	c #FCC68A",
"AF	c #A9845F",
"BF	c #67523B",
"CF	c #F9C388",
"DF	c #E3B07C",
"EF	c #FBC489",
"FF	c #6E583D",
"GF	c #FCC48B",
"HF	c #F2BC86",
"IF	c #DDAF7A",
"JF	c #FDC88B",
"KF	c #DAAB77",
"LF	c #EDBB82",
"MF	c #C89D70",
"NF	c #BD9369",
"OF	c #F7C287",
"PF	c #221D14",
"QF	c #15120C",
"RF	c #FEC78E",
"SF	c #91724F",
"TF	c #F3BE85",
"UF	c #EDB982",
"                                                                                                                                                                                                                                                                                                                                                                                                                                                                                                                                ",
"                                                                                                                                                                                                                                                                                                                                                                                                                                                                                                                                ",
"                                                                                                                                                                                                                                    . . . . . . .                                                                                                                                                                                                                                                                               ",
"                                                                                                                                                                                                                            . . . . . . . . . . . . . . . . .                                                                                                                                                                                                                                                                   ",
"                                                                                                                                                                                                                    . . . . . . . . . . . . . . . . . . . . . . . . . . .                                                                                                                                                                                                                                                       ",
"                                                                                                                                                                                                          . . . . . . . . . . . . + @ # $ % & * = - . . . . . . . . . . . . . . . . . .                                                                                                                                                                                                                                         ",
"                                                                                                                                                                                                  . . . . . . . . . . . ; + > , ' $ ) ! ~ { ' ] ' ^ / ( _ : < [ } . . . . . . . . . . . . . . . . . .                                                                                                                                                                                                                           ",
"                                                                                                                                                                                          . . . . . . . . . . . | 1 2 3 4 ] $ 5 6 7 8 9 0 a b b $ ' $ 4 5 c b ^ d 4 e f g h i | . . . . . . . . . . . . . . . . .                                                                                                                                                                                                               ",
"                                                                                                                                                                                  . . . . . . . . . . . j k l m n ^ ~ o b $ b ' p ] ) q ' / r / / $ 4 b s { 0 t u b b ) v w d ' x y z A B C . . . . . . . . . . . . . . . . . .                                                                                                                                                                                                 ",
"                                                                                                                                                                          . . . . . . . . . . . | D E F ' 0 t v G ! 0 ] ] ] H ] ' 0 ' u 4 b ] ^ r 4 r ^ q ' u ^ { ) / / I J / K L c / b M 7 N O P Q R j S . . . . . . . . . . . . . . . . .                                                                                                                                                                                     ",
"                                                                                                                                                                . . . . . . . . . . . . . T U V G G 5 a $ a 0 H u ] $ b ' b ] ] { 8 t ] ^ n u b 4 4 b 4 0 W J X 4 ] d X Y ] Z { d b $ $ $ Z 4 r r $ 0 ) ) `  ...+.. . . . . . . . . . . . . . . . .                                                                                                                                                                             ",
"                                                                                                                                                        . . . . . . . . . . . . . @.#.$.%.&.*.G ) 0 =.t q p ~ a ] H $ H ' t ' b / ] ^ ] / r ^ $ w q $ Y -./ / J I u ;.>.r ^ w r I t ' n / u 4 ^ b ,.{ r W $ Y J ] '.).!.~.{.].| . . . . . . . . . . . .                                                                                                                                                                         ",
"                                                                                                                                                . . . . . . . . . . . . . ^./.(._.0 0 :.5 u $ q <.*.[.0 7 :.{ :.}.q { { d W |.d $ q $ b 4 r r $ { n / b ! ] / I ^ X X r b ^ / w ^ r r Y / r ;.;.u u $ d d ^ J c $ $ { $ ) 1.$ 2.3.4.5.6.7.8.. . . . . . . .                                                                                                                                                                     ",
"                                                                                                                                          . . . . . . . . . . . . 9.0.a.b.' <.5 t G 5 <.c.u w ) ] o [.d.}.v $ $ ,.t a t t 0 Y e.I r / I Y I J / / ' ] u <.^ X f.;.r t ) w u d c t d J / ' b b I d d J I d J o g.h.I 4 $ w p q ' ' u p 7 ' t i.j.k.. . . . . .                                                                                                                                                                   ",
"                                                                                                                                      . . . . . . . . . . l.m.n.o.! ~ ! 7 a p.~ 8 ! c.p.M ! 8 7 ) / c.q.r.$ r / $ $ 4 J { I Y Y X J J / J 4 r d J J ^ Y ] I ;.s.G / X t.! ^ ] J ^ I 4 ] $ J / / r Y Y b 4 / 7 u.9 { ^ ' $ ' ' b c G G v.w ] { 8 8 w.x.. . . . . .                                                                                                                                                               ",
"                                                                                                                                  . . . . . . . . y.z.A.B.o *.C.D.q.}.G 8 <.{ 0 p.0 b c p.! K c.$ u W { 8 ) ] r r $ { c ^ / ^ d 4 ^ J r I $ I Y b ^ ^ X 4 4 X E.~ I ;.J c $ a / ^ J F.;.Y Y d J Y >./ H $ ] ] ] { d.u ] ' w ' 9 ! ~ 8 p ) t G <.,.) t G.H.. . . . . .                                                                                                                                                           ",
"                                                                                                                              . . . . . . S I.J.d.:.K.L.M.N.O.P.Q.R.d.S.7 p.<.G a T.u ] t q U.U.V.u ^ b ) r ' ^ w b $ ' c W.X.X r 4 d Y ;.d r ^ 4 4 X Y >.I X ;.I ;.f.4 4 r ] J >.;.f.;.r I 4 b X r t $ $ ] b ] ] 9 $ H u t |.,.! ! Y.! 9 K d.5 p.' b ^ ^ Z.`.. . . . . .                                                                                                                                                       ",
"                                                                                                                            . . . . . .  +.+++@+#+$+%+&+*+=+-+G M 8 8 { w 7 c.$ t ' b $ ) w v.v W ^ $ ^ / ' H 4 r 4 r ^ J 4 Y >.;.>.Y f.d ] I / 4 I X X X f.I Y X F.;+d ;.4 4 d ;.J / Y J d X X r ' d J r X J ] ^ d ^ / ^ t $ ^ u 9 q X.] 7 ] ' { ! ] w <.7 / >+,+. . . . . .                                                                                                                                                   ",
"                                                                                                                        . . . . . . '+)+!+~+{+]+-+^+<.q J ] 8 0 8 { 0 0 t q ) { { u b ) G ) H ^ r $ ^ ^ 4 ^ ] ^ 4 I I X >.I d d X I J ;.F.>.d r r f.X d d >.4 / X /+I >.;+J r b Y I X Y X F.f.Y r / Y d X J ! (+4 d 4 / b ] r r r $ ] b ] b u t $ 0 u ] G u $ ^ b _+. . . . . . .                                                                                                                                               ",
"                                                                                                                      . . . . . :+<+7 5 ! [.d.[+}+d.8 p.|.T.G ~ 8 |.p 8 0 ] t ] b ] ^ t w w ^ J $ ^ / u $ t ' ] b / J >.d r I d d Y >.;+f.;./+;+X f./+Y 4 X X d ;.Y I Y d J r $ ;.;+|+^ $ Y r |+;.d F.;+Y ^ W ^ q $ I b 9 { / $ r $ b $ ] b b / $ ' 7 o { / t u H ] 1+2+. . . . . .                                                                                                                                             ",
"                                                                                                                    . . . . 3+4+q =.G ~ =.G p.:.}.7 0 8 ~ [.a 0 t ) 9 ' u ' t |.$ / b $ b b 4 b b $ ^ ^ $ b r ^ / r Y ;.X ;.f.>.f.;+/+F.X >.|+;+F.>.;.J 4 F./+>.>.Y f.f.>.f.d Y I ;+;.7 Y ;.F.;+;.;+|+Y J X d r / b $ r $ ' / 4 b r / I b u 4 r ^ ^ w 8 b r 4 { u $ ' ' 5+6+. . . . . .                                                                                                                                         ",
"                                                                                                                  . . . . 7+8+h.! :.s h.8 G <.:.9+0+a+b+c+d+e+f+g+h+i+j+k+] $ c.(+^ ^ ^ $ r b b Y ^ / r r J 4 d r >.f.>.X ;.X f.;+F.>.;.d X Y >.d f.>.f.>.e./+F.;.l+m+>.f.>.f.F.f.f.r ) ;.;+e.f.X >.r ^ d >.>./ u ^ Y ] u / J J 4 d r ^ ^ t r I 4 4 b ^ r d d b $ $ w 8 0 b n+o+. . . . . .                                                                                                                                     ",
"                                                                                                              . . . . . p+q+q+r+s+U.s t+p.<.o %+u+v+w+x+y+z+A+B+C+D+E+3.F+G+H+I+J+r / $ r r b ] J d / $ I X f.I r I Y F.>.f./+|+f.f.;+F.Y >.;+;+>.f.F.d >./+K+e.f.e.;+f./+F.;+/+m+K+/+;+/+F.F.F.F.Y ;.;.Y d / b r 4 J / ] r 4 b d J ' a b ] ^ Y I ^ / Y I r r $ t ' ~ 9 w q 0 r L+M+. . . . . .                                                                                                                                 ",
"                                                                                                            . . . . . N+5 o h.s o U.U.L :.G O+P+Q+R+S+T+U+V+W+X+Y+Z+).`+ @h+k+*+H+/ b / / ^ b / Y Y Y I f.F.f./ / ;..@+@|+;+|+/+;+f.|+/+F.K+F.f.;+;+>.X K+@@m+/+|+/+K+K+;+F.;+K+@@@@;+K+|+F.m+F.f.d ;.;.f.J J I J Y $ / I J ^ $ I d 4 b ' / / 4 / / $ 4 r ] / 4 / 9 { u W 0 a w 7 I #@$@. . . . .                                                                                                                               ",
"                                                                                                          . . . . . %@&@*@=@<.<.w L U.p.<.s -@;@>@,@'@)@!@~@{@a 2.]@~ ^@$ ^ p u $ ] r / r J r J X f.;.d >.;.Y Y f.K+@@.@/+;.;.X ;.@@K+e.;.K+/@e.f.X d I ;+|+K+;.F.F.|+/+F.e.f.l+l+e.|+f.|+K+@@e.;+X Y Y Y 4 Y d Y J r r / d Y ^ w ^ r I r r d Y I / t H u $ 4 $ n ~ { b b $ b b n ^ <.u (@; . . . . .                                                                                                                           ",
"                                                                                                        . . . . _@:@<@[@}@|@1@:.5 G G }.h.! 2@8 =.3@4@5@6@7@8@9@0@a@t ~ 0 7 7 ^ / b 4 b r / ^ J >.>.Y f./+f.X f.F.;+;+F.>.F.K+;+F.|+;+e.f.d e.m+e.F.f.;+>.d d |+b@@@/+|+K+l+@@/@|+e.m+K+|+/+;+/+;+K+>.X (+c d ;.4 b ] d ;.X 4 X b 0 r ^ / Y Y ;.r r ^ n ] / ^ { J $ $ r a w ^ $ w ) :.M p.c@d@. . . . . .                                                                                                                       ",
"                                                                                                      . . . . e@<.f@g@g@g@1@h@s K ) a 8 8 w 1@i@j@k@l@m@n@o@p@q@r@s@t@u@v@w@^ ) / I 4 J 4 J 4 d F.d Y >.>.d d f./+;./+/+|+|+f.@@/@/+K+@@;+b e.|+;+/+K+Y J f./++@|+K+l+.@/@@@|+b@e./@K+e.e.@@|+I d Y ;+F.X d I Y I X ;.X >.$ t >.|+d ;.I / $ J r r 4 b $ J X I $ / { b J $ W ] t a ) { n 8 q 8 x@y@. . . . . .                                                                                                                   ",
"                                                                                                  . . . . . z@7 d.S.r+h@}+1@1@S.}.5 U.r+d.A@B@C@D@E@F@G@H@I@J@K@E@$@L@M@N@O@P@Q@R@I / I I I d I J Y Y 4 X f.F.;+|+Y |+l+@@K+l+l+/@/@l+m+;+I .@/@/+K+;.f./+@@@@/+/@/@m+@@;.>.K+@@K+/@F.>.;+e.;.;.;+;+/+F.>.>.f.;.Y /+>.J d Y d ;+K+X J J J ;.I / I I d Y I ^ r d 4 / $ 4 J >.$ ~ G b (+Z ~ 0 ,.7 p S@T@. . . . . .                                                                                                               ",
"                                                                                                . . . . ; U@s V@=@o 1@Y.p.<.q+*.0 o s W@X@Y@Z@`@ #.#+#@###D +#$#%#&#*#=#-#;#>#m@,#'#)#!#~#Y Y J J ;.;.;+|+F.;+>.;.@@l+@@@@b@+@e./+e.m+|+F.e.K+/+|+;.4 K+K+b@@@>.b@/@/+|+e./+e./@e.{#m+e.m+@@|+b@.@@@/+;+K+e.;+X ;.>.4 ;+|+f.@@K+;+f.Y d ;.l+X 4 4 ;.r 4 ;.d r / r r / $ ' $ ] H c.{ v 7 W.a ' 9 G H t ]#@.. . . . . .                                                                                                           ",
"                                                                                              . . . . j ^#S.f@&@q+L 1@8 /#(#<.-.! &._#:#<#[#}#|#1#2#3#4#Y@5#$#F@6#7#8#9#0#a#b#c#d#e#F@f#g#h#i#j#4 ;.;+>.X f.e.e.f./@@@K+m+m+@@K+/@+@b@e.m+e.m++@k#e.e.l#k#@@/@m+b@m+.@e.m+l+e.m#+@.@m#@@K+.@b@/@m+@@;+>.;+f.f./+;.J / ;+|+|+K+f.;+f.>.;.X J I F.Y I 4 J J I J b H r $ W ^ ^ b ] ^ / b ' w $ ' 5 ,.c }.G ] n#o#. . . . .                                                                                                         ",
"                                                                                            . . . . p#*.q#r#s S.g@r+s#t#u#v#7 =.w#x#y#j z#A#B# #C#D#E#F#G#H#,+I#J#K#L#M#F@N#O#P#Q#R#<#S#T#U#V#W#X#Y#|+/+;.F.K+|+@@@@;+m+/@m+l+@@l++@b@.@+@l+{#.@k#m#e.|+/@l+K+.@e.f.b@@@l+{#+@.@k#.@@@K+b@+@@@@@@@>.Y F.>.;.f.;+f.F.X X K+;+|+;+e.;+I Y I I 4 ;.^ ' J I Y Y J Y 4 H ' 4 X ^ 4 ^ ' $ b $ ^ $ ' { ,.M ! G 5 ) ]@Z#>#. . . . .                                                                                                     ",
"                                                                                          . . . . `# $=@=@&.r#s .$+$w@2@@$<.#$$$%$&$*$=$-$;$>$,$'$M#J@)$##!$~${$]$^$/$2#($_$:$<$[$}$|$1$2$3$4$N@5$6$7$/+|+F.;+K+K+/+>./@b@K+l+|+m+b@b@{#.@b@k#.@@@|+K+;.m+m+f.8$m+l+m#{#+@b@m+{#/@+@e.|+k#l+|+f.;+F.f.m+m+|+@@e./+|+/+F.Y Y e.K+e.@@>.f.^ F.;+;+;+X J J F.>.4 I r ^ c $ I ' b ] t $ ] b $ w q t b q v.8 ,.0 u c.9$+ . . . . . .                                                                                                 ",
"                                                                                      . . . . . 0$a$=@b$U.[.K D.c$d$e$+$f$g$h$i$I#j$k$l$m$n$o$p$y#q$r$s$t$G@u$v$w$x$y$z$A$B$U#S#C$D$E$F$G$H$I$J$K$L$M$N$e.X F.F.e./@/@b@m+K+K++@+@.@/@b@/@b@.@X / e./@@@O${#k#8$+@/@+@+@m+{#+@k#m#k#/@+@e.|+m+/+;+K+.@m#.@/+>.l+|+/+.@m+d ;.l+F.e.l+e./+Y |+f.d X >.I d >.4 J I I 4 4 ;.b / b u $ 4 $ $ r $ b 0 8 G 8 w o s w ] w 7 P$D . . . . . .                                                                                             ",
"                                                                                    . . . . . Q$r#&.*.&.r+R$S$d$T$P.=@U$V$W$X$Y$Z$##`$ %.%+%@%a#r$$##%Q#$%%%&%*%m@=%-%;% #>%o@,%'%)%!%~%{%n@]%^%/%$#/$4$(%/+m+m+b@@@+@l+K+/@b@k#/@/@b@.@/@m+l+X >.b@+@m+{#_%O$l#{#+@+@k#m#_%:%m#+@b@@@b@e.l+/@/@m+m+k#b@F.m+/+K+@@l+l+@@/+|+@@/+;+K+|+;+/+/+/+K+d Y I I r I Y Y ;.4 I Y $ $ d d ^ / 4 I 4 $ ] 7 d.5 <%! u (+v G 8 9 0 [%}%. . . . . . .                                                                                         ",
"                                                                                  . . . . |%1%g@h@K U.2%3%4%5%6%Q.7%8%9%0%a%b%c%d%e%b%f%*%g%h%$@%#G#i%j%k%l%m%n%o%p%q%E@r%J$s%t%u%#%X$&$v%w%x%y%G#z%A%B%/%C%/+8${#{#l#/@b@k#k#+@{#m+b@+@+@/@k#b@.@b@.@+@{#O$O$m#O$D%E%O${#k#.@+@l#/@.@8$l+m++@m#k#.@b@|+/@.@/+e.@@l+/@l#b@m+l+l+l+F.|+;+4 ;.@@Y r ;.4 4 b d Y Y >.Y d / ' t >.d b d d / / ] / b ^ ' ' u n ' 7 U.a G ! 7 <.#+F%. . . . . . .                                                                                     ",
"                                                                                . . . . G%H%I%J%S.K%L%#+M%N%O%P%Q%R%n@J@S%T%U%&#V%W%X%Y%;$6@Z%`% &.&+&@&#&$@$&%&{%&&*&=&{$0#M#-&;&>&u%,&{$'&)&!&~&{&]&^&+#a#/&/++@b@l+k#m#.@{#{#O$k#e./@{#l#.@l++@{#8$.@{#8$m#:%8$:%E%_%m#k#{#{#+@@@b@_%b@m#l#/@l++@@@f.e.;+K+@@e.b@{#+@{#e.e./@/@f.K+/+>.;+;.;.K+m+|+f.;.;.I f./+;.] ] J ;.;+X J r r / r r 4 / r $ p u H 1.U.=.~ 0 q a d.Y.1@(&_&. . . . . .                                                                                   ",
"                                                                              . . . . :&<&[&}&|&1&2&3&{@4&5&6&7&A#8&p@9&0&a&b&c&d&e&f&g&h&Z@l@i&j&k&l&$@H#<#m&n&a#o&>&r%p&M#q&r&s&t&u&v&w&x&y&z&A&B&C&K#y$G@D&E&F&+@.@+@.@m+.@k#.@.@K+/@l++@e.{#k#.@+@/++@_%G&H&H&/@_%H&m#{#O$/@k#8$O$8$l#.@b@e.b@e.Y /+m+F.l+/@m+m+/@K+;+e./@K+@@K+K+|+X Y ;.K+K+;+F.;+X ;.d r J 4 r r J d J I 4 J 4 ^ 4 b ] b (+7 { w ) w { { 0 $ 0 d.! 0 U.U.G I&J&. . . . . .                                                                               ",
"                                                                          . . . . . K&Y.r+q+K%L&M&N&O&P&Q&R&S&T&i$U&b#V&W&X&6@Y&K#A#Z&`&n$ *^&.*+*s$$@p#0%C$@*F@F@+##*4$$*%*&*a&**=*-*;*>*,*'*)*!*~*S&{*z%5@l@]*^*.@+@.@/+b@8$m#b@+@+@8$8$@@m#.@K+/@K+F.8$/*H&_%E%E%E%8$m+@@{#8$8$l#k#/@l++@+@+@_%e.e.8$/@b@8$(*.@l+K+;.K+/@@@@@;+e.|+F.I |+K+l+K+K+l+/+X f.X X r Y /+J r r X 4 4 b t $ / b u ' w ] r $ ) w a v ~ t ~ <.' ' ) 7 c.=.0 _*:*. . . . .                                                                             ",
"                                                                        . . . . . <*r#[*v#}*|*1*2*3*4*5* %6*7*8*9*0*n&a*b*c*d*e*a&H@f*g*h*i*j*j&k*%#l*i$m*n*E@o*[#>%p*q*r*s*t*u*_.v*w*F.@@m+l+/@x*y*z*A*e%L#@&B*C*@@/@l+/@8$8$O$8$k#m#8$b@m#m#.@+@_%f.X (*D*E%k#_%D*(*_%m#k#O$/*8${#.@{#{#k#_%b@+@_%/@@@l+b@+@O$e.K+K+b@b@.@K+F.;+@@K+@@|+I X /+f.>.K+F.J d ;+F.f.f./+4 ;.f.d I I J r J I I / ] / ^ ] t ] ' |.{ 7 c.d.,.] 7 ) 7 7 M *.U.U.E*F*. . . .                                                                           ",
"                                                                      . . . . . G*S.a$H*P&I*J*K*u*L*M*N*O*P*Q*R*S*T*U*V*W*X*Y&'&T&Y&Y*%&Z*b%`* =h*l*.=+= #r$@=e*T##=$=%=&=*=m+@@m+;+F.e.b@m+/@/@==S&-=.&T#;=>=,='=@@/@l#+@.@m#_%k#:%O$l#8$H&m#k#m#O$/@l+E%:%O$:%/*:%k#k#8${#m#:%D%H&{#+@_%m#O$k#k#m#.@b@e.l+m+k#b@b@{#l+m+.@@@b@l+@@b@l#m+K+;./+;+>.f.f.I J I J F.;.Y d ;.>.X >.X Y Y X F.d n ^ J b / / u / Y ^ { a ! H t 8 7 8 Y.r+r+o 1@}.)=. . . . .                                                                         ",
"                                                                    . . . . . !=s+t#5%~={=]=^=~=/=(=_=:=J@<=X%j&[=b#y&z# &`$4#'%*%}=|=1=2=3=4=I@5=6=;&7=n$8=%$9=Y@Z$0=a=e./+/+K+/+;+/+m+/+>.F.;+b=c=d=e=Z*f=V%g=h=m#H&_%l#k#k#O$k#{#l#l#_%:%O$8$_%k#/*O$m#(*H&D%_%8$(*D%G&k#O$:%.@m#_%H&E%m#O$H&:%_%8$l#+@{#_%{#/@:%{#/+/@m+/@k#b@K+/+|+e.@@K+>.d f.K+@@K+;+Y F.;.F.>.F.X >.>.>.Y >.f.;.I 4 / b b / b b ] / b ) w v ~ p 0 w 0 =.t+a$! M r#q+*.i=. . . .                                                                         ",
"                                                                  . . . . 2#j=q+k=3*l=m=~ 0 *+n=z*o=t%l*p=q=r=s=t=T&4=$@s%u=v=k@w=x=y=J@z=A=J@e%g&m%h*B=3$C=D=%#>&E=F=G=/+f./+K+F.@@m+m+H=I=m#e.4*J=K=V*L=K#b#M=:%l#O$k#k#O$:%l#l#b@+@.@k#(*:%O$8$b@8$_%:%N=O=G&(*P=O=Q=E%k#O$m#l#O$O$E%8$O$E%E%O$k#{#.@H&{#.@@@/@k#l+m+K+/@k#_%+@/+|+e.|+K+@@f.d |+|+l+m+;.f.F.J I f.;.>.;.f.>.I J F.Y I d 4 ] 4 r r / r ' ' G { c c ' u { p.<.d.! 5 o r#S.<.d.R=. . . .                                                                       ",
"                                                                . . . . S=T=U=V=W=X=p.w 7 7 a Y=Z=X*y#`= -S*.-+-y#t&L=@-#-#&l$.#$-%-&-y%*-v%Z&4$F@$#=---;-z%.=##>-{$,-;+@@@@@@K+/@l+'-)-{#!-~-_%{-]-^-'%5=/-(-_-k#8$:%8$l#l#_%_%_%O$:%(*G&(*_%D%D%.@O$H&O$:-N=Q=Q=<-/*:%:%:%k#H&:%:%{#{#l+.@l#+@_%O$m#/*G&E%8$+@8$_%k#8$+@m#+@l#.@+@k#l#b@+@;.^ /@e.>.|+f.F.J d F.d /+X Y ;+X 4 5 5 ;.d J X d Y d / X 4 c t t ! W.J r o h.8 h.! U.[.&.1@M M M o p.[-. . . .                                                                     ",
"                                                                . . . }-|-1-X=2-3-4-t+*.1@K g@5-6-7-8-9-0-a-`*b-g&c-p@d-E# =e-f-g-S*~$$*4$D@D=h*$#J@h-z=w$W$@=T#i-j-k-e.l+/@@@e..@b@l-m-f.n-`=o-b=`*N*s%D#p-q-r-l#:%E%O$m#k#(*H&G&E%E%D%/*O$Q=P=(*(*D%b@8$<-/*G&(*D%/*_%{#m#(*{#E%(*E%H&_%:%_%+@8$E%O$H&E%l#/@/@{#_%{#.@+@_%{#{#@@{#.@{#.@l+f.^ m+b@m+/+K+e.>.|+K+;+>.;.;+|+d ] |.Y K+>.f.f.Y d J r 4 r t ' { ] b 4 Z t.! -.=.8 8 o s h.<.G }.S.p.8 s-. . . .                                                                   ",
"                                                              . . . t-g@|-q+3-t+S.J%u-=@f@a$v-w-x-y-z-$-A-B-r=C-D-E-D=F-G-H-I-J-K-8=M#L-E@g&M-F@%#N-O-P-Q-#=R-V%S-T-U-|+|+e.l+m+/@.@@@V-W-l+X-Y-Z-`- ;.;`=q&+;@;:%H&(*_%8$O$:%(*H&(*:%_%(*:%P=:-/*E%(*Q=D%/*H&E%/*(*<-N=O$l#E%8$P=Q=G&D%/*G&(*k#.@_%O$8$H&O$b@.@{#O$m#k#{#k#8$_%l#_%k#b@.@b@l+@@l#+@;+X F.X ;+/+|+|+|+m+|+/+;.>.K+|+f.F.F.f.4 / b J b u 4 ^ b $ b / ^ r $ u 0 8 7 ) ~ K t+q.G K G Y.d.#;. . . .                                                                 ",
"                                                            . . . . $;K%s+r+S.a$r+t+|&]+U.S.%;&;*;=;d%*-s=-;;;>;,;<#';);!;~;k@{;];j%5=m@^;L@G@Y@o$/;e=T#(;+%_;j%#-:;<;|+|+e.m+K+@@b@{#[;};|;1;2;3;4;T%5;Z@I#6;m#(*8$m#_%D%D*Q=D%(*(*O${#l#D%7;:-(*E%H&/*(*8;P=m#:%m#(*(*O$9;_%Q=m#:%<-D%E%D%<-_%{#m#(*:%/*O$O$(*E%m#k#+@m++@m#l#k#k#(*k#.@+@m+l+{#b@f.b@b@e.e.@@|+K+b@l+@@@@/+|+|+;+;+F.Y Y d Y I r ^ q $ ^ J t u b $ ' ^ ^ u H 9 ' 8 5 d.U.q.! o t+r+U.0;. . . .                                                               ",
"                                                            . . . a;b;t+|&&@a$&@&.&.c;&+*.d;e;x=f;.#g;h;i;j;k;8&n*l;q=u=m;>;.&g-n;Y@j o;p;q@V%g&d-q;r;D&Z@s;Z$t;u;v;l++@l+@@/@/@m+/@k#k#w;x;y;z;A;D$/&v=N@)$B;(*.@k#(*m#:%m#b@.@E%E%:%G&(*Q=G&/*/*N=D*H&(*:%:%:%Q=/*E%C;D;E;F;/*m#/*Q=N=N=H&E%D%m#:%N=G;8$|+:%(*(*(*k#b@O$E%_%m#:%_%E%{#l#k#K+|+m+/@e..@.@@@e.K+Y m+m+K+;.d >.X f.X H;;.d Y >.X 4 ' / 4 { t I / ^ ] w c u t w t ) u { w 5 [.G G a U.S.t+U.I;. . . .                                                             ",
"                                                          . . . . J;q+a$&.t+K; $}&L;&.[.:.M;&;N;O;P;Q;R;n;Y*S;~;>;T;U;y#V;k*W;X;Y;Z;%#K@`;A$L$ >z=8#1=.>~$+>L-@>f%#>l#b@/@m+/@k#+@{#k#b@$>%>L*&>*>5;=>A;##->;>m#l#H&H&D%(*l#{#(*/*E%P=O=H&<-G&H&H&G&D*O$l#/@(*G&N=G;>>,>'>)>!>G&H&G&G&<-<-Q=:%O$:%G&P=Q=8$m#D%/*E%G&:%+@_%:%m#8$_%:%8$m#m#+@l#m#/@8$m#k#e.m+b@|+K+|+K+/+;+F.f.;+K+H;,.d c $ I 4 J Y ;.4 / / r r 9 $ ^ p.}.W $ ) t b b ,.7 M v ! o d.1@L s f@~>. . . .                                                           ",
"                                                          . . . {>H%]>q+1&|*^>=@g@t+h.U.r#/>(>_>/%&*:>o=<>[>Z&n$&$}>|>1>.#2>W&3>9=N@4>i$5>6>7>8>9>E#C=_@0>a>V;b>c>d>m+/+m+.@l+b@{#.@+@8$/@e>f>g>h>f-t&i>E-j>k>O$(*:%_%:%E%O$Q=m#k#(*G&E%(*D*<-<-_%+@m+@@8$8;D*D*N=N=l>m>n>o>p>q>:-D%N=G&Q=8;D%(*O$8$Q=D%D%Q=D*P=D*(*k#8$k#E%m#H&H&:%+@{#{#k#m#k#k#+@{#l#+@m+b@b@m+@@K+K+e.K+;+Y /+/+X d X F.F.4 ] d J r>^ J 4 b ] J J ] ! [+r.0 v p.p.<%s }.G G s }.[+K r+&.f@s>. . . .                                                         ",
"                                                        . . . t>u>]>=@&.v>w>g@=@&.h.S.U.x>e=y>b#z>S*A>B>C>U*;&l@ &D>M#z%<$E>F>G>y#H>D@j-I>J>)&.&K>z%u=J@L>M>N>h$O>P>K+m+m+b@l+b@+@.@+@_%{#Q>R>S>T>a#b-U>J>V>W>D%E%:%O${#:%:%E%:%(*G&Q=P=P=O=:-O=H&(*_%:%:%<-l#/*N=N=X>Y>Z>`> ,.,P=N=:-8;+,@,/*:%H&P=/*/*(*P=<-H&O$H&/*D%<-H&_%D*H&O$:%k#8$k#b@8$O$_%:%@@m+m+8$b@m+l+e.K+F./+m+f./+F.Y f.;+/+F.>.X / 4 / b / 4 ] / 4 ^ b ^ ] $ $ ] 0 d.h.S.! &.4-<.5 U.f@q+J%#,=@$,. . . .                                                       ",
"                                                      . . . %,&,4-r#*,=,H*q+r#&.&@&@=@g@-,;,>,@&p%b%,,T%',G#B=/$P#),L@!,~,{,y>f=],^,/,x&v%(,_,:,<,[,E@$@w$},H@6@|,+@/+m+/@b@+@b@l++@{#.@l+b@1,j*x;y$J@a#2,3,(*G&H&:%D%E%H&E%8$D%O$E%N=N=D%G&/*/*O$m#m#O$/*_%/+8$N=G&4,5,6,7,8,9,:-0,:-:-G;P=G&H&Q=/*H&<-<-:-G&m#O$/*E%H&G&_%O$E%O$:%:%(*D%E%8$E%k#8$D%b@+@O$m#l+m+m+b@e.@@/+>.;+@@l+;./+;.F.f.Y d J J ' r d 4 b b q 0 $ ] $ ) w ' p 7 <.p.<.S.U.1@t+&.a,}+=@&@u-}&b,. . . .                                                     ",
"                                                      . . . c,d,q+=@(#r+&.g@K G s 1@U.e,f,D>J>+=S&C&j&T%s=g,l&h,a*,;N>~$X%`*3>%%Q-T%i,n@j,N*k,l,4$m,$#>$I>c-n,o,p,l+.@+@.@.@b@{#8$m#m#(*(*H&q,r,j*s,o; #t,u,Q=Q=O$8$E%E%D*D%m+.@:%:%D*<-D%H&G&G;N=Q=<-Q=D%H&/@O=8;m#v,w,w,x,y,z,7;N=N=G;<-D%D*<-:-P=N=H&<-H&_%N=O=H&O$Q=<-H&_%(*k#O$:%_%_%m#m#b@.@k#m#8$_%8$@@m+;+@@k#m+/@@@;+/+e.l+;+f.;.I X >.d d J d Y d J ' $ / b ' ' b ] H c.U.p.}.:.) ,.:.h.d.t+U.S.g@q+&.=@g@A,. . . .                                                   ",
"                                                    . . . @&r+a$S.B,s+s+a$s+r+r+r+U.o C,D,v$E,F, -B>T%T%G,L>Z&H,J=s$I,J,K,L,y>T#c-M,N,O,/;P,V&b#n@o*h*N>Q,R,S,T,U,K+e.b@+@.@l+{#8$:%O$_%H&/*:%V,|=W,X,r$M-Y,<-G&D*G&O$_%N=8;0,D*8$Q=N=N=P=<-O=D%/*/*8;D*E%<-O$G&<-Z,`, '5*&*.'=%+'G&O=O=:-(*E%P=8;N=N=P=<-Q=Q=N=O=@'8;D*N=:-H&G&<-+@m#_%l#:%(*(*+@_%l#8$O$_%k#.@m++@+@|+m+@@;+X ;+;+X h.4 4 4 d ;.I r Y Y d W $ 4 4 r ^ I J ^ b p.! o 7 { v G }.M o h.[.|&q+h@}+}&=@ $#'. . . .                                                 ",
"                                                  . . . . $'&.J%|@a,=@s+t+S.|-U.%'S.&'*'='-'(-Y*Y*S*C&;'i*h*~$E$h;Z@>'u;r=C&d-],'%D>,''')'!'5@~'m,%#/$a>/,k*i*{']'|+m+{#l#.@l+.@+@k#8$m#_%k#m#w*^'~*0&C-/'('D%O=G;G;P=O=:-O=G&E%(*Q=:-G;Q=/*D%D*D%m#D*E%m#D%O$D*P=_':';*<'['+#}'|'7;P=:-8;O=D*<-P=O=O=G&m#7;O=Q=@'G;O=G&G&N=Q=(*m#8$l#E%_%(*l#H&_%_%O$O$m#l#{#+@.@.@b@K+l+l+e.m+/@m+@@X ;.;+;.d F.X J $ / ^ ^ ^ ^ n b ^ / r r b ] p t $ w Z 5 G d.5 a 5 %'U.U.s+&@f@[@=@1'. . . .                                               ",
"                                                  . . . 2'&@q+4-g@}&q+r+a$r+S.:.t+f@3'/;q*r$4'5'a* %C&6'=$D@7'8'v=*%>;]&^-f>8=8*B-9'n$0'Y*a'b'c'$#b#d'&%e'f'g'h'b@m++@k#{#.@.@{#_%O$_%D%:%k#H&k#i'j'k'l'm'{#G&P=Q=/*Q=E%m#O$D%<-(*D*@'Q=D*8;N=D*N=/*l#E%D%Q=E%P=D*n'o'p'q'c&D@q$r'+,8;:-@'P=<-D*N=:-D*/*b@O=N=(*/*G&D%O=E%l#D*Q=k#_%k#E%(*8$_%H&E%E%H&(*k#b@8$l#l+/@/@.@+@m+{#b@/+K+|+;+|+f.d X ;.X Y X X Y ;.X J ^ ' r { ^ ^ t t 7 0 t ' ) p.<.8 ! M S.t+<.K q+u-s't'6 }@u'. . . .                                             ",
"                                                . . . m@4-t't+v'w']>g@&@s+s L;a$S.}&x'y'z'B=A' -0-s=B-X%B'Y@7*C'D'Z&E'F'G'S>H'E#a'W$I'A-4;6@J'p*K'L'M'N'u;r%O'P'F.|+.@.@{#b@e.l#8$8$8$_%D%O$D%O$Q'R'S'T'U'E%(*D%H&E%/*(*k#(*G&H&m#D%P=(*G&N=:-@'N=G;Q=0,G;8;/*@,D*V'W'X'Y'y%&$Z'`' ).)@,+,@'N=G;+)+)+,0,G;@,G;D*.@Q=<-<-N=7;D*N=/*k#:%/*/*O$_%m#.@:%(*_%k#{#8$e.|++@+@l#k#l+m+f.F.f.F.F.F.d ;.;.F.F.X X Y >.;.X d ] ] $ t r / w M ! a 7 8 9 5 S.q.! ! S.g@S.q+r#t'=@@)}@#)[@$). . . .                                           ",
"                                                . . . %)v'6 U.1@q+]>[@a$L;s h.L h.&)e=)'*)=)-)S*B-r=;)>)E@a#9*a*k$H#($y'3>3>I,p=o@B=*-A-A>1>,)r$')2#))^&[=)$!)~)f.m+{#.@l#.@m#_%k#m#_%O$8$l#l#l+{#{)])H&^)/*:%O$_%G&O=<-:%/*H&N=G&<-G;8;O=:-0,O=:%H&O=:-@,/*:%@'G&/) '()_)l*}$u=Y%:)+,<)+,7;@,+)[)G;P=+,0,8;P=O=N=P=Q=N=7;G;G&N=/*G&<-H&H&D%E%E%l#E%H&:%H&k#+@k#m#+@/@F.m+b@+@@@>.;+K+;+f.;.F.>.>.f.r J I J X X c n ^ b ' ' ' 7 d.w 0 ) U.=.f@a$t+[.! [.=@q+r#h@}.=@ $]>})=@v'|). . .                                           ",
"                                              . . . 1)=@[&2)u-s+}&g@&.g@}+1@L S.g@-,3)4)5)6-:>:>x'B>C>6)F@Z@5'J-a#r$7)8)L,)'##j$1=+&9)0)a)Y%m;/$b)Y@c)v=d)}$O>e)b@@@l++@+@k#G&_%l#_%_%_%E%(*k#k#k#f)g)E%H&G&O=8;8;/*<-D*:%G&P=N=Q=<-@'G;:-7;O=<-m#_%G;P=D%G&D*@,h)i)j)k)l)$@w%c*d'm)8;O=[)q>.)n)o)[)7;[)+,8;:-:-:-P=@,0,@'Q=Q=O=P=D*(*/*<-Q=H&Q=G&(*E%(*E%k#m#_%l#m#m#+@e.+@b@F./+/+|+>.>./+F.Y >.Y J Y 4 ;.;.u 9 Y I ^ b J J u c ^ ) V@=.M s s :.}.5 7 h.h.K s+%'1@q+}&}&s+]>g@p). . .                                         ",
"                                            . . . . q)[@J%g@r)r)&@r#h.t+&.t+s U.s)x&n@ ##%0-t)r=u)u)v)V;<#$%4;8=r$B=F'w){,8#5=L'B=x)y>x&I#y)~$z)S,A)B)~%X,$@k&C)k#+@8$m#l#{#k#_%m#(*8$l#m#(*k#{#.@k#_%/*H&/*P=<-P=/*O$D*O=@'<-N=Q=E%Q=O=P=:-N=7;Q=N=O=D%G&@'@,.)D)E)F)G)7#F@H)I)R#]%J).)0,@'@'0,G;O=0,8;N=:-@,O=N=@,G;P=@'8;/*:%<-N=(*Q=D*:-D%(*:%{#E%H&.@.@8$m#k#{#:%+@>./@l+K++@e.K+|+f.f.;+;.X >.>.f.;.d ] ^ ;.;./ r J 4 p / d c a { b ] |&1@0 0 G 5 }.}.K f@a$}.1@ $r+=@4-u-K). . .                                         ",
"                                            . . . L)r#g@=@r+a$a$|&6 }+s L;o S.s M)b%N)O)p-C&F'r=='u)P)N@h*Q)R)S)o;T)C&s=U)V)v%G-9-g-k,--W)X)m@V$y#^$Y)Z)`)/$ !T,.!/@{#b@{#+@k#:%8${#k#E%_%m#E%/*E%/*N=<-G&G&G&N=/*H&G&:-0,D%/*Q=G&H&D%P=<-7;0,[)8;@,D*G&:-0,@,[)+!@!#!$!%!q$c-&!c-.=*!:-@'0,q>0,@'+,=!0,0,7;=!8;Q=:-N=:-:-N=Q=<-<-G&7;O=(*/*Q=O$8$H&/*_%{#k#:%k#.@{#+@e.@@b@@@b@8$@@F.;+;+F./+K+K+|+F.@@4 ^ 4 4 f.;.r / b r 7 u b u ! ^ $ J%-!8 U.d.! p.p.h.s S.a,d.K a$}&<@})});!. . .                                         ",
"                                          . . . F@4-f@=@4-f@*.&@a$u-&.f@&.Y.[.>!x&,!'!p&)&:>a*F';)4;2$| j )!R)`@L>b)i,!!3>~!v%X$P#i,=>@-9={!q@c-G%]!^!~'/!s;(!L=_!:!<!+@_%m#:%:%m#m#:%O$D%D%:%H&D%Q=D*D*8;N=O$(*D%<-:-<-D%k#H&D*P=@,G;@'7;+)+,0,0,@,:-[!+)@,P=G&}!|!1!2!L@+#t&3!/,4!5!:-+,[!+,.)=![)<)=!+,7;+,[)@'Q=8;+,7;<-:-0,:-(*O=N=<-P=P=H&:%H&{#O$G&D%(*8$F.@@+@.@+@m#b@|+f.>.@@m+@@K+K+@@|+;+4 Y Y J J b I X J Y 4 ^ $ ] ] 0 a 7 h.6!=.8 S.L ! ! a$a,[*r+f@q+1@a,6 u-2)7!s+8!. . .                                       ",
"                                          . . . 9!4-g@*.=@#,t+<@4-&.=@*.S.r+a$0!H$a!e%b!a*j&y*a*-)a*-#E@<#)'a*i$h*]$D>|=c!b#~$8-d!x&u;## =e!n@f&[#>)c-+#y#f;9*V#6=S%f!g!m#l#+@.@:%(*m#l+O$_%(*(*8$(*/*Q=H&m#:%Q=N=@,@,Q=Q=O=P=0,D*Q=G&P=N=G;7;+,7;=!0,q>=!+)[!:%h!|!i!z=%#G-j!k!l!r;m!n!<)@,H&:-+,0,7;7;<).)@,.)P=Q=@'P=:-G;P=G&@'D*D*N=<-(*/*H&Q=H&(*D%D%(*:%_%{#_%8$8$l+8$b@@@|+/+K+l+e.|+|+l+/+>.I 4 Y Y Y X >.;.;.;.d r -.J*o!p!q!r!s!t!,.d.G :.Y.S.h.L g@s+&@r+g@]>g@a$&@[@})u!. . .                                       ",
"                                        . . . v!%'[&[&r#1@r+|-=@r+h.s s h.s w!x&x!y!%#,&='F'a*:>z!0&[,E@##^-=>E,J@e;W&A!B!l@m%-#*-2>s;8&4)J@C!l*f&D!z#F@b&,%3$6@<$;&>-E!F!k#b@l#8$_%.@+@m+/@:%:%m#_%O$H&(*H&O$Q=.)N=Q=/*N=<-D*G&G;:-0,+)@,P=@,G;7;:-:-=![![![)G!H!_)x;A;D ')I!.#/-p%J!K!+)o)+,.)o)[!+)=!o)0,G;8;<-D*@,@'@'0,O=G&D*O=P=/*Q=N=8;O=+,<-/*H&E%:%D%H&(*E%8$k#{#m#@@4 b@b@/@b@m+.@b@e.K+J L!M!N!O!P!Q!R!S!T!U!^!V!W!X!Y!$#~;I>6=Z!`!! 8 M =.o o &.|&|&t'&@q+}&]>g@&@}&<@ ~. . .                                       ",
"                                      . . . . .~4-]>]>=@ $r+<.! U.L;h.s+=@S.+~u&@~#~I@$~a*8'C&^-Q;:,.>_@8-*-M>N@ #o=%~`*/-<#g,d-.&7#V#&~*$r%*~Z@k;~%i$>$}#=~-~;~c#q&##k;>~,~'~{#>.{#.@k#_%8$E%D%O$H&D%(*H&E%E%Q=O=N=D*(*l#N=8;O=@'.).)@':-@'8;N=O=+).)<)[)[!+))~!~~~ ;{~H#]~3$L>^~a&[#/~(~[)@,<)=![!.)0,@'8;@,7;G;<)+)7;0,[):-G;O=@'8;G&N=O=G;G;(*:%O$:%G&/*/*_%D%H&m#8$e._~:~<~[~}~|~1~2~3~4~0#5~6~7~,#8~9~c-h*y,0~I->#+#M'm*f&O'a~*>o$c-B=b~c~d.d.8 [.U.d.h.1@s+=@=.f@s+w'w'v'6![&d~. . .                                     ",
"                                      . . . e~t+=@s+q+K 1@8 0 w 7 =.&.g@q+]>W& %M,t=F*k;='f~C&4;j;o= #g~m*S&[,N>T*;' %L,k;S o$ -8#},.=h~i~j~,;t,k~n&$#y#/,--l~/%9#n;z'>;T;W&m~n~O$l#@@@@8$E%D*E%D%(*.@(*/*E%D*D*8$H&D*Q=G&Q=:-@'8;Q=G;G;O=8;N=D*<-o)+).)0,o)@,o~<'p~)%H#p&R*%!##O-q~@#| r~[)q>s~t~q>:-0,n)=!0,.)=!u~<)N=P=@,8;7;N=H&O=:-G&Q=N=D%H&E%G&D*(*:%O$O$v~w~x~y~z~A~B~C~D~. . . | Z;m@x$F@E~%$@=Y@H#y#F~p@D@P;e*G~1=E@7=D#u=~;5#C@H~y#I~J~&.S.o o 1@}&g@=@r)w']>u-K~w!*@6 6 L~. . .                                     ",
"                                    . . . $@S.&.J%4-4-f@*.,.) a ) ~ 1@|-r+M~E$N~I$5=Y@T&;)j&8'Y*O~a&M@P~y-Q~W$Y&R~C'C&|=S~T~l$e=J#U~P*n&0>M>w%V~c#M#F@j,i%W~/$X~M*i!Y~5>N@Z~`~ {.{m#.@8$O$8$_%m#D%H&D%G&m#O$Q=H&O$:%<-8;[)7;@,+,@'N=+)=!+,8;P=P=H&8;[!o)o)o)N=+{@{w,#{r$u=${n$%{&{D,H@F@*{.)o)n)[![!o)q>o).)0,+)o)=!+)/*N=@'D*D*G&H&+,O=Q=7;N=H&D*O=D*<-G&O$={-{;{z%S o*$@$@o*o*o*o*o*$###],>{<#Y@,{>{F@%#`)D@L>$#$#$%($O'S%N#i$M@m%m%H~'{ #L'-&){!{-!]>&@u- $r#S.&@6!2)]>]>6 s+r+}&~{. . .                                     ",
"                                  . . . . {{t'J%}&4-a,[*s+8 8 M ! ]{1@*.[&^{.&/{5>%#E#W~r= %0-N*+-({>#$#=~^-_{r% &o=a*4;C-v%s%9'/,:{<{s$u=[{i${%{%$@e!T&5@5=C-))}{|{1{2{&*G-3{4{5{6{l#G&D*G&D*Q=N=O=N=(*D%(*<-D*(*G&Q=G;8;7;.)@'N=P=7;@,+,[):-+,P=+,+,=!+)u~l#7{8{9{8-a#0#0{H@L-a{8=.=l@b{c{t~.):-8;@,[)q><)=!<).)@,G;@'O=<-:-P=D*+,q>8;O=8;O=Q=P=:-<-/*G&d{e{9%$@$@$@$@$@$@F@o*o*o*o*$#Z@+%a% #|>L=8,$#N@+#f{y#h*>{$#3+S~g{h{i{L@<#F@o#T&b)->q@L>j{k{g@s+1@S.|-6!w'-!1@l{})w'u-=@m{|-n{. . .                                   ",
"                                  . . . o{p{q{ $g@s+r+f@]>g@a$q+r+g@a,s'r{d-s{t{9->#u{~;j;(>N*)'o=v{>#J@&{k,Y@1=m&-)]-F>N>%!9#D!h$Z&w{a#x{y{->Y)b&F@z{c#h%i&_{&*L#j*A{B{C{',N>q&Y*2{D{E{G&G&G&Q=/*N=H&_%G;D*(*:%:%<-P=<-G&P=0,@,O=7;G;:-7;<).)=!0,=!o)t~q>[)F{G{H{I{/$0>2$k%>&j$J{<$K{l@L{M{u~s~q>[)7;[)u~<)=!q>t~=!@,@,<-O=7;@,P=0,+,:-G;G;Q=D*:-P=O=Q=N{O{$@C $@$@$@P{/!Q{n,R{R{r$W$Z&$#K@o$>&p&S{Q{$#%#H#->+>,$C-N@j <#n@T{-#b&i$F@F@h*&~J#j%Z@>{U{V{d.M }&r#g@[&})&.a$=@[*v']>W{v'X{. . .                                   ",
"                                . . . . Y{Z{`{6 4-s+a$S.=@s+*.L;f@=@a,f@ ]g%.]X%+]$@@]E#n;j&z*k,c=#]E@Y& ;$]^,%]$*x!T%2$%#H,&]>)f-*]I'[$5@t==]-];],{~;i&>]U;G-c',]Q~'])]!]~]{]]]r%^]j&/](]:%E%Q=G&H&m#(*N=/*<-N=:%G&O=8;N=@'[)+,@,+,N=8;+,.)+).)[)[)+).)0,[)_]:]<]k&,{[]}]|]1]8#U*H#~$C@F#2]+)+)+)q>+)@,<)q>[!.)<)+)@,7;+,=!@,@,@':-G;+,O=N=P=P=G;O=_%3]7'>{<#<#0%o#%#6=a#7=Y@+#K@D@4])$8&o*E@e%0~v%5]a#$#N@^;Z@*>+&6]P*F@m@+%i&q~J#B=j F@>{L=5>s;7],{<=I*a$S.r+=@s+]>})8][@4-[@6!w'K~9]. . . .                                 ",
"                                . . . 0]a]b]c]d][@a,a$|&t+L d.}.K r+S.-!V&{*r=e]5=f]x)g]a'q=r=:> %h],{%$Y*i]j]M#k]l]|=m]>%n]o]p]q]r]b&->{$~$;$Z)r$m%V$M#X*))p&m%H@{]s]t]u]Z>s]v],&L>Y@h*3{w]+@(*<-D%:%Q=H&<-+)[)D*G;8;0,8;[)+)+,G;G;N=8;.)+)+)P=0,+,D%<-<)[!x]y]z]k!M@A]n&);S,8>E#M-Z@B]f'C]D]+,q>[!o)t~E]E]s~+)+)+)G;@'.)[!7;P=G;O=8;7;8;@'7;N=P=F]G]`%<#<#<#<#Z@d'$@a#Y&t;>-H]I-+# *D@W$%$F@p@I][#~$l*4>J]y#K]w=n%+]A]G-F@I@D@L]f=M]N]F@F@P~Y@ =)!;]F@m*W=*.K U.&.&.|-6!6!})g@[@[&4- $O]. . .                                 ",
"                              . . . P]|&Q]R]S]T]6 @)s+r#S.*.K |&}+S.s+U]F$7#8>V]+#@=W]')a&0-+-X]s=1=$#D'Y]A]Z]`]A#-)A'M#D@i&k&o,4]&% ^R#l$4>l$G~F@B=T&f{!!^,[$,{|>9{)' -.^3>+^{]%%e*Y@g,&*C{@^#^H&m#G&O=Q=@,[)G;7;+,0,<)[)7;[)@,@'+,+)[)[)u~n)=!+,+)+)<)u~8;$^%^&^/%F~r=I-8>y$*^e!_@=^0'5@q@-^+)s~o)E];^u~u~n)q>+)+)8;@,[)O=P=O=+,0,@,@'0,0,+,8;>^,^>%m%<#<#<#<#k 5)$@K@h~}#C!]$b-%#B%'^/$!$/%>%<#o&I-5=`)t=)^B='%!^~^k$j%r$F@F@P{J@l%X*T#F@$#$@%#W${^]^E@I'2*d.r+t+U.&.=@&@a$]>[&4-#)}@^^. . .                                 ",
"                            . . . . /^M~Q](^_^:^u-=@g@ $r+f@=@|-a$a$S.a-D$q~.&#{P{<^;'3{0=X%[^ %*-I-F@b*4;I'9%}^|^-)f,M@n$h->)1^8&-#<#A;,;8&2^5=<#O;t=){&*h*r$J@3^8>=>U;G$z=U;b!0{6@q@W~+#<{`*4^5^6^8;+,0,7;0,7;@'0,=!n)[!+,@,[)+,+)u~q>u~E]q>+)t~q>=!E]+,7^I-_#-$F@b*8^k! -f-d*r$_@w{]~E$9^0^t~E]q>s~E]q><).)<)[)0,N=<)[!0,0,.).)q>0,+,<)@,:-a^b^5=2#6=$@g~%#a#$@[#f]$@m%| c^D$v=W$`=Y@X$U#I-m%$#h*/%D@L@*)d^ #%]e^f^g^0>l&F@F@>%I#h^5=i^I-F@D o*F@5=@]j^E@&-k^S.}.r+&@U.&.u-[@u-}@l^m^n^. . . .                               ",
"                            . . . o^p^Q]q^r^d's^g@J%g@=@]>=@=@1@o d.1@t^t&u^l!H~P~I,*-d*v^u)w^+-x^>$p@y^0-n&i{^,1$z^3{E@5=A^V]B^9%C^D^T;V;E^F^J@%#+%y#x'G^%#l@5#N,e=G$$-A=N,H^A$5;##+*,!I^J^G-K^L^M^N^O^P^Q^G;G;:-O=@,[!+,@,=!n)q>n)R^;^;^R^n)o)t~u~o)('S^T^A%U^V^0>%~l*W^),=~;]r$B%D `==>e%X^Y^R^t~R^q>q>u~<)u~t~.)+)[)@,<)<)=!n)+)@'7;8;Q=Z^`^4] /L=G-$@<#/$G%/!./+/&$q&C ~$@>&*X*X$v%@/q]F@4>$#$#$#$#_@L>4)#/4>%$I{|=.&{~,{D $#J@~%D'$/+]+#F@i$L>Y@ !%/8-$#b!&/r#[.s s 1@@)*/]>g@=/6  $-/. . .                               ",
"                          . . . ;/>/Q],/'/)/,]!/&@&@t+s+s+S.t+q+S.K &@;,g%~/6]z#j L=n;v={/B>P,:,6-E@h*W^P,5$n&Z]{*X%B=]/V#p%^/y#>-C#f]//##4~(/$#*&I,_/s{;]R{.#B$:/s%</[/i]a%}/|/*)k;j;1/2/&{B^o*o*E,{~3/4/5/7!6/7/m#G;.).)q>=!n)t~E]s~n)t~=!@'s~s~.)8/9/0/u=m;a/o*T&b/}^c/3{d/E@<#l*%#m;k,u%q@e/;^R^R^s~.)[![).)8;+)+)@'<)o)+)[)o)=!0,+,m#f/.#g/L@l@=$Q{3+<#'$w{h/.'[,$#i/G-$@m%#&j/Z)a#M#z>k/l@F@%#D@$#$#/$-&l/m/n/H@*-3=x;o/_@F@F@y#!'_;i$!$J@r$&$E-q@*>p/->$@C-q/}.a$}+ $q+4-s h.}@}&}&r/. . .                               ",
"                          . . . s/Q]Q]t/Y&m%u/6 <@B,&. $4-f@U.S.Y.K u-D,v/w/x/Z]$#w$y/V*d%(>j;j;=#Z;o#z/W&A/B/'^^!'%k!<^I#-$Z~g,},g&M#&%X$},9=F@C/.'D/y!$#2#G@>-u&'%e==>E/{!N,k$4)F/D,x,G/H/f]%#a#o*o*,]l%o]I/J/u&K/L/M/N/O/P/[)s~<)+)o)E]<)q>E]Q/R/S/|=B&Z@N#T/&&U/X&V/W/y)X/I@+%o/y#Y/o=z$/$Z/s~n)n)<)[!q>u~q>7;o)q>u~o)t~s~o)<)+)=!{#`//$(- (_@-&g,r$o#<#%#o%$=m%E^r$Z].(r$1^Z]M-b&H@9^M#k/F$~'x$-&r$$#$#L>>&+(T>q$y$,,x-@(=>2#,{E@t=#(D$ !p&F@+###$(h{%(2=&(h*W$*(J%S.[@}&S.1@[@f@q+S.=(. . . .                             ",
"                        . . . -(;(>(,('(m%F*)(}&=@u-=@K =@a,K &.f@r+v'!('&~({(*%G@V%q*q;y%)'_,](p=^(J@l//(I]z'^;V]]&*#((y%s&_(=${$X$J,t$N>:(I-h*L>~^<(m]>{y$X$A#'&'%),w{q][(Q-+]U;}(|(1({!2(3(],4(2#q$e-/!1#5(}^J!6(=~~*,!4{[#7(8(9(#^0(n)a(s~b(|=--c(d(B/$@H^i~>)e(+#O~W&p/Z].#U;I-z'0-7-*><#f(g(E]t~n)q>n)t~<)@'[!n)q>q>+)7;q><).)h(J=&$-&r$o;L=m%<#4>z#e!H>;]i(-'d' #a#j(>&L=V*d*Z@N@J@v%[]U%-)4)k(M@*%$#$#>%l(m(&*<#w=j;n(o(J-Y@F@x$y{p(q(E#n*I@r(s(d*t(G-f&F@$@u(v(f@4-}&=@]><@r)u-]>[@w(. . .                             ",
"                      . . . . x(y(z(A(B'7=i$B(t'I%-![@q+&.r+r+r+&@=@C($]E=D(;=Y@C-b#n;N*@>E(*-0-p/m@>=B!`*e%#]s$o]F(G(v%H(=~I#o@A]F@@>O;I(C!L>h*/$N##(s$n%w=w$J(y!U;,%K(($`$##k&R*L(e=C-D&l*$@m%{%L^/%M-.''&M(| N(=>%~N#H)n@T*l, &V!O(P(e=Q(R(9-S([#T>.]*> *C 5=T(p-C@1!%/U(>#V(W(2#J(X(q$Y(@&v%Z(`(E]u~q>t~q>q><)<)q>[![).)=![!o)Z, _!;P{q% *%#0>p&D ._7@q$+_G%($;-C r$$@L=@_r$f=x,5;g]F@F@L=~!4;.]X,m@%#$#$#$#B^{]#_o]$#z)0)$_M,[{I@F@m%%_Q~D>';0>h*}^s$`>}$q@#&r$m%q&&_]>}&s+r)=@[@ $#)K~*_. . .                             ",
"                      . . . 2;=_-_;_7*/$$#>_4-<@g@<@g@s+4-,_r+=@L;s u-w-2>'__>F@_(b#o=:,)_h$0-y*!_E@##c=w^)$a)M#h-|^p%n$a~m$2#I'p/~_#]{_T&]_$#h*M@,%>)r$1#Z]`'^_=>e=H'E#B)##b>J-d-U;b&K^f&P{$@8^e-o*<#/$/_(_$@v%%%5=y]__:_v%V$<_f* '|/H)6(n$;][_}_T*Z>`$%#+##&I>|_G-G(1_2_M@3_U;J!4_4)+#C!z%`;4]5_+)H&<-+)E]R^u~s~t~+)<)q>n)u~<)[)6_7_a#<#<#h*g&Y@i$K@9=8_h%9_9=0_a_5#$@$@@&q(n$4).&b_f,c_l*g~%$%$d_e_f_E@D@<#$#o*g_p~h_h->%E#0-i_g-y%I@$#0>c-|=C&N#$#U#I]q%m]W*Y&4]5=0>j$j_g@r+q+r+4-[&6 ]>k_. . . .                           ",
"                    . . . . l_>(m_n_m%$#t-o_&@}+g@a$r+h.&.t'J%f@h.&.=@8>l!@~{%D@f*!$]&0-S*/_j&P,n&I@L$p_a-r(($q_r_s_~%N@ =t_9^p-4)>$`$Z@h-t=j h*8*e=0#F@]^G@u_s%J-b-Q{v_V%b&.&a&y!o$j%Q#j P{w_#-/!o*o*6=W$m%_@1#J@G#k'x_y_L$I-*$n*g%1>R%z_m%{$u^,'5=Y&>%e%#&A_B_C_ #|!D_j%>{E_B$K$S{Z@~% &l@F_ #G_H_D*[!u~o)t~n)t~t~q>t~t~u~<)[!]'I_w$o*<#<#%# #k!J_>$Z&=#%!n*o,4>T-U{$@$@C c*G#W)D/x,K_0&x-9=F@l@m;.]F>Y&M-z'>{$#b#L_h_M_k&o*')*-M*e=f{F@F@$@Z~G'N_1=F@ #V;z#k*K@;]$@,]*%^&O_=@&@f@})u-}&a,q+P_. . .                           ",
"                    . . . i{Q_Q]R_+=>$S_T_U_s+q+}&<@#,s+&@q+=@g@&.q+4-h;y=@~V_g,S%Z&R%j&-)W_w-s=X_I@H@a*d=;&c-<$]_#-8=-&b*0*Y%3$q&.=j^6=t%8&$#D ._y=E-$#1]v%i%e=P#Y_0#u%_{:==>s%Z_M#7@3_`_B^B>Y&o*R{->N]J@%#i$Z@I@w& :.:a&V#!]+:0%Z&J!~$<#I@#=Y@%#V~n@V;a~w%V%@:d%))#:Q,m%J]/-_@ !J@u_$:R{H)0-I,%:&:;^R^u~+)u~o)[!o)t~q>+)n)q>@,*:n;r$y#L>L>$#w=}]l!n$<#]^$=/!=~;]S,E=l@$@$@ #u$+#8^=:y/-:|!C&~$$#E@m;.]L(E@6=@-E@$#X/x;t]#_^&%#Q-O~;:J#r$h*F@o*>-Y*-%| F@s$y$))8-e!2#%#*%s$s%>:r#r+f@K s+g@[&,:. . .                           ",
"                  . . . . 7(Q]Q]':m%x$):4!!:4-&@]>a,&@g@=@h.a$=@5 5 }&e;'%~:|$6=f=i$!&x'0-{:h$Y*9=I@]:y'B>5=b>E'''[=^:/:&#y%(: >_:s$C-::~%`=$#h*<:!^r$g,a%X&9#$-#]v%U%l@[:2$G$)!!$5;5]I@i$Q;}#I@p&m%}:$/z%m%$/F@w$|:F)1: =`'2:h-R~e%-%X,e!/&3: &4:5:d%^](;y,9&+^`)0-W;^,F@=%V^m%%#&%u;m%>{}=r=s$8-6:<)R^=!0,=!=![)+)u~s~n)q>[!7:8:>&t,I)9:/!$@b&S&0-9%,{Y@=&$@h-f*t>m$H@$@$@<#0:(!V;d/~:a: ]0!=~L>!$m@#&`*($b:b!Y&$#@=M,%-i_c:`>h*V~D>x=X,>#F@F@r$}=W&B/m@r$W$z%b*+#a#K@i$7=K^ -W]d:&.a$4-[&6 e:. . . .                         ",
"                  . . . f:g:Q]h:%$i:d'j:/$k:]><@=@q+r+q+a$S.r+=@s 1@l:}]),m:n:o:X*4>=>*-0-*-9>V&R#E@Q**-*-k$#]p:4:y-q:/%{%[]l~>)Y&z%6=r:;=m%$#%(6$>->{]]*>%:s:E=N>>-8-j%$]a'z=Q*&#i&,{$#6@<>0>5=Z*t:[$))n$D@%#$@%_u:v:w:Y&o]Q~w$x:y:A=-&K^z:A:B=*-z*q@L_*>>;|=B:X~I_m;$#i$@>F@$@C:^~Y@<#,{L(|>D:B=E:@,R^o)<)t~.).)=!+,.)o)o)0,F:&{G:3$d'>;D@<#}^O-i_'{,]$#u=M@x{e=+#k/H~r$o;$@B=j^<#x;H:I:;*J:K:L:p&+=-&)$z=M:Z@N:g~j i&h_O:3>f^h~_@P:A-,,((F@F@F@Y@5;!&Y%F@/%q&>&G#E@`=+#I-/%k&w^Q:v#}&u-})6 q+R:. . .                         ",
"                . . . . S:Q]Q]T:<#<#U:V:@/W:]>[@ $s+a$K *.f@t+J%r#J%#)q;E$a!b!s$L#J@)%N*#( %X:e=#&E@h{-=Y*G-Y:y$Z:@%C!5)Z~;]0#`:L@[#`=k;m]$#h*@=h&g&>{V/]/ <e=@#_{.<I--#/;w-+<R#@<g,,{._#<B^_@9%o*F@4:f&r$$@Z]Y% -Y'$<)&v%8>G,Y@N@($|>r$%<&<*<g&=<y)v_8#%#-<;<->`&;-$@r$+%C/$#~'^~n$<#<#i$><6=,<y#'<+)<)q>s~t~+,o)[)0,[)q>[!)<!<k!}=N@r$6>0~F@Y@k]n;H)~<5=-&l@v%)'L-C@^!.#J@$@m%!_{<}=8:J:|:]<J:^<#%'^Y;)^->$=,{_{y%,{l@x'/<^'h_i_&#%# =W;o]| F@h*$#Z*k,T&I@F@Z]}/=&H)| m,/$@&<$0'X@(<4-4- $J%v'_<. . .                         ",
"                . . . :<g:Q]<<;%<#F@[<}<|<1<=@s+})=@f@1@h@s+g@t+M p.]>q*l!9{I#2<u_l@Q,s= %z*4; %E-$#J,C&3<v%Z$C#4#4<C!/:Z~*%w{U;.#l&->G(D=F@D ~;5;L>4>r:8&P#=~N]@>y#N#=>M]E=)$)!C#E@l@=>($E@%%],C ;%V]_@j J,G-_(^-Z>5<))l~j&<{L>H>=#J@#&F(j'6<Y)b%B=7<d%>%^_Q,=-L(k$<#4>H# */%D,8<$#<#o*n&m;c&h;*)9<[)+)o)o)u~q>q>n)s~E]n)G;0<k,s(e%f]a<b#'%l@F@4:P,b<Z$.(r$<#_@)!';/$~,T*^;D@$@1=2(N]c<:]d<y]2{e<w)Z&k!D$J@N@U#>%')L>,{u_M,j'M,i_O:i>q$p-3>H'| h*M#p@@%)'q@$#h*@-f<K#4$E@g&U#m%5@:,g<=@}@=@S.6 h<Z;. . .                       ",
"              . . . . Q]Q]Q]i<<#,{j<k<l<m<n<<@&@6![@s+r#a$4-a$B,U.8 [@;,H$]-1=f&b/N@I'j;o=q=o<$]M#F@,'j&<>l*0:%!A)G(u$q$H'f]]$'%e!p@q%#-8&$#$#5@5@| p<C-y%0=f*->'{u= >U;q<n@r<T;E@F@Z$/,a#~^L]o*;&j*6=$@q]d*^,t& %a:s<;&b>5'6=%#%:-<i~C$e^t<1#u<H)J$ 'q$v<|!u={%%%<#r$Z@<#r$v^k!$#D@e!r$p-G@m;z=E@w<n)t~s~R^E]R^;^t~o)t~u~h)`,')2#+#@<t&->+*R~,{Y&z=c*/_a&M#<#$#'{0'm,9%%!##^$I@L>V%J@w-D(@{x<!]!]e<),U#))9*,{L>E@X$Z&$#d%c:f>y<x=z<|=._i$k]h;.#j *>V#a~E>m&E@F@N@j$L]V& &A<r%| q%q~B<C<w'u-]><@#,D<. . .                       ",
"              . . . E<,/Q],/E/$@o*/=F<G<H<I<[&6 }&&@}&}+*.s+a$r+s &.[@<>0=T%*$6>J<8&4)o=O~j&n; -.>D@w=0-x^Y& =N#M#:(8=Y@`@Y&)&|^I@F@H)y-->$#L>D!._E@K<D##{h&8&_/I-T;J-&*9/'^o]->F@=$l([#/$C=F@-&_,c&P{D@3$T#I)X%X%L<M<8*P#6@E@~$y{>% #-]X%N>8=$]l*N<p]Z;{%.&l@J,&$<#r$e!$#H'm&C D@6=$@>&')F@]^6-;&O<s~t~t~P<o)o)s~t~s~R^.)Q<r=/$0%]$1:N*.=R<9'L>m%8^_(l~S<c-h*<#3_#/h~~$@>o;]&I>V;->v%m;T(<'Z>q'@~ 'T<L:L>L#%%/$:#Y&g,h*D@U<V<n(O:S>|=A'[#Y&D,A$>#E@V$s=t{1/X$a#F@w$s;y{Y*b%p%r$/$k;a*W<&@<@u-v']>X<. . .                       ",
"            . . . Z;Y<Q]Q]Z<L><#<#`< [.[+[@[ $=@s+ $&@&.S.<.s G v o =@]&v/(>v%5=h{j%H).^:>j&/& %#[+#-<*-d-M#n@H,;]T-8=Z&G@R#B&v=| $#=&~%i$h*I-&]i$a#C!-&--Y; ^.>;%G$s%w-$[0:3{m@_@C!o$m@4$4>m%y=y'L>I@%[i&N@&[[>X%i!W~S)*[G#m%t=Y&%#D==[--y#S>Q*-[;[e%X$`*Q*e%q]<#<#<#o*r%B:$#r$>[_@%#,;%(~$1$,[n,'[P<q>t~s~q>E]t~s~t~n))[![n@o*9%#_j,0#],%_S*~!E@,'|>~[3<&;B=<#r$($$-+#g{`;4'{[][^,C/J@y'^[/[_=([H{_[i!4$6='&.#n@)%B%U#m%C::[j*@(<[f^]-$-*%W$d-M#F@v%*-N*j&,; #F@r$i&a%=~j;r=%!^(C-s,[[&.#,[@8]6!`{. . . .                     ",
"            . . . }[,/Q]|[o%o*5=m@9#1[-'2[3[2)4-=@s+|&U.K }.U.U.M o ]>!'e=d/G-M#i$D'e%x^S&;,X:/&a%#=')n;J#T#D&4[Q{9*}= #Z@n@D>($>#o;n]s;o*F@#%}=| 5[A<M#6[k!(;p;;=0=e=/-E-3)Y@E@d%7[o*f{2;F@#]@{W$8[@-*-t,m;w-X%9[0[^,a[8> #J!]:s$k b[ -I,C^f;H>c[N*F@r;/-L@$%a#<#<#<#d'z'F@$&f--'<##&M:$@o/.&6@1=d[R^P<R^s~R^E]q><)+,@'e[]-J!G-f[b-F@[#;]H([>9'e!Z&G#x%)' -=^P{$@z%;,,'^%T#~!Y'E&},a#I@S%g[h[_=i[@~m:i[3<##k!,;.#q;,'F@N@&&i,j[n(O:g-`*y>+:h*`'3$Z;F@k[W&_,'&j]f]F@2;3$a%l[j&E$#=Y@>)m[n[g@,_4-u-}&o[. . .                     ",
"          . . . n$;(Q]p[q[o;Z;#-m%a%8{K$r[s[v'r)f@q+1@c.}.&.U.1@o *.7!d-t[Y*Y%%%D@C-~$a'x'*-h;X:a%j]E#A>>)%$H)>,#=Q,--g,L>,;u[v[m@l&},Z$$#>{3{i/I@B/w[]^j-n$l*+]0=x[e=/_n@U~x$/:4=t>4>#[j D&y[z[F@((A[B[N@>)]&q;C[D[T#a'B:| .=T#E^g&q;u_~$R%$%U;E[r<<#q~<$n*q$%#<#<#r$H@+#$@5=F[x$a#l*%#s$t%Z=k[D=G[.)o)P<H[s~q>[)+)0,h)I[k@L>g{k,I#a#g,E-I])&a{L]F@K{z%<>}_%_z_#=o;9'J[.#T#N@|:K[L[6=$@q@M[N[2!O[!]a/P[-:/,D@ &4> (a*4><#h*#-Q[g-|=V<R[`*W&|>l@y-S;I@5=:>A-P,j%._$#a#);C$p/j&X%0:^(S[N*T[]>=@I%}&4-U[. . .                     ",
"        . . . %,K/Q]Q]V[6>r$i^,!i$W[R<y#X[Y[[*]>S.h.*.=.c.K L =@<@s Z[w-'%q;y,p/K{*%N@f=P,o=n;`[D'g& }.}5>+}+]k;.#Q,3$Z&@&>-x==&k(;]/-o@p@<#@}2#a#&*v%A;4:N>i$T;P#E$N,8<C:Y@x$c*+>h*h{$##}d_4{4]Z@4;|_#&t=q*n;a'x&+]9-<>H@/!g,O'l@,$q*T*b*n]H@$}!]/:]^%}Y@&&<#J@<#<#Z@o;<#f]&}{_<#i$a#$@S~J-e=<{k@*}t~o)t~R^q>.)[!u~q>=}4;<#L@-}i&j%;}a#:{->L(I{>}m%%#q@]&n;.^/;,}p@n@2{ ! #$@K-'})}),<#m@),_=|_y]u<!]N~-:!}7*.=l*q@x;#]h*%#8-~}$_{}]}f>g-x=N*)$*]/,E@F@^}-)a*u%6(v%F@y#h&E''%*-&*~$z%}_/}s+&@[@m^u-(}. . . .                   ",
"        . . . _}:}Q]m_<}<#m@c/[}j%,{w%A%X%}}|}6 r+|&}&a$L f@4-&@g@=@1}=>),2}L>y-k!P{F@L:x' %3}d=G#Q*z%@]a[z_I#}=l@M>D!r(m%4}Q~0:^(t,X*6>F@E,8=E@5}='*%--j]V#k!),({6-i&5[G#$###7>m@6} #L@n;<'<=8[ =K_{(D@[,f=q;q;h&-&v{X*F@$@w={%i$7}6@Z&V*Z&q;8}0#o*--->g,%#5=Y@<#<# *r$+#p]9},{<#p# *F@0}e=i(G#a}b}a(P<n)u~E]o)E]s~c}d}4)%#Z&e*E~q(e}o*r$Y@A*q=f}d%,{*%R%g}3}{:j!Y%Y@L<h}D@D l(i}j}k},'I@E#l}^[C{Z-m}n}u^w,o}v%j]B%m$[^Z&h* *p}q}g-W&o(r}f>x!X*$#0:k!I@b'r=x'0}e#%%$@U#$*W^S,*-r=b*M@6]p_s}q+2)m{r)}&t}. . .                   ",
"        . . y#u}Q]Q]K//$D@X$p~U^v}<#,{Z&B!N-w}g@}&s+r#s+r+1@K  $s+q.Z[x}V*y}F@N#T&x$m@0~j;y&n;z*+>h{!$3$;=z%g&z}g,i&t&X~m@|>/&A}| z%D!2#F@z_d*^(}#-;K$$*L=.=j/B}&*L(=]+]f&F@K^#=$%C}y$V]D}4:<#p#~$N@F@T#D'T;.&h;,$E}<>G#I@ #&*u=G#d=N>c*F}E^G}A:Y@l~W(l@m%g,b!o*<#<#r$a#k;A'Y%$@q@Y&<#L]g%'&$-V%Q,H}t~u~P<u~u~t~n)[)I}L,;&L>M#@#r$L#E$D@r$>$U{k,S*^]@&a#'%J}j;e;x)k;x$k/5,i:<#&#K}W/ ]%~%(M@C&^[q' { 'L}~:_[M}y=%#E~4$5@6@P{m@>-y'i_<[]}L,`*w)B&d%N@p-F@$#/-x'}]g,S-Z&N}V;C}S%L#O}=[#=1];,P}w'w! $[@#)Q}. . .                   ",
"      . . . R},/Q]S}^$o;N@o*T}#<|=Z*<#m@L:=&U}V}s+}&a$&.t+L;K *.4-L W}L(D,^&%#$#}#a#E@V#h;Y*o=#([,@-3_X}$*u=D#//8*&!#/a>E@Z*4;Y}Z;X&Z}a#p@>&h{0>)'8#J'B^0~M#h&6-i(u&f{S%3$$*j$Z&`$3#s$*%`}f*=~n(a! |_@q@v$Z=x&.|+|S~1$>$I@c^/-4>^!'(g,K<l& '@|p/J@{(Y@a#<##|K@<#<#<#a#$|E>%|&|~'*|3+.#L#y!e=L(6==#=|;^s~P<P<t~q>o)-|d}h$L$`@Y&;|$@U&#(>|<#$@p*P)a-;;g*,|D[P,o=h; -'|M:)|^<!|$@D=~|{|]|K[&#; );^|/|/|(|O[_|:|<|[|')D@-&+%d=r%F@Z]r=x;W&Q~0&`-`-|=/;'$}|n,I@G#0)q=D=6)k@$#Q{';x,||w-B>e*5#<>1|})4-r)6 }&r)>#. . .                 ",
"      . . . N:Q]Q]2|g~ =_(0%d'3|4|b*>{%#i$/_3<5|I%]> $=@=@a$}+1@U.G 6|^~B^c&L>D@N> #P{L@6-a*x'/(Y;R~+#l$u_T#W*u;X~m*x,7|| D@X%V$Z;._4'P~F@$:l@p:8|9|5#~'=)4[),.&y}=#0|_$k&%!G-4>a|V$}]b|c|L[d|C{e|[:C e*f|a&~&A#l@o]g*E@8&3<g|h|3|i|B^w%F_9]q'J@b&j|4>F@4)k|o*<#<#<#I>0&8=4]h{@]2#<#h{.&y!2$=~~$f,l|t~t~q>E]R^s~[!m|n|9^7=}'4]E~<#_:o|t=$#<#}^R*P,[>8#I@e%_,V&n;{,8:5'p@L-7),{c'K}p|q|r|s|n$5}t|I:u|v|P[2!w|x|[|C&M-4!+#a-i]g~| m/S>`-o}Q~y|z|.*T% =,]A|Z;+#y&s=y{%!B|I-I@X(*-%:0:O~C|^($*B_D|<@})=@-!*@E|. . .                 ",
"      . . . F|Q]S}G|q*~$S,Y%p@H|@(X%B=o*v< # >I|J|=@a,w'K|q+t+&.&.6  %J,s$Z*D@;]I-F@F@$@$*='s=C&o]y%o;A]f%)$ #F_h{5]h;/;M@0>/-{%Z;8-,$D a##]L|F_w,C:%#2>k*]-_,)&$-x/z)5=##M|!%j*N|]<y]G|^|j)O|'_@~;&D#{%a&1/ -P|(_Q|L>i:F,P#/%R|S%~$[#z%w/G}]_##4:r$$@#%r:I@<#<#$#r:)'e}p&S|J(D:$@-&J$y!y!V*o,w$0[T|H[E]o)<)<)o)U|V|0*h{F~<#U#Y@e!~$a'W|o*<#/$y-[^<>a' #o*,}q=*-X|Y|Z|x{4>_=+>s&`| 1e|.1+1m&.#@1#1q'+(8|$1'_%1&1*1i&Y@9*f^=1L]x$4)O:g--1M*q=3}f>#(;1`)E'5#>{>1s=G,u=L#%!F@`@5'o,h{a&&{5=(_X%,1]>]>f@[&})'1. . .                 ",
"      . . . )1Q]!1~1s=[(i*8<i~J@p]{1C^; h{8&->D$]1^1!+=@a,s+K f@4-/1i*(1s;F@F@,]@-L>$#E@h]#(Y*0-7,A/D w{|^y$_1c&L-,'q*q*n$g,=&T;Z;s$j,E@n$,;_@a*:1o$Z:f^p/3=J<t;;&k$=)<1Z>e< ]_[@~|:[1}1^|U/|1B{r|9'7@%&;,a_a'I-@}C-| d%i,3{t,11~$$%],Q;21{]L>>&@&<#0>315)m%&&a#&#[/h%>;f;.^W^a#<#C-$-41L(,$N@%!5161`(P<E]n)q>[)n'71/$p/>$<#4#+%K$7=%<@%n%<#h*j^T%P, -z)o*{_f,a*d(815<'|^%q*j_91$<r|]|w:01']Y/a1b1y]c1d1e1L}f1&1T<g1z%{~i_n(s,L>],h1~}o(x=x!i1V<U)F>k/l@S|^(~'4;!%;]R,({],r$>)L#A$m]{]A;M@=#j1a,s+ $6!]>6 Z;. . .               ",
"      . . . #:,/k1m:}:[}M,l1M@F@v<I{)&X$a#o/m1n1q&o1p1p1a1q1r1!]:_d*5[=#s10%F@,{%&C-E@a#L@d-P,0-z*~!F@c%t<s;h*u%|>[#6-a& #l@z%z$Z;%#*%E@[#H@5]a!t1%}Q*u15]Z*W)_(J-L*%1_[I:v1 ]/[w1x1y1z1A1B1A:D(C1 'D1>-b%e;j$}^@_m%>;R*e=#=@_i*$@-&V;E1F1%$G14]<#F@l%m,E@Z$/-i({%8*H1a&j&M]I1<#l&0}V*2$c(p&y#J1K1L1s~;^s~s~q>M1N1;=m@L'$/0>L@*#%]F@O1]&/%<#<#1#f}}_I{m&Z%o*P1~:S(Q1R1S1u:/==<T1U1V1__W1r|X1C1;)Z~W$<,D'Y1Z1_)&1T<`1z=r$0=L*s{]^Z;F_y>W&r}B&0-B&4;0-)&+#H,#=a#0' 2>)g*q*W$m@b)9'`>}=&{q*5==;.2+2u- $w'K~K~@2. . .               ",
"      . . Z@#2$24~B=9&%2i[]_m%Y@o#V$E>C!| r$4>i$l@Z_H$n;o|'%F(I$j &2o,}]A'|#E@j *$4'J@m%B%T;0-S&A'B/E@c*U**2L>H,d*->R%=2i$r$ #-#m@h*$#m@a~c%{,t1a*-2^;*)P;=~`~a/;2>2'_,2'2 ]y]<'^[%^;*)2%^@{!2~28:{2l(r:=[b/$%S~3/Z%]2y'H(K$3$+#/$v%^2/2{$m%5#<#<#(2s$P{%$j;E$j%M@_2B!S&O}p/F@r$l~D/s%a>F@A<;&[':2<2t~[![!s~q>[2I_j,r$U#y$'^L@a''!o*}2|2B=<#<#$@#-V&+-2^##V#4>.*12221[3242Z|D_T152Y'D(p|i!Q#+%_@$#$#62->72&%a/1{w,#<82B/0:O(92=[o;z'02y'|=M*B_T%0)`*r=g]D'))E@a2q=0-b&-%//D R#u&T&u^C=b20#P~]$c2d2g@Z[2)4-s#%,. .               ",
"      . . '^u}Q]L,<#e2B{!}]&f2=-Z@g, >m[h{E@E@n@k[l**%g2j&@]0> }E@Q{x&S*y*%!I@J@F@#{')h2L>h{='i2N*U%F@z#1$0=p:>&B:l@:,;;e%/!D k&$@h*F@,{V]`~b/N#;&j2($o(t]i!%1k2l2m2n2t|I:q'&<o2q'2!j)p2N[A1q2@~r2s2i%_(1/0{I-~;%#E- -t2u2b*+>C 4]e}!&J-v2!$<#r$<#y#m%n$6-F_@=Y&y-;,;;C&[(_@<#j|&]V*w2>%x2`&N>e=y2N=u~u~@,n):%z2w,I]u=/$h{!$%#U%A2r$u=!'(!$#<#F@B2n;c=}_S-},k(L#C21!D2E2[}W/F2F1G2[|]$>&*&o*o*E@S a#%]m;);n&H{3:W'-:H2<(6@I2J2K2L2S|n(]}M2L,a&W&C'y'D>K#~;V!m@9=0&N2Y}#~.& !J@F$p/_)$=A$n;c'B^i26  $w!w!d2S^],. . .             ",
"    . . . (;O2Q]`->%P2_)t]`*/_r$[#/!a%Q2V]4]F@n%Z~%*.#m%T#v%>#I@f&E@a>R2B-h{.#M@/$#&Y)$@<#Z@G$Y*X%K#Z@)$({-%T&Z&$*W*S2)&k@m&q&J#`=F@F@Z@}=w[4>L=/,M_T2M)U2V2&<W2Z> ' '_)!]P[@~N|X2_=Y2Z2`2U] 3;*.3K:;,L-5'T#w${_+3+: %m;6=@3$#<#D-#3N*Z]L>e!g~L><#<#a#-#c(L>/_a'x,n;S&}>Z]<#_@Z)S20{<#z>q<x{Q)x'$3t~E]R^t~[)%3@!&3=- # *h/-[<#z>*3o;4>=~b&$@<#<#i$x&X%B!]&J{L'`'=3-3;3>3,3~|><'3r%q$P{Z%)3N@D'-#D>a!i!t|!]!3~3H{{3@182@(4|h_x=M*G'Y*]3M2o(^3m[C'|=/3z|`*w^k,F~(38'P,M>P*{*S~F*_3:3<3[3D!.&}3|313237%6 })q#7%33. . .             ",
"    . . . 4353,/)!*%2# %@(S>S*i$$%n,$#A;a{H~I@F@/$X/63L>m%E##]n/L@a#h*V*n;s;n&E@],p@{(`@m%a#n&,,P,x,A%],';K#i%v%k;2#o,h;H)`-u[X;C#F@h*h*$@._P#738393t1_)_[|!t103`<a3b3c//[ '([c3d3e37(f3g3h3U]i3j3q2`*p*k3`;u=8[D'-=';L>C$~^F@I)L#T;')g~r$ *^,r$<#o*(:G-)$^!;1a'U<x'.-D=P{<#V;.&k]v2-'^~J-6<},l3m3H[E];^R^[)n3z1u^8,I-J@V;[>L$Z]d- #r$D-9-%#<#<#| o3x)a{q*:,y]q'p3q3r3 :0/h&%#F@W[y#3{Y)}>&<]<s3c/t3(|(|&<L}a!t1*1u3e_v3w3x3n_y3:[z3A3B3U*r_~;Z*41w)C3C&W&r=D3E3F3 %2>b'G3$*>#._4'H3I3J3a' 'w'K3L3}&2)w'v'6!8]E@. .             ",
"    . . . M3b]$2N3N>~;0#D>r=s=p=>% &w%}:--.&s$F@F@##K#&%Z;O;U<J$>%F@4>4:j;k,4'V;F@| 2;]^Y%~'*%2$O30-z#>%k&w&w-b)c*]^H#H'x{`-e_z|H~I@p@g&]&P3Q3R34{w,L<S3u^u^~3o'3>e1T3;<c1;<5*y]J:e3U3H:T(z1Y'.1V3W/d/Z] #8-a#4>'%=2%$W39-| w$0-c*#%h*%#i:%$J!/%Y@B=Y@Z$n;*-e^q~Q;S&Z$>{<#;]{$G(l@->V]X33$6=X3Y3[!t~E]s~.)k#Z3`3u^h*j|.#y, 4t=r$K##%$@=^A$m%J@<#<#T#]&[>k,D>.4 [+4S(~1D2L(B=E@X~2>|!T<t]u]9{t]a!u<|:@45*e1#42!l2~~$4%4m(^<t]&4M,j'h_j*M*),<#j|H#Z*$-T%Y*D>*4A-`[](j;h;^,|/g%; W$9*@^I%=4-4A&2)#)K~#);4!/]>u-w't-. . .           ",
"    . . *%>4,4Q]!]5=u;l&^~x!A-B!6=^;6(a#J'x^~%<#C I@Z]8_#]Z;z%X%{/$#$@l@B! ;j&6-D'=&m@i$5#L'm@'4J=D>g'r$f*w-w-D,)4f*[#1=g'4;}=P*>;8*K@j%t1!4m(~4{4]4^4a!t1/4'_6,(4_^a/_4;<'2:4Z>w1<4y18{h3s38{[48:@^C& # =Y%m@&#`*v[l@m*0%~$e;:,~$g~_@+#.<W(}4W$p&|4a&i_|2X%a_g}r=z$<#%#G@M>14B=<#y#o&Y/f-_(2434;^P<E]t~o)445464),P~Y%%&m%8^74a#=)I($@!$84m%L><#<#F@Q#X%&{94;[p3,32:D_f*_@p&9*c/U/r=X%U<!&.&0'<>Y*042!i[i!a4,2x|b4o'`<>:c4L_x;4|j*p~A3%-{;))^($#F@;]3$`*d4C&O}-)s=N*[>l&u;F)g-j@R<e4r+f4]>g4d2[@@)#)v'v'6 !/w'h4. . .           ",
"  . . . |#i4j4Q]K:8=D'o/z>*-B>0-}=| 0:I>P~H'x)1]m@],D^k4${_(m@j% -%%r$r$)&P)0-Y*o=B>b*>)d^0*B=N@G^k&[{H#F_/;l4[>m4u_w$Q;3)w$#&m&p_6-%#p:n4c:`~#<w,U$o4S3p4x|i!*12!q4r4c1K:([t|K:o2'/;*G|T(U/s4r|W/8:0)T#I#C 8&D,2>Z@t4L=r$V]a*V$m%`%a#4:e=p/N>S#%}h_l2W&q;=>8> -7#/:%#$/A;0=w[I@##m%1=),->G,u4[!;^n)q>E]<)v4w4x4~;,{,'H$l@9%U;Y@u=w{r$i$f*/$J@<#<#<#2;]&|=y41!z4A4w,C#^( &.],3^{k,V&x&D,B4C4s,s,d-9[ -s]%1-:D4E4T<!}t]t1s{#<9{n_Y1j*j'^{o(D>H~j F@j /%r]C>d4T%s=[>j&P,q]q:k)F4g@G4i} $v'q+q+})}&=@u-})#)=/H4I4[&j . .           ",
"  . . . J4K4L4M4N4O4M-P4.=6@q=k,*-a%-&o]')/$);I$l*p&*$m@|$)'a%S C-]&Q4&$O- %)&o10-*[a-R4i2](I{5;c-._5#a#X*x)/&C&C3;:H~ }D=)!q={1j[:[=~>-=1M,s{N;t1@1a/S4^4T4N~U4W'V4 'm}W4X4_=q'<4x1Y4Z4`4 5/=.5[4W1+5],%#D v_[^#&H@8-m@@5f>`$/%],%#4:{$b!J@X&x&'|{3R)h;=[]&I|M]5#<#F@<{x&#5D^a<@>$56@%|]:h;%5t~<)+)=!t~.)&5|:i!_@<#p:]&%$5=!&*]],f;q$r$y$,]r$%#<#<#,{h$']*5#!=5-5.<0#0-0/q|@(I{&{X%a_q*=[h;.^=[A=J-f,)&|==1/4;5>5W',5824|o''5^{j')5j*o(Y*&*D!i*N@| F@$@h{K#a-A-='!5~5.>u_{5]5q+@)^5g@}&J%q+a$q+r+4-]>&@l:@)*/u-/5. . .         ",
"  . . . (5_5*@:5<5<_7=+]4[u=h;*-I{N,_@y$o]@=l&k;$=,{v<H@E@Z~B!y$E@[56*T*}5Y*&!I|Y*0-|5o1j;s=y/C&`*;)15u$B^25#/ %u;0|35';|={}453>55^'9)9{g-s{K-N;+(65u3a/N;a!a4a!'_7575m}8595u|q'<4x105a5b5s3/=D(A1__c5%#F@f&q=9-+#._>%t=#(Z$5=&%w[N#c*9^u=k;w-q=j'`-h;a&X%k,k,{!F@F@L-1/t=N}t=-2i$#]7,b#f;d5e5s~[!<)n)q>O=f5g55>y#4>S;E=c&r$6@4[<#A;~^h*Z]=-%#g,@=o*<#q@4|2:h5i5j5k5l5m5n5|=x)]&&{s=a&N,s1V&o5C}q;=[M]D/M]g-U2m:p5*182t]o'{]L*n_M,G'%-i_#/=#p%v$-#q&J@E@I@L@v{T%='A-0-9%6(x_[*|&1@g@s+|-w'}@6 [&6!v'v'K~})6 4-6 q5. . .         ",
"  . . . r5s5[&[&t5e=.#l$&~H@=& -*-h14)E@7>d^p&@=V!4:E@0~'^M@;-t[T#E@G#&%`)$*~'e=N*O~u5v)N*v5w5i2x5y54;d=y*I$U*w&V(U;{1-1M2{;@(z5M,j'e(j'9)w3A5!}B5C5D5-:M)E5T<|!_[F5V4m}85q'G5K:w1H5e3f3I5J5d|L[q2D4N@o*>;h;o,K5*%<#t,6-$[K{6)#{L5`)J'j(F(d-s, -T%X%8_x&;,Y*~<$#$@b#q*b!E@y$U*L@I>M<i&X&X%M5u~o)o)<).)<)N5O5P5k! !v%;-g{9#Z@P|0=+#Q5w=$@->8*%#y#c-F@<#E@#{R5-4S5S5=5T5 _L*5'<>!&*-6)G#d%N]G~{%4''&y!S2z=6-$]d_0!N;S3|!`~O(U5V5n(4||=W&<>>)8#9'^!8#|^^&m;<#E@2# %='*[:>@-T&W5Y.s =@&@r+|-6 <@ $[&6!w'w'6!]>[@l:w![&/!. .         ",
"  . . . v)X5u-I%Y54=7=($N#&~*%}, %B!C}B= #y-b)h*g&@]F~L>`$#=7=|^'%u=m@9=V%F~[#U*Z5 %#(`5:>:>r=q=Y*k,P,u) 6`*|=C'A!.6W;S>.*O:n(+6@6#6$6%6x35-&682*6o4u^u^T<=6<|f1$1n}-6;6>6m}u|,6c3'6)6!6`4U]i3A:8{~60:{6a2X*],9=Q{l@f{}:]6g,.=}^n&m$^6#/$]D,!'A&s=J-f|;,B>@#$#<#K@o]j%D^V;U*l*+%P#E$(;y-y&/6t~u~t~q>=![!(6_6d_q$;]C^p=D''&l*2;)'^;i$N#D@G%X$<#n$&;~$<#<#*>n(,/ [4/d(2:94j;X%[>[>]_r:N#1#N@D@4!#[y-s,q~M]y!/;D>~~_|:6*1<6[6&^{]O(e_B3}62>';m$R~I-n$q&3$O#;=b##=C!&{0-F'G~m&|6s+<@u-g@s &@})q+r#&@=@=@4-<@r)w!2)-!a,16. . .       ",
"  . . . 2636w'6!v()!q&4>-2h>T#*$/;<>Y*^:^(5(y==)p@._`>F@*%,;$#X$),V];]F@K@5)E@F_a-Y*Y* %:>f~P, ;i2`*46O3J=`*0&Q~i1F>5666i_f^|=$_%-76869296[606a6w,93D5b6c6!3d6e6N~O4f6f6'|(|g6h6i60505Y4j6J5__e|k6j3a>&& <g,1>N>$@z#s$%%T;A$U%5's=Q;;1 49[$]l6:,e]s,.^Y*D->%e!+#,$z>F@g&m6>|$#@==>4'E'-=n6o6q>q>t~R^u~o)p6I_^~>$I#x=4$},>,+>/$e'H,>%y%X$g~+#<#/!u{L><#$@<#0~<_ [q6d(|1:,x&n;^->-r6!$/:z)!-7_s6t6Z*--a'8_b/e=b/^<u6v6@1%4w6[6x63=9{%-x^5;B)M#a#s(y6x%y#{$l!U*}='%o=a*C&J,z6A6B6}+&@g@u-=@a$4-6 u-})2)6!6!w'}@6 4-K|C6. . .       ",
"  . . . d2D66!l:E6B: %o*3_n]u=p@a~N*Q;;18-F6=;U;'{m@~;l~N}6=')%#5=/-5>J]F@j Z;z'G6|5O~H6:>O~C&](;)I6',J6f>R)Q~|=|=V<y'W;M2o(K6M,%-y<{,L6x6M6g1`1N6O6[|P6Q6R6Z1S6T6R&V4[_m}_#U6l}V6W6'6X6f3 5M;Y6w:w-L>A_ #a|I]j L>z>^]Y*,,*-o=Q;Z6}_X:q*}]a&!&9[R%]&{:6@L>7=&$')o@S `66* 7$#~$.7.^[#V]j&+7<)+)n)E][!=!8;@7%^B>$@S|q3E-q=G:$*%#G^=#m%q@Y&<# *a#y$g&z%5#}'l*W*5,21#7<_Y1j;3<s=$7s$L>p#%7&7*7=7-7;7>7%]2>0'D,e=0=f^_[v6,7,5{]=1d_I/h_-)l(i%I#a#'7)7!7~7L:;]E(7#U*]${7B-`*c(i^]7q+r+S.f@}&6 g@&@4--!W{]>v'2)})@)#)[&m{ $r$. .       ",
"  . . }^^7s#]>}@/7[{z*M-/!u=0{;&q$u_X:)'U*q$D 0:&*E#E@+]i$,{v%N]F@;]Y)b)&$b'J,b!<>P,4;u5(7_7N*:7;)<70)[7!!:,a-T%g-x=}73>-1i_|7n(1727S>9237!}n447<657:6b667=6)]a494Z177A{t|879707a7s^H5b7Z2 5c7g[s4E#o*<# #b#<#z%5;a*s=0&`*y/l6x,a_n;h;h;q*6-M],<]&&{U*i$_@z%)$#5| I,f,1=F@}^a)n;D3d7X:e7f7[)=!n)[!@,+)+@g7M*B&r$5@L/H'D,9%=#4]h7s,i|g,*$m%<#a#1^ #U&N,/-$_Z&-#i7j7[}O~.^}>y&h{a#a%k7l7m7n7n7n7o7p7q7r7*[D,V*V*X%L<_|^48|a6R3M,J2c:X%E=k;$#U{s7t7n7@,m3u7C==>=#X*h;N_d/D'n&v7J%r#r+ $}&6 })4-})<@[&g@})v'6 l:*@]>w'2)w7. . .     ",
"  . . 5=d2x7m^v'y7v$8=p*||P~u=;$l@B=U;Q;a_H~J@B%z7l!q&p@l@F@$#5)2#F@X$J1l%0>Z~M#)&0-A7A7Y*r=8'](C&B7S<0-E>d40&y*C'W;i_}7q}R[`*z355C7e(D7K2[6E7F7G7H7I7I7J7;5M)+(*;K7L7M7N785O7~6/|P7Q7R7a5S7A:s4q4G%J@a#_@$@,'b%s=B-B>B&D>Y*o=B!!'<>X%q*R%_$&; -f}&]L@D J,V%a|F@Z]T7%$,{K{$=D,C4{!.&O}U7q>R^u~n)n)o)<)V7`,H-=$Y@~;W7,[3{)%#]%$7=p]t;0%E-J@<#E@G~F@0:*-[}X7Y7h6Z7A4`7q;<>&{>}##<, 8.8+87;7;7;7;7;n7l7@8U~=[#8t[k,|!v6W',!/{$8%8'5Y*k[ >t4r$&8*87;7;7;7;=8n/'%2>-8h;r=;)')e#;8r)q+Y.4-}&=@b$})6!<@]>>8w'[&#)2)})[@K~l^,8. . .     ",
". . . y%'8)8!8~8;(&]{8';U~[#E@L=0~+#c*;,k,>}Y@K{e!%}a'D:j r$F@$@L>M@$#E@+%*% #Z&/- -v)u5q=r=]8x5^8/80-(81|_8:8<8U)K,[8];W;$_}8z5|8/<y<921828A5384846|!{4_[58/4H{68K7V4f6W4q'7888/|98083'R7a8b8c8e|h;'%/!$@!;d80-!! |y']-]--)0-y&&{*[X%x&D,R<0[l6},L@$@z>e8],%#B=f89=,{^,9/D/y}_26@i,g8=!n).)[)[).).)@,h82{>-$#r$i$k,x3L@|=p:A;h*U~i8e!L@`=<#F@g&,{7>W&[}j8k8l8m8<_f>n8j;c=m1_@6@o8p87;7;7;7;7;7;7;n7+8q8q(q~H$w&L_a/r8']s8~4L_9)2>%_H$t,8&t87;7;7;7;7;7;u8Z$L(9'v8j;='-<y$w8x8r#q+|&a$|-]>6 @)[&u-=@6!m{v'6 ]>@)l:K~I%$@. .     ",
". . . d%y8Z[C(z8A88#B8`*G-L#+%E@6=>&>%C8n;e=p: #y$m%m&R*4:F@F@$#F@%#b:P|F~$#>%/$C!#(#(D8w5E88'r=;)I6E>F8R)d4r=G8H8I8K,r}J8K8~}L855j[f>:[M8N8O8}#+#$@V]P8Q8R8S8T8U4U8V8W8K:X8Y8u|Z8`8'6]< 9.9T(q2U/+9/;_@,&]&4;3<4;`*f>f>f>y'`-~5x&0- %b/J#^~D/}=d'%#_(l%/$%#],4=E#j Z*q<0=g*>-J1@9#9<)+)n):-7;=!G&Q=:-$9c/Z-h{$#<#Z] '@=L(L'v{Z@M'-;Z]%9n$<#o*!$$@X(x;@~;[()C2h5&< %a{h;!'z_`@B&&97;7;7;7;7;7;7;7;7;m7*9=-a&e=D,&3|!a!=9L<A528t]'&k;p%J!-9;97;7;7;7;7;+,>9Y&O->)e=S&#(')[#,9'96 =@ $g@r+2)})w'6 J%6 2)Z[K~}@w!g.}@W{v')9. . .   ",
". . . !9~92)6 ~8{9i%z$9'-&`&-#2;>{8*!$%#;=V&6@#=g&f&E~]9q<I>B%F@F@F@F@~$/;0*B2e%%%j&O~B-q=`5i2r=I6C&~*!&r=^9/9(9K,c!_9:9<9A3{1~}%-@9$6[9}9|919q$$#$#>#r$m@5=(9293949>275(|(|@!59l}#1<47([1G|B1s469x<t&z%C}]&P,s=k,0-4;B>A-y'0-S*z=G$2$^_792>89a#r$t=J_@&_@L>F_b!,{y#/-f*((t^j*x6_%=!q>u~@,@,+)=!0,7;+@99|1^7B3Y@<#$#Q*&-[,7@L: 7r$L#f-%#;}e!<#N@$@2=y'A:09l8;[1:!]-){7&{0=##a9}6o77;7;7;7;7;7;7;7;7;+8b9. l$a'6-c:03c9<6d9w6R3q[6*i&b[j e9f97;7;7;7;7;@,g9J@'%/-2>0-E>h{h9i9j9%' $r)k9a$|-g@6![@})2)w'm{m{K~W{q#6 l:#)l9. . .   ",
". . . {%m9*/[*g@:5n9';6)')i&--o9p9j ~$ #<#T&9#u$*%')b)-&w[i%T{~$F@F@F@| r:u5r=r:X&N*N*B>q98'f~^-N*q=T%',s=V]%!a#l$r9.6s9q}|7}8.*t9j'u992u]P3v9D!$#h*<#$#$#$#. `>w94_/4_=x9y9z9A9B9C908x1<4D9b8q2__S1Q,n,C}y/ %x',,^-`-D>B&|=c=x,V]E9$-[=F9w[,+>$d%g,%#<#_@V$f<,{Z*[=w=L]|!z1#<@'o)[!.)q>8;+,+,[)7;7;G9G{_[H9y8]^h,<#r$;]A_a*(3'{o*]^Q,J@&$L><#a#$@,;x-I9*5*5y(1! 'I|Q;j;Y)G@A}J9n77;7;7;7;7;7;7;7;7;+8K9L94)&;7}L,5,&3M9N9n4O9=15;Z)Z~>{P9Q97;7;7;7;7;@,R9Z@S9*#9'n;D>V;->T9c$r+=@r#&.r#q+t+a$]>I%u-v'u-6!2)2)v'm{K|[@1@$@. .   ",
". . . `*f4J%4-b$U9{;1$%!N,J,X/u_){N]F@J!n/3+[:^!4'*%V;M>q@Y@%%o]')$#F@F@a#)!a*W_v%b_Z5r=:>j&[>T%q=T%4;;-J,D F@D@M<V9i166];W9X9{;}6C7x(Y9J2Z9`9 0z/[#E/.0T#I@$#F@+0e%##@0N7N7#088~6$005W6U3%0^|A:8:.39|c(<>o=I{a*`*B-Y*a*y'&0S*U;8#,;l*h*$@<#Y@0*0%9^+#%#t=P*$###*0!$U(=1~1=0<-t~t~=![)[)7;0,+).)8;0,P=-0_[<|~|S%D/Z@<#r$#=_;U&/_J!l&1(n*a#D@<#<#I@x2]-;0>0@|,021_='0j;X%)0}45]!0n77;7;7;7;7;7;7;7;7;p8~0l&i^L(n;w,_[{0M9w,{]28#<p%f*{(M-]0^07;7;7;7;7;7;/00%c#8#G3a*(0P*~$_0:0u-a$r#f@1@s+}&})#)2)}@K|})}@K~2)w'v'g.w!r)<0. . . ",
". . . W&[0}0})u-|0Y2=~10@#/:q(k&%<Y;t,$#$@F@P{S~X*b>20`;%%;]H#I-j%2#$#F@F@r$;=s%Y@e'w5j&f}y&j&n;*[N*,[D <#P{l@30f>f>405060K8p~70)517$6807390`900*6`1:6j*t190h$Z@x$R{j2N}a0I>q4u|07b0h[<4@{h3'_c0d0t]<=r<N3x,o5C&r=f>f>Y*^-y/]$i/p&L>.=%#<#Y%=)t,m;9%r$*&7=<#4> =u=a>t)s]e0G;7;+,@,7;+,8;+,[)0,<)+,@,8;/*f0w,2!a*g0l$J@+#Y@],<{D'h0L>B8>[$@#=r$<#I@/_Y*8{i0j0k0l0X2*[o=N*U%*>G-m0n07;7;7;7;7;7;7;7;7;o0p0p&Q#s%V<<|03_|q0,5m(~4e_9'j$`$D@s$r0@,7;7;7;7;s0t0M@D!';t&k,r=+0u0v0S.r#|-t'&@t+S.g@4-[*v'l:w'2)[&w'[&#)7%~8}@})w0. . . ",
". . . y'x0l{=@})y0z02>_;o#,{'3},6@4'4'H@$#F@F@j h{|^=&*%K$Y%k@5#$@L>A0F@F@F@^(B0^;h~N*s=w5.-z*[>='C0L>$#$@. t&<802T%D0]-3>;:]-<[55E0z<t]^<O9o'O(!}%4*1W'u^S4l_F0G0M#S h*h*>%Z@X]b1b0)6Q7Y4;*H0J/<3.1n@H,=[;,C&a*B&-)Y*V&D[b#o*G-0#~!/!<#~$M#;]^&I>_@<#<#r$r$b&],0*S&I0J0.)[)G;P=G;.)0,8;8;+,+,[)@,7;0,O=m#K00!N~|1L0k;r$4>Z&],Z]b'M06=z$Z@M@r$<#o*>&)&|!=5N0O0D2T<3<X%a{*#5=%#R%P0n77;7;7;7;7;7;7;+8Q0R0q@s%/;h_m:x|T4@1U$g19{t]$]r:S0%9E@*-T07;7;7;+8U0<{(1V0/,W0Z5#(Y%~^X0}+d.<.}+a$4-]>]>g@<@#)u-4-]>6 w']>*/~8w'm{6!Y0. . . ",
". . . y8y8*@v'f4Z0`0f,o]'$F@$#9%($$*l$$=._e!D F@F@5#}=f&=$C^!$(1^,g&y{S,J@Z@ 7y$I#o>B>a*x'q9:>O~D=7=F@L>m@ ay'U)~*J=x=W;i_K8O:z3@9M,M,D7M_O9&^m(+({4.as{z^P,N*N*}_W&z={$N]T~>%>{5]X*+a05@a!6T(M;d0J:w=X)#ah;(>$a2>&%+=+#i$H'A#){K$<#<#M@L>%ay!c-D@<#<#r$%#<^3_A$b%&a*a[)=!+,G;7;@'P=N=<-O=0,7;@,@,:-8;D*O$b@=a5,w,-a;a[,%#p#C#@-:{^;G-d*M#$@r$<#<#n*d8S*<'>a,a'aN~{:o=n;q~A%)aZ]!a~a{a7;7;7;7;7;n7]a^ay,t4a&d=0!29<|/aT<.].]g1A&:,n&X/h7j &~(a_a:a<a[a}aD@&!X*^!}_='N*.#|a1ar+=@=@a$&@t+6 6 })}&[@<@l:l^}@6 *@6!v'l^d2K|2a. . . ",
". . . y83a4aq#m^5a;(B!t2E-_@F@I@*>A$9*y-W_%%J@F@F@F@.#y{o>Q5u&6a&& *D@a>7a8a9aQ;#]F~6-4;j;B>='6@F@^(`%*-K_r=Q~B&Q~r9c!S>0aR[o(O:aa@6`-baca28f/da]4U$R[0-B4!&P,f}C&0-y&<>p~`*]]. ,{E@X,w:B{Y2C1eaU]_)B^faV&gaG-Z@D@.#2<5>a*)&z>r$<#%#%#G-4'({haY@B%a#<#o*~$g,>-h;iaja+)=!.)0,[!+,O=@'[)P=P=O=N=O=P=7;@':-(*D%k#kaf^{]K:y4')r$0>)!}:t-+&V#@=<#<#<#<#@&P#;,5*laM~manar=}_:,N*H~{_s;(:oapaqaran7n7satauab&y%&*d8s{O4'_<|v6T2*6vawa=13}y%9#&->{o;`>xayazaAa#=E'--Y)V]5'd/Ba4>::Ca) r#l{a,u-J% $6!]>})v'}@Dam{<@4-@)})l:q#m{7!Ea. . . ",
". . . >8q1}@I4m{d2Fa}9Ga%!f&e!F@F@/!y%f;6@l$H~##I@F@r$Hao@;%X&#/2>F_8=~!$@X$v%i{p/>$p% %*[N*n;i$_@p]@]N*d/Y*B&IaJaQ~.63>Ka;:]}$_{})5h_LacaO9!4n4U$1{h;a&#/q;}]l6d=d=x,$]!&Y*a4v)T;/%. @>f3h3/=Ma_)%-J>q@L=G#v%m%z{B^z>+=9%-&Y@(($@D@4:B]P#5>##<#e!`%$@L$f]4[0[NaU|0,[)[)[)+,q>n)G&<-o)+,G&O$:-D*O=:-8;7;G&(*@'{#Oal)t]y]T1V%<#e-u=+#{%K{9:D@<#<#<#/!Pa1/4{[}l0@|z4y<P)x) -b%;%,]@%%$s$u/QaRaSaTaUa>]p%]&d-`-%1K7W2Va}3o4w,`1s8`~p~b!P4,%%$E@>%y#6=G@J@_(/,{$T-t[k,r=h;g~C8WaG t+1@r#}&})&@r#]>&@r)u-|-v'4-})]>w'K~v'K~v'Xa. . . ",
". . . })g0!8m{q#H4YaZa`a'(I]e8/%j F@F@->b*k&[=5@f{I@F@m%L@e%s$C-q;><c#3}|^+%&-$-a'*%Z~o=P,Y*0:.  bt)A--)0-D>`-D>]-^-y>66W;{,K6z3.b+bx(3=@b$8<5m(t1U$h;C[a&V*a&#b %X%e;I{&{j&A&u<$b29%bM_W6[1)2^|5*w^t&79`&&bF@w%j~@_7]J@8**b/_a#F@L>h{U~E#/$v2X~e!<#5=],c&w-=bQ=N=:-@'P=8;@,@'G;Q=D%P=<-<-D%D%G&Q=D*8;O=O$E%O$H&l#-b`~#_|1|:^,<#-&r$ga;ba#U#r$r$<#F@e}.^o=q2>b,0|[#<0-k,&{.^]&X,G@z>X&K$L^+#p&N>#-f,G~q&s=N~R&i[.],b03T21{N9&^[6t1D&^]&]|^y$i$C@D&I>~%8#D!{$6]*-',`*'b>{}#I;U.*,I%u-S.g@,_s+r#a, $4-#)l: $6 [@2)2)m^I4)bXa. . . ",
". . . &@H4y8!/!b~b{b]b^b(,],5#;]1=F@F@F@%#w[*0;-k;~'%#F@<###.=Y@z%'%'&S-r=V&I>g&3)#%]]N*r=)'m@5@Z5s=`*j;o=Y]z|/bF>(bf>S>o(_b:bK6<b[be_/<^<}b!4n4N9%-o=<>s,!&.^!&h;$-e=B!<>o=Y*!}t|07|bw1Q77(.9G|/=q}q*V& -1b%$;$//9:C#q; -Y/v%h%u$Y( (A$%%Z*u$i$<#C/ #B:2b3bP=@'8;8;0,@,7;+,@,G;(*k#P=@'G;O=:%E%<-O=/*O$k#(*:%D*<-/@+{(4@9B{n; # *<#`)_,L=$@<#<#<#<#%$a{;,|!4/4bS(8:u[Q;A'*- %X:6-F_i^H,p=z$8_T{V;i$#&B]']~]Z-,2D4'_a/5bw,s{&^28`1%%q<G3K#j-|>(:f*X*8#@%p%]$n;`*T%~5`:>#5>6bt+s+u-w'6!v'7ba$s+ $<@[&6 ;4!/-!u-m^}@w'm{m{O]. . . ",
". . . q+y8f4!88b~99b0babbbu=l@o*j,[#D F@F@E@=-cbU%4'@-p#F@F@+#W)F@~$h$A#p%0-*-L(@>y#L@A>#(q($%Y*o=4;/(W&x! %_,:,0-o}f>i_KadbA3A3aaY1ebe(fbM6f/00d9T%[>)'D,&;<1u&U;'%Z=x,b%:,}];1L*i6e<$0gbhbibv]q' %n9k, -T%{%+#_{R#{$8>4:o>Y)q*$]Z_4)f,G$1(2;r$@&J@C^jbkb<-D*@'@':-:-G;8;@'7;:-(*k#D%P=7;7;P=Q=:-(*Q=l#.@G&G&D*H&Q=lbmbf^S<nb`;r$<#r$+]Q5<#J@r$<#<#I-J-|2x'<]@|i0~(u]t)d=Q;*-_,{:)'s==[v=C=j|>;V;k;|(N*;02!t|V4}{obM}S4~~.]pbP3pbS[s,d=),>)qbH,z%[#d%,&u&rbW&E>D>sb;b^(K>tbg@J%|&=@})&@|-g@w'v'})w'ub~9~8}@6!}@I%#)v'm^vb. . . ",
". . . U.wbr{xbybd2ubzbAbBbD&*]d'%$CbX~M-I@F@F@F@<$9&L#=&8*I@F@a###Z@h*j%b)U%3<w^y/*~N}Db6]p%5;N*#(I6='D>o=d-w-'%L(j&r9]-='];;:o(z3j'^'c:EbN8c4FbA5]&b%.-a'6-e=t[L(2$&*}(w-.&.&;1y'~6e<|108[13'!6;*Y*h;o=%~x!c*%#:#))n@c(f={%[:.&'%Gb+%2>:/z)<#_@0>j(HbIbH&k#D%G;8;[)7;N=<-G;@,@'G;7;G;P=:-:-P=8;+,:-<-_%m#/*Q=G;G&G&D*@@Fa._I-6=<$2#a#*$Y%L>h*_@<#Z@R{-$*- %;<JbG}>(KbM,W&X%Lb[^n;R*E#t,M#Mbf-`&8>q;}_=1C{v|_4,229a4f1Nb@1Ob`~<5O9;=t&j'_,d-D$0=^]N,.&B!C&D>~5`*46[7g{>{PbQbs+})<@J%=@s+=@s+<@})})K~y8;4}@6 w'[&-!m^}@f4Rb. . . ",
". . . a SbTbUbH4f4Vby8WbXbk[+#L=$#L:,;w$Z&F@F@F@I@#*n@[=T;b!_@F@h*5#y#h*=-],f=#(B-a'Z&T&!&0'j;r=i2I6o}C&z=d-H$K#X3n;g-:9-1W9R[Ybt9.bZbn_%6Eb`bg1]-e=]&q;J-$7B:g, #<{S2a'I$O-e=D,q};0$0#105 9Y4p23'B!a&[>0-4;s=j>y#b#Q,X:&**%w[u& c)%;]-]P2$#/!J]G,.c+ck#m#D*8;G;8;@':-N=P=G;@'P=G;@,G;N=G&H&D*:-G&/*D*/*H&D*/*<-E%@c#c$cW7 =e*%c53t[-&8&&c=>y{o#o*^,F@y{C&!5o}z4y(m8*cD_@~~*P, -n;a'&%y%s;@]a{)&}]*-~~5*o2X4!]75q4a4_)T4.]=cpbw3#<)!3$M*%-y'a*4;B-W&`*T%Q~w)`*^--c~*4#m%;c>ca$g@]>4-=@4-]>#,]>6 K|K|v']>I%6 m^!/'8!8!/m^,c. . . ",
". . . |@wb'c)c)c)c!cZ[~c{c]c#=j E@2#$*-#s;#&<#j F@$#D !$;$~%[,L@F@F@`=1#y#(_I,h;I{ ;y$I)y/C&O~w^i2/(y*T%^c&*[/h&#/R*0&i1]-|7/c(c_c:c;:e_K2x3f/&6O(q;8>V*d-=>r$Z* =$@0*/;.&e=.^!&4;2!G5<cgb08 97(<'=2.^n;s=d=j;s$Z@W$S&Y*K<q@`@_2E$U;V%Z~u$[#k$X@[cO$m#l#{#Q=O=@'G;:-D*:-@':-@'Q=G&@':-:-<-H&N=8;(*(*/*N=D*<-G&P=D*}c|cf^|_1cG%2c3c#&H't;;&a&h1N>q$J,l@E#z*X%[^g34c5c6cS57cH:^<{1k,;1)&8cn;V& -j&N;K:7(9c&<0c_4E4H{S3T4&1%4s8`~+^p~i(;=[b<[O:;:.*r}L,K,y>D>-)B&',',W&%]n$ac1@r#<@J%q+=@a$ $u-6 })}@m{v'4-m{)b7!f4y88bbc7!cc. . . ",
". . . &@dcwbecyb~bybz8z8%6fcC-V;s$| 2;p-)!L#H~Y&,{F@F@F@$#;%`>9}r%_@F@j >;l&'^6@o=Y*V$o@A',,Y*B!O~/(P, %'&9't%P#U;J-Q;x!]-3>j*<[{}o({1t]V5}bc4E7M,b/a'=>e=j/,{p&/%Q5$#3$w-!&q~x^Y*+^#1#108gcz1hcb2*-3}X]S&x'Y*I]E#p:s=q*s$4)p/h*--i(4:a>|^B^icjcO$H&l#+@l#Q=G;8;/*Q=P=O=7;8;N=<-H&G&O=O=<-N=E%m#D%P=D*Q=(*m#:%G&D%:%mb|=9{kc.'B&5cv%J-y&w[d%f}k&^,A2B=k$R%o=V&g-n5Z753lcZ|64W/W/@~,!t1R&L*h_2!@{L[ea 9|:G5:4[_1{mc0!ncL<ocL*9{#_[6A'cb80^'pc;:qc:9W;JaF>D>y'y'4;B>#(=-V#rc<@}&4- $a$[@<@ $]>w'6 ]>l:w'W{scd2tc!8bcH4z8uccc. . . ",
". . . |@vcwcxcxbm{q1ycy85aR(5>Z&7>Q-F@/:0:^&u_u$]%L>F@F@F@E@L>f&}=c'##p@F@j J!F@||0=i&z#:()'*-G6i2zcA-d-7#/-:(Z~A<d*y=M*AcM2/c:b_c)59)9)x6Eb!4Bc|=v/y!w&=>T}I@b!o@%#%#@>w-q;R*O-!&x;/[]<e39c 9MaH:V&X%S*a-P,}6h{D$A}M*8#Ccu_),q@ &DcH-p:m$EcFc_%/@:%m#_%G&D*D*<-Q=O=G&Q=7;8;(*H&G;<-Q=G&O$m#(*D%Q=G&(*/*(*_%:%O$(*H&GcHce_/=<#8=IcB=JcG'&*q@~%A'e-q&w[Kc=[&{h;B!_)Lc53Mc~(-3r3NcOcPcj_Qcu:$}r2r2~2L[%0Y2$0y[c15*'_w|D4t1:6<6=1wa90{}+>]-R[R[@(x-r}x=y'f>`-r=Y*%~f}(>J@o>Rc[*]>}&a$a$g@=@4-6  $<@6 2)K~v'-!q#~8!/!/m{m{f4Sc. . . ",
". . .  $TcUc5/~bVcWcXcYcm{Zc`cv<i$Q,H@M#Z%I,C^6@6@K<M#i:r$o*F@| l&m*5>D=+#Y@T*Y@Z;/!y%~!L#B-Y*i2](S&0-=>|^i%N#>#>%N@=&y'J8{;~}x;aat9[b d92'5R3[6^-L(x^E$A#^$I@,'T&~$F@e8K#a'9>b/b%4|b|i6w1'6gc3'H{;1n;N*S&s=`*N#-#[:`*#~}^l!L(=&##G$f=Y%N,.d:%m+f.@@O$(*(*P=<-N=D*O=8;Q=D*(*_%m#:%E%E%E%_%H&:-P=D*m#O$:%O$:%O$_%D%Q=>>+d4|@d2#w=.4 !y/i[b/E'I,e=.}5#M#&&f,a_$-I{M*2:#d$d%d-3D2Nc&d*d@:=dE&-d;d7<01Z2H{B{)6>d5*n2K7g>f1a!*1w,$4,!,d9)'{'d0)i_pc;:Ka|=x!f>G8z|o}D>t{e=,{I')d $ $6 <@q+f@s+a,[&6!6 [&*/2)#)2)Z[~8!d]>6 l^~8w8. . . ",
". . . ! =@~d!c~b;[{d)c]d'8}&^d/d.#,;q(~;#%| h*(dT&+:q(K^d'+#l@D j | Z*b>5@(3G-@>T&E^X(G^V$k,;)u)_dY*d=q~8#c>}'G-0>F@1=y/-1R[O:455555Zbl]{]K2A55,$88>&*u1u;a)$@.>{%t=E@z%^!'%y}0=]&o(([59'6H57(:dj'x^j;j;j&a*-)<d/_f;s=+>I,e=h&,[D@k[[d=-V!}d(*m#@@8$m#k#:%<-N=D*O=<-O=D*D%/*G&D%k#:%D%E%H&Q=G&H&/*H&G&/*D%H&O$m#O$k#+@S:Q~a!4:`;|dq@*-e_B=$*N>V$q*6(+#L>A;#/M]a'=2S>J31d2d3dq34dY|5d~|6dx_C1/=|3p'7dA1<48d/|X47775w|U4T8m(,!`~&^9{`~c*D,c:A&R[3>`-f>W;Ja9dR)o}C&C&Q,,{a)#)=@J%w'6!m{w'g@]>]>@)u-l:w'l:w'2)K~v'@)w!d2bc0dad. . . ",
". . . d.s+q{)cbdcdddedfd3aw'gdhd},a%V)h-:_(;#=*%idI#T&k]T&+%i$T#~$$@I@; ~$>[1= #Y&t_n;C!+]t[_7F3i2#(D,/,h-D-H@Z@8*o*a#X,x-o(:b<bjd45x=.*{]=1#<Bcv3U;9'p%^:+: #p@X$$@m@[,^!>) >({w-p~_=q'w1P7X68{kdD,B>0-o=O}71|>E#5;.^*]i$b>0=0=L]=)g%z{--ldl#O$8$m#8$_%/*D*/*N=@'Q=H&D%O$(*:%H&/*D%H&(*:%_%O$(*:%H&H&D%(*(*l#l#O$m#b@mdx!o(H]$@;1nd9','h~ %b-odh&h;h]$#s$i(S-3$x,0-u:#dpd2d2:&dqdrdsdtdudU1W1Y'@^d0)2`4<4X4vdwdq4M['_a!:[|!@1Bcj'=1T&9'h_z3<[];M2g-]-g-z|0-sb~*C&b*r$R%xd}+*.g@})[@g@[&6 })m{m{#)6 #)});4}@|@2)Z[m{!/ydzd. . . ",
". . . V@[*m^H4!cAdBd~b!cybZ[w!Cd}[J<b*4'8#5>i{j]/_u=q$%$4}f;$:->Y&z>Y&R{E@E@h*+#0%m@[#9&y,&%I6T%='0-U;-#i&m&9%j V$~$<#5#a-;:/cDd55l'Y]p~@(x3o'waN9a'2>&]H)@%&~o*x$| Q*'&U;0=@]^!e=m:Edl}#1<4x1b2x's,P, -X:4;d/n&N>.^l61#i*r(FdGdh-V$l/p:HdId/@l#m+l+D%O$N=<-/*O$/*_%E%(*:%H&D%<-:%E%E%:%(*E%H&(*:%E%:%_%_%_%8$k#E%H&+@JdKd]--=P{X)x{K@L]G'>)p=Y@n&n9t[#&$#f*X//-i%x,S>#7Ldm5*cMd{5#!Pctdx_NdOde4Pd7dG|]<C{_4~]n2)]0!a40!6'~;Qd[bs{&4G$u{o(M,%-f^-1Q~.*w)Q~q=`*W&Rdc( #9cf@a,2)4-J% $a$]><@]>;42)[@u-}&w!l:*/<@}@w'-!Sdtcj4. . . ",
". . . M g@f4Tdg0UdVdWdUd!c!8l:a$XdV0=##-0{s,Y)-<y#C^K< 7U#E-Y}9&c*L@z%I>+]/$I@F@F@$#,{<#0>9%-)f}#(='/;L#Yd#{0*$#|>ZdF@+#V!`d/cz5 eo(.e.e+e}9$8.]>:P,f,{^T&@e'%-#i&6@D/2$$-N33;:=/-Y~_=59b12!#ea/k,m/f|$e-=&{&{o$1=x'X%8&8#b>.=%ei;5'V&4:[,&e:%m#b@.@(*H&Q=Q=:%m#D%H&m#E%O$E%(*D*(*_%O$O$_%(*/*/*Q=E%b@k#_%:%k#k#{#8$m#.@*er=M*g,6>v[<#j]->Y&n,3#=ey!w&B]G@6=$7a't&5;<>8:Mc-e-3.:64rd;e>eE&`3W/kc2|,eb8'eQ7b1 ]i!<|a3N~.]+(S|Z;b#D!Y14;&~.b<[{,R[-1];4; --))ef}C&C&T*j|!eg@g@4-4-[@=@4-]>[@4-6 l:w!]>[&#)-!6!!/q#m^!/~8H4~e. . . ",
". . . Y.[&v'v'{ebd]e^e]d/e!cu-&@6 =1[(p%`:v^(eV&,;`)n&]!H,K$P~k$D:a}4#`)f-X*C:K{%#j F@0%<$##q*C&u)a*=>^&#]$*$*)$$@_eF@K{));:f^p~|=G'j'd_n_'5!4:eN9`<a*V<E$R}v[6-.&a'd-a'D,B4/;J<p%^' 'u|8{|__=p~e=+*S*&{i;*-~*I(a>W&!&L=l!G$}=Z&6(f}.-k;y$<e8$O$+@/@k#H&/*<-/*(*/*G&G&:%_%(*(*m#O$E%O$m#E%G&D%/*O${#_%O$:%k#.@l#{#k#{#{#x8`-x!p$/:i&4]#<&<L6 -o=&{l/)'q*w{P~8=|2x)1/B>i!k)2d81[eY|}e|ew/E&Nd=<W11ek6$}2eQ7C{!]c/g>u^3e03o'i!Y)N@O)C@'%G~`[i_g-i_@(];4;y>71T%`*T%B!H#e*4ea,&@a$})u-=@ $6!u-6!K|w']>})l:*@!/H4)b2)l^bc~8'85e. . . ",
". . . ! l^;4s+6eUb)c!c7eg0q#-!8ew'z8)2F/4<A#~%V]Q;k&~$J_%_9e0ei$aeE,V#g]@=p&K^>)K#R-o& *%#L>%[s=#(Y*E(6@q(q(*~beZ]m@I@h]h{ceA3K6i_27[be(J2de#_o'n4{4+^(48>/-h{z#D-v=,%[=eeM]feU;~5y[!]|:o2`8P7u^a&{&o=*-0-Y*A-&~p/T%0[u=P#D$}=%]<#k&@(s%+0ge.@k#_%m#l#E%D%E%E%H&:%E%D*(*8$E%E%O$E%:%(*:%:%O$:%:%m#8$_%m#_%:%m#m#H&+@e.{#he=*J=Q,F@ieU;wb=5N~jekee=lemex&+*y%m*h;x^)'*[ %1{#7neoepeqeG2resetek'p'&>e|A1{|K:Z1_=][Z>,2~3_)v6T2i!,,G#B%=-9=P@$_W&`-g-~*y'ueF>`-J=0&a'P~h$}&s+6 J%g@6 */#)})r+[@v'6 v'q#d2Z[K~Z[;4q#m{)b'8~8ve. . . ",
". . . r+]>=@=@Z[y8~9edycUb!/q#wed2l^2)xeW'2>f=v=p]h;}]@-g,n@f;yezeI-z%;& # !#=P{n,K#/&y!]~ !z>C&F'o=8>f=6@k;o]8#8#C:y%I'V;k;z3AeAe17c:BeCee_e_{],!B5%4s8r:a>{%@_9_P*V;cb'%U;D/a&>5e<~]88<cDe;<.*y!]&B>/&k,j;d=z)0}d=M]@=s_8-Ee8-%*_,j[n;~$Fe8$m+k#m#_%E%D%(*O$(*/*+@8$_%8$_%(*:%_%_%m#8$O$m#:%/*8$:%:%.@_%m#8$k#l+|+l+@@GeHer=V&/!8-*c6|Ie42z<h1%|o|x,q~),q*x&q*<>[^*-I{B&%^neD2,35dJeF1T1x_=<-dq28dA1_=^[ 'KemcZ>a!a!`<R&H2L*4{t1.^+%T~A$Lez5i_D>L,`*y>~5Lb0)C&%/P~0-a,<@Me|@6 Z[v'm^bc!/#,<@!8'8d2!/f4w!=@w!!8w!~8)b}@Ne. . . ",
". . . }&6 ]>4-6!w'u-OePeQec]v'}@!/}@v'6!K|<]x,/,>})!K#R;Q,;]N]h~W_ bRee%3{c(v%/!I@A0*>C^(9I>Se=>x5/(;,&]p]Q,/,=#9'D->&Tep>k*J8<bT:55[bj'R>caM6<5pb,5]7.aUeo=t_*| =i*}#f=7#P#$-T%mcX8~]u|Ve|:R&Z5x&X:P)j; %V&-=E^v=x!f,Z@Z&C@w_e^d=#(x-W&l@We.@{#l#8$8$H&E%_%(*(*H&E%/*:%O$_%_%m#8$_%8$:%D%E%_%:%8$E%E%k#(*(*+@/@l#8$+@/+l+Xey'f>6=W)YeE[Ze%1^<7@D&q*!(a&F$ceX%g%e^e;X]B!e&O(__8164MdJe`eQcV[ fW1@^G|Y'h3J:t3K:.fA$4:L*_)a!a!va`<M,L_[d0{<>T%]}%-]}];`/}6N*`*T%Y*z'M@sda$&@s+})=@[&w'u-w'K~m{I%K|Z[w!6 K|tc~8!/7!!/bcZ[C(2)h*. . ",
". . . +fw'w'4-w'[&-!}@K~d27%]>I%6 ]>w']>]>2)@fu6'&|^';#-h&q;7>],I]{%~%Y;#fT*%|_$K<L=a#>#L>j|>{K<$f`*N*'%4=D=C^n&<$L]T&`}S*%f&fz5z5*f:cu9n_{]28=fg138-fi!3>y*f>6-6-.&u&-~D!;f.* ] '78>fVe59b0Z-f}5'B!s=A'0-a*(>D&v/r=['Y%Z$@<q*N*o=y&y<h_g,,f8$m#l#k#_%/*E%_%H&H&E%E%E%E%E%:%E%O$_%(*_%_%8$O$O$m#_%E%E%l#8$E%m#/@.@k#k#b@l+'fT%T%U{h*</)f!fW75*%$^,%!M>~f)'1/]&a_a_!'N_P,x'x)&3@:k50/rd;etdE&{fW1{2k67dM;]f^fU~/f(f_fX%_)D>L:e*C-J-~4fb9)d_j*Q~j*3>r}y'L,ue-)d=',V%&b:f-!,_=@]>[@r)})6![&W{}@#)}@}@l:2)w!z8'8edg0d2Z[~8l^v'r$. . ",
". . . <fu-6 ~8w!]>d2m{K~K|K~w'K~m{}@#)@)K|#)v'l^[f*[D!U*s_4'd-8>I>G@!$0:C!q(L21=K<.^n;2^g{*>>{G:Rd}f/(o5,%-#p=Y$}=g{C-p}|=4=}#Zb|f1f2f3fba4ff/<55fi!-fM,1{u]e_a*a&11L(f,q;o'n}6fc17f95~6([8{ ';,8fx)B> %4;&{X:y}:,j&R%ked-R%z*]-D89f!}R[{<0f/@/@.@l#:%O$E%O$8$D%(*8$k#8$E%_%l#m#:%afbfQ=O$k#O$(*E%k#O${#+@{#l#b@l#k#l#m#.@cfdf0&@]>{Y}q^efffU^@-o*z-*#f,7,D,<>C}:,X%N_j& -*-M*gf5<hf>3,4seE&ifjf|3,ei3Y'kfw$lfmfnfofTeH'pfqfrf71t$sffbtfuf+bo(U)f^{,`*~*^-0-0)j&Y@7>u-w!v'4-4-})g@&@*@6 w'l:}@l^7!!/K~d2H4~8'8tcf4)bf4ubvfm%. . ",
". . . wftcC(W{[&@)bcK~K~d2l^m{7!C(#)xfl^w!w!K|#)u-J%yff,zf@]f;6@P,s=[=[#*)Z]Aff*m*Bf_eDcu)CfC:X$e=Q8y50&q~Df >--Q*;=Efr}FfF8C-66AeGfHfIfJf4fKfw600 0B5LfMfP6v6NfH23>Hcb4m0V4d1r4_#m}~]Of~6b1s]h;q;]&!5 %h1.-X:m${* %x,x&=[R*='x;B&|=L*^')$;;l+l+@@m#E%:%O$(*:%8$_%l#m+l#l#l#{#;+Pf)!]bk#.@l#8$m#_%k#8$k#l#l#k#{#/@l#l#/@K+/@QfT%RfY&{<@^S]Sf@_F@a#->Tf=#t[X3X%Uf41q;q~[>X%me.^4|Q1{58:!1VfW-=d;dp'L[.1&%WfXfYfZf`f g.g+g@g#g$g%gm&D,O:t]c:j*|=^{q}`*,,T%O~C&C&[/m@&g}.=@a$[@a$ $v'u-s'@)#)m{f4q#K~K~!8d2'8;4~8~8)bZ[H4y8w!r$. . ",
". . . *gz8[&4-})m^m{)b4-6 w'@)K~}@]>K|6 ]>u-4-=@s+6!C(K~=g[(`:U*-g~%q=;ge=h~d%&bZ*4!%#r$w$&}#/.'#]>gzc,g',='d=:>'gJa)g!g~gL8o$X*{gt9ZbIfba18Z9=f]g^g/gO6(g_g:gQ6=6~3a4W2<g>2[gM7N7(|N788}g$0|g3}!&y&19*[o<Y*4;D3_(y&a{h;)&M]-)1g*-^'&<1{+}I{/@@@|+8$E%l#+@O$O${#{#l+m++@m#:%F&2gP~D A'3ge.l#+@+@/@+@+@k#k#/@m+/@|+l+e./+l+{#4g`-]-A#%#5g6gi($@>$N,C|->4)7gw-a&!'<1h;0'A>]&b%7gs=x<'}p'!1=<g$g38gr2268>>-x{9gy#[$>]0gagbgcgdgX!egb/&%~4&4Zb)5g-`*|=r}S>A!Q~C'y'fg%#ggK }&r+]>w'w'w!6 6 l:}@~8bcl^m^K|f4C(m{}@hgf4m^bc~8g.}@r$. . ",
". . . '(!/)b=/})w'w!#)I%l:w']>}@6 2)[&K~!/})6 2)[@K~l^})K|2)ig9#/-H]n&G(`*S>T-(d]^f&n&`6%%J-H6h{T*jgB7',_81|kg^9JalgI8mgng<9E9c*tf172fx(92EbN8f/og 0pgqgD5{0rg&1sgS839tgugvgd1wgt|xgY8}g_=Y7M,0'*-0-j;X%[>4;^-h~$[~%1=`@v<m,A%,]#=Z*H)n&*){7|+b@l+{#8$+@O$m#{#+@b@8$l#b@m#yg}#j |>,5;bzgm+/@k#b@@@{#m+/@@@.@{#{#.@@@m++@m+l+cfdfW&t1-'S,t]#=Agj'x'q= &->>-N3)&a&$]d-*^w-X%o=7g)'D>Kb-5[}[}K[BgCgI_e|{|x}.&@(e_+-DgEgFgGgHgIgJg_!6>R#KgO:e(j'O:y'f>Y*t)a*0-z*a-9%E-Lg|-})6 6 6 ]>[@K~Z[6!}@!/)bm^l^K~Z[Mgl:d2H4f4I4d2d2Z[}@r$. . ",
". . . Ngd2l:)bv')bw!W{ydm{[@]>l:6!u-4-6 w'v'~8-!Z['8v'4-4-r)6 w'Og]$)!7*')Y)X%'&i&/_u{D$PgQg0fD!<#k&zcRg,g_8Sgz|C'Jag-TgUgVg}7%$:,ZbWgXgbaYgZg`g00 0]7 h.h+h@h#h$h%h&h*hq475=h;<>685-h;h/|@~|= -h1 -B-a*y/B-T%/_F9=~Z~~!4$4$j%b!_(9-[,/_n*:>;+/+d X e.+@b@|+e.k#k#{#8$l#>hE3p@;],h'h)h!h~hl+{#@@{#O$@@l+8$l#l+b@+@/@{#l+l+l+@@{hl[g-a/}^u0]h^h/hKdw^.&N>Y&k&D,=[a_x,L(.&O-x)B>s=_,_)Pc(hw/{[ifk'|3Ma)2__@{%^]<5*&<_h%;:h<h[h}hB/C#o@s;e_W&`*`*3>M*D>T%T%B>a-;,g,))|hf@s+q+g@4-K~d2!/v'!83a!cxe1h;dwav)2h'g3h4h5hz8~9'8d2w'i$. . ",
". . . 6hbc7!q#l:vfd2z8m{6 m^C(v'W{6 })2)u-u-Da}@K~!/q#!/v'[@J%a$4-I%7h-%8h8-2<G(r=W&I!),n;i2w59hk$J, 6EfD>Rd0hz|ahbhch:960dhehi*+:fh76Xgba}9|9ghdat1hhih:6jhc6khlhmhnhohph497575qhrh!]Z>l}2!q;h;S*P)N*0-^--=~*C-Q, %`*:7T%j&A&sh#_t3 ]Y>thuhI Y ;.b@/@m+/@+@.@/@l#l#@@vhwhD^V% f#]B/q;|1xhyh@@m++@8$+@k#_%e.e..@+@/@l+K+@@K+b@w>,,-)z4F(zh/+/+b@Ah %Y*m&J@T*E=]&!&X%!&x&R*<>k,;;n;D8e|Pc<_Y'{|=d26e4.5G|Bh98>dq'~:'];2i!3:9{=193N;e_x,)5r=x;ChL,V<]-|=f>y>{,R*P~DhS.g@4-r+4-6!w!w!Eh[|T%Q~ -[(@_H/l*Y_t,Z)o|Fhzb!c!cH4z8m{n,. . ",
". . . Gh}@!/v'2)w!!/)b7%}@!c!cI4I4w!6 K~6 }@z8~9m{q#})l:d2K|r)4-[@8e}@v'HhIhy-L:[,T&L(N*V&n;u)@0,$+#V*,gRd 6Sg^9|=JhKhLhMhNhOhPhQhC7:c80&4}9M6Rhv3ShN6.aThUhVhrgR6mh*htgtgWhXhYh'2c185#0075*k,)'x)[>*-Y* %,,m[Z]i%Zh`h i.i+i@in|d/.f#i$i%i&iF.;.|+{#b@{#l#k#l#m#+@cf<}Y@$#*ih3t/I9Y@K<2^Y)=i/@b@b@8$.@.@b@m+/@l+/+;+e.X ;+K+;.-i;i>i,i;.f.f.d F.'i)iB!a{E-Y@W$U;<>V&q;D, 4}_k,C}]&5'Q~Cg _.1$}/=j)8:01__|_|:2{5*vd_)O4|gi!a/Kg.]^<h_[69)h_j'x;o(j*D>#(0&o=.&!i#=~ia$})]>2)}@l^bc|1X%k,{i}=y$y#>&{%)%$-+>&{.^]id2sc)cybq1z88-. . ",
"  . . ^ia$~8tc!/K~6 w'W{I4g0)bK~ $4-6 K~q#bcf4'8Z[6!l:K|2)q#}@}@l:2)K~w'K|6 /i,[E=['D-H~g'T-i%p}b_m%,;1|1|(i_i^9:ilg<i!g:9ng|7_c')[i}id_M_EbP3Ob=9|i8|.a1iUhb6c6F02i3i4i49!]vgV85i6i6i7i>f{3<>X%y&n;P,0-o=a*^]=-X%8i9i0iaibibicidieifigi@@;+f.d ;+/@.@m+l+l+/@l#N!hia# *4>:[E[r{*;iip@-[O*]0ji{#.@K+b@{#b@{#.@e.l+e.K+e.e./+^ c.kilie.;+m+K+K+/+;+4%mij;v=m%/$;%t[#/=[L(8>)'S*&{B>3}<>t]k'g5S1q2$}~|A:U]H:3';*l}K:W'2!C,_)L*~~=14{e_nil)j'j*@(3>G'r=*-q=4;b%B^(:|@2)w'[&)b2)'cy'.&x}#{N>T*T&V* %X%&*]$|>q~.^`[m{)bf4)cAd'8y$. . ",
"  . . F@&@[@l^m{m{6 w!7!~9!8Z[)bw!*@w'm{!/}@)bZ[!/f4!/w!K~v'~8~8!/m{m{d2S^})|@oiz*v&7#7#1$U;d/~:]-]]B^a{piqirisitilg56}7];uiviwib[{(+eXgJf4fz3a%K#xi=9.aMfThyikh=6zi3itgS6e1>2V4G46iAi78Z8%1n;n;o5X%B>A'B>-)4_E@BiCi/+X @@@@.@.@b@K+.@.@>.4 Y ;+e./@b@/@K+f.|+6/~5/$0%F@B)DiEiFi~*A&}5V#V$j,Gib@K+@@l#{#/@/+>.@@e.@@.@l+|+f.|+HiX @@;+F.K+;.F.f.F.X j3o=&{y%F@_@L'L(f|y!E$$]]&&{N*;;:,&{+(u:=<g58{IiH:/=]<7(2!g>~:;<|!'_0!`<`<`~{]#_R3V5y<j'i_R[f^Ji`-g-`/o=o;KiI%})v'#)#)g: %l'u$6>V%K<9-U(L'|>s;m6.7D'u&d-A-xb!c~8z8z8C(Li. . ",
"  . . . &@Z[f4m{bcZ[2)2)g0TdDaI4!/d2m{)bSdK~m{l^m{'8ubw!})7%K|2)6 l:@)4-a$*/MiVc~8g4.16,D,i%>)P#a!7,[$>- 6piriNi|=lgL,g-:9J8X9vi-=#%ChOiLa|9I'Z;U%vaB5Pioc1i+hrgQiRiob,23949vgSiTi85N7X497j*x&!&h;n; % %Y*a*V#| UiVil+/@|+@@e.l+l#l++@m+@@;.>.;+K+.@@@/@m+;+WiXiy#n*$@+]>0i'Yi|;o}W&>5L>Zi=;`i j{#.@+@l+d 4 f.m+/+|+@@@@l+@@K+F.@@F.>.;.;+K+;.f.F.I [..jn;H$~$<#<#c(J-.&)&q;{&I{o=3<:,C4z*y]n5-dW1@^D(e|ib|:Z-5it1 'L7H{1{_|*11{e_9)O($_j'j'i_%-B3|=C&x=r=U%a#+j=@4-<@q++1V&d-+>Y&I(a%!;Q#a-m4y-))M#b-H@-%v/W,3a8bq1Sd~9~8@j. . ",
"  . . . Wi}@;48eq#q#}@K~K~v'7%f4Mg!8z8C()bm{w!w'})}))cg06!6!u-I%w'<@s S.})8e~8v'g@m{7%!/^5Z2m/';u&.4v<w%8'R)^9ri:i(b#j`/J8~gDdK6fh]^B}XgLaR)`)/:Q~5,$jU$I7%j&jc6lh%h2iW2U8*jV875G487'2>f_4j&h;41d-j&j;~5t)e=q$N>=j-j|+m+K+@@;+@@b@e.@@/+|+f.;+l+|++@b@.@;j>jI-y,k!i$Z@0-,j'j6 )j!j`*c<Q,a#N>}^~j/@/@m+e.K++@.@l+m+;+e.l+/@@@e.l+m+m+;+@@K+d d ;.f.b 4 {j*[&{C|L><#m%P1y!R%D,&*R%a_X%q~A>C4 e ']j^jL[H:d|;<Z>|1i[i[O[d168=6T4651{#_o(M,=1j'c:{gg-/jf>|=y'B!w[t,(j}&&@s'`~#/>-y#L'f:z#v=a*X24;B)*#q=T&T#J@f*R~=>d2d2)c3ay8C(#f. . ",
"  . . . r/l^!8~8)b!/bc!8 $6!Z[7%-!}@w!d2[&m^4-t+&.s+H4H4}&h@t+s+6 })]>2)~8)bm{m{w'~8I46!<@q+Nd6-0=L*R*o#u;R)/3kgNi_jlg`/Lh<9}8Dd*fc#H,x3188aT~]]C5:j=9C5<j[j#h#h}j2imh|j49Wh=h1jM7@!85W4a!X:2j*[j&P, %j&0&,;Z;o$3j4jf.|+|+|+/+K+K+;+>.>.F.>.f./+;.e.l+M!;0 7| @-p:F@5j6j7j8j9je.0j`*y'Vdajv%I@bjcjK+@@m+K+@@e.m+b@/@@@|+e.e.@@b@|+K+;.>.;+/ 4 d Y J d djej]&a{$*o;<#%#m;_$D,/;d-!'b%[>]&s,J-]-<'|:94q2A1|1;*R&'_ ]fj&<<|~3Kd{].]t1m({1@(&4M,O:|=]-|=s9V<}_B%>-&.&@gjhj.&n@((@_%$r:;1`~ijjjY|2>*#&*s&l,F@7=A2&!d2~9)cybhg5/ =. . ",
"  . . . kj&@7!d2Z[Z[f4}@w'!/g.[@v'w's+d2 $r+q+1@r+}&K~!/Z[-!K~)b}@7!!/!/z8ed]dljH4mjf42)&@=@g@W,'&E$Zes$y$',f>0hNi#j56)gnj~gNhoj_c='<$5617X~$#y-]gF7hhC5<jI7v6p5pjQi2itg|j*j[gd1u<W4N7q',2Q; -)'a&q=q=x'Y*[#+3%&qjrj;+|+K+/+/+;+;+|+F./+K+/+K+X f..@X sj)!$@z%`$m@5=w:tjujL;l+/@vjM*a*}1wj.'J@xjyjzjm+@@/+K+/+;+@@/+Y K+|+F.|+;+f.F.Y d f.;.4 d F.Y ^ r Ajo=I{t[F#<#<#D Q*D/x}!'a{:,1/Q;s,a&h;@(&<__N|]<^|q't1c3N~2!o(']1{}bw,w,L*s{Bj3> eKgj'f^`-!5`*r=c-a#Cjv'Dj8_d^6=Ej>-<,2>]-FjGjl:w''8D0&]U*d-},/$r$h$ =we]dAdAdAdUdH). . ",
"  . . . kj[&m{Mg>8l:v'}@HjDav'@)g@g@=@S.q+q+f@&@g@[&6 2)ucl^K|!/bcSdC(xby8yb/e'8d2'8}@m{)b&.|&i7H$$7A-d-$@6@1|riIjJj`/Lh660a;:<[aaeb_(KjLj; F~];]gF7*6Mj[jb6+h03=6~3~329Z>U81j=hYh;6Njn2o(x&s,!&B!I{(>%~,[L>F@$|V2Oj|+|+@@;+F.;.F.;+/+F.f.;+K+;+e.@@PjmiG#m@'&.#F@l$QjRjSjY e.K+/+!<~5`-SdS%h*V;TjUje.|+b@+@|+/+;+>.F.|+f.Y f.X ;.4 Y Y I d X f.;+X X 4 VjWj*[_2F@@&a#<#o*%$Xja'o|;1P,=[Yjq~s,)&2!kc&>I_@{.9<'_[&<a/ ]N~s{#_T2s{N;`<K2@(]-e_S>x-i,.*`*q=T#<$viZjx&`j((U*n&d%s,O('8K|6!Mgw!}@D25;T-=# kL^r$X,D-=/~9bdXc)cd2<#. . ",
"  . . . .kw!l:m{q#[&&.}&}@[&s+q+g@]>6 r+t'=@]>}@!/!/w'I4v')bz8sced=4bcH4xbH4Vbz8l^2)v'q#Z[m^r+s+H20=&*@:v<(:q9^9ahH8)gs93>Ji_bi_L8[bV!')[,^(=&5f:e82+k@kT2ocv6VhValhS8|jS6#k>2>2r4$kc1 ]T%O-a&:,%kk,k, -,;P{/$}=&k*kF.K+F.>.;.Y F.e.>.I F.f./+@@8$Y *;=2##L=G#/!q@J:=k-k6/l+.@|+/@C<T%Jck'pe8&| Nf;k>kX ;+/+/+;+F./+>.r X f.X J f.Y >.Y >.Y I J ;.;+Y / ,k'kx;)k<#;&B=o;%#r$e%D$)&x)&{X%!&n;+*V&&{&<{fL[3'S1<4Z-|:&<w,_)i!C,P6*;L*=1^'J2V5c:S>]-i_]-q})%E@7a+*D(5=c*x&(3H,B_!kK~}@d27!8em^l^!c]-Y)f=O-~$~k-<}={ky8Adljfda*. . . ",
"  . . . ]kl:w!]>@)]>t+}&}&=@1@S.&@s+4-[&[* $u-s+l:m{w!C(^eH4)cxbubVb)cH4f4y8sc~9w!]>=@f@})m{f4K ^k+*j<]&p_>%$=/kU)Iar9W;}7M2Dd(kChwi_kZ]3+S#<8R3daF7:k<j|966G6<kh;p_^9a6~~u6[kL7vgTiwg^<*-;;{7{7]&S*q;$-=$m%D@9'}k|k;.X f.d I f.|+K+/+;.f.F.@@K+|+1k]-J1+3Z*4!/$p/Tj(^2k|+K+m+m+m+3k4kS*M*wch;P~V$5k6kr X F.;.Y K+F.f.|+f.>.^ n Y d ;+Y |+;.] $ Y J $ 7kej5*B/F@<#E-1=a2>$%#<#(1G(X%]&o=)'-;x,a&1/c=<'W/s38k9kY70km}Lf|!}{E4&^T<+(Y1N;}bM_^'S>]-g-K-`*o$4]P#/-B&$%ak_{Z~)5q#l:}@7!C(xbm{q#ybAdC21$/-+:Z&a#P*J#ZeUbbk3a!c=;. . . ",
"    . . ckJ%4-Me#)w';46 })4-*.|-=@4-}@m{u-2)K~v'Hj3aybAdXcAd!c~9~9xcmjmjy8yby8d2[@}&s+r#[&*/2)d.K X2),U; 'dkT#(9<8|=V9r}[8S>-1o(_caa dek># =pbR3&6u9@<4}X~e%C@;%K^g{0*#%a>i(B5[gfk77@!^<X%.^s,b%S*j;i;8#7=t,4]5;gkhkf.f.Y Y >.;+J 4 d Y X J X |+>.Z-x,!$D@D@;]/%8|Q_ikjkK+|+K+m+/+/+f0kk0-U^64h{L> 'lkmkF.|+f.;+;+>.f.@@/+d r J b d f.;.;.r ^ / X / $ nkM,M*<#<#m%okR~0[i*r$<#%#N@$=]&b%/;s,A>^6q*x&d=5*T(%0A:Z-pka!Z>qkH{a/T4^4L*m(t]x-@(S>x;z<M*g-A=D o$ 2D!t[f]P~,$xi2)}@2)}@m{!/!cMgm{z8m{t3o]F(t_$#a#N>x;rkz8ucsk=/%,. . . ",
"    . . . =@6!-!g@m^w!J%g@})4-r)u-}@!/}@*/}@)b!cUdAdSdSd)cz8y8Vb)cHj~bSd'8z8H4w![@=@q+g@]>g@s s &.tk!&&*b_}6J@uk:i8)3>4066J8`dA3%-.bx( ;d*vkZg}97@Y&h*wkV/L#8#~,P*r$l&@&D@; Z@({W8b3_#=1.^:,3}{:q; -j;]_E@+]}4e=xkzjF.|+F.|+f.Y ;.f.X ;+/+;+f.f.|&0)p/D@Z@T*I-7>ij64ykX ;+e.@@@@e.m+zk^{ %t1Akh;; 9eBkCk|+|+F.@@F.;.I I X $ r Y ^ Y I Y 4 b 4 b / ^ Dkj&z4y%$@<#J!6=n@#/x&{/m%<#<#EkB:V&M]e=b%41f|R*q;`*94@{|:Fk_[i[0!'_w,u^i!W'H24{.]t]j*Gk$6.*@(Hkw{7=#/L*6*=#2,5#I6q9#$Mgm{^7Ik7%bc~8Z[q1'8 %f=f=a2E@p&I-{|]dhgybybJk. . .   ",
"    . . . Kk-!]>w!K~g@&.}&!8H4w!})v'Z[K|Z[z8g0Vbz8z8}@bc)c!cy8)c)cH4)cxbSdH4C(l:u-]>}&@)J%S.1@S.}.s ~(J(),s]||G-p_K,_ks9LhLkuiYbn(+b27t]cafb`dZd##2=J-Mki&R#a#Z%p@q$ #;&w=0:D/c/u<O4_#j*d-.^3}n;*-5'1/q@C H~K{.&NkOk;.4 f.>./ >.|+|+K+|+F.;+F.F.U]d8l@s$a#a>$#*-PkikQk;.F./@/@/+|+/+;.q3 %y&RkSkTky#UkVkWk;.X Y I d 4 I Y Y f.;.X / d J c 5 4 ^ d r+Xk~1<>E@<#<#/%L>-~]-a&=[p/5)<#<#_@_(K_<>D,j!q~.&f|w-4; ]h[`~@~_)t1|{a!|!M}1{u]%46,O:}6i_ eKgz3](*%K^YkZk,%X*W(~$V&0)`k!bm{%- lm^~9Sd'8H4.l5;|^}=$[E@`)>;+l]dsc]dSdb#. . .   ",
"    . . . @l]>u-!/@)u-]>Tdz8w!m{m{!/w!)bz8Sdy8bc'8d2}@ubH4g0xby8xbUdxb~9H4d2q#*@w'2)u-]>}&|@&@h.t+r+#l/&E$J-w,4>7>$lW;r966%lK6K6z3p~j'e(Y1x;m&5=Q*(1m%M-N>1]){W^J{x!c:W2tgq4A{V8V4%;!])'x,X% -S**- -p%o;| !iy,e=&le.Y I X Y 4 /+K+;+/+/+/+|+>.B6A-R,J@2##&C$((!k*l=l>.K+;+;+;+f.|+s.;+B602=2x<-l8^. G(;l=(Y Y Y ;.X Y >.b I ;.d ;.d J ] b ~ ~ J >lH2N|21a%r$<#<#K@>$,lt+i!D,y!S0l&<#$@C L58_8>.&'%';V0R<U;@(naw1G5K:n2a/%1D4`<M,,!{]#<x6]-d/T%V<j'6@i~7,2)'l</>)be$@#]T%&4D>D,b%)lf4bcq1~9MgE1v=o]l$<$F@#=s$rk!l3aybK[. . .     ",
"    . . . ~l[@-!-!u-!/)c]dbc7!Adlj'87%^7sc)cybK~uc!cI4~8HjUdz8H4!cz8;4m{Z[m{7!W{w![&!/m{6!]>f@r+a$f@S.g:I!U;u[F_g,2>4040[8~gA3Oh(cf^M,$6fbU%q@`@H'6@:,D7{l@1+hp4x|u^]l68a4 'U8^lP[v|][a*b%0'h;&{&{S*L'$#E@`$q]=>/lJ X d X J F.|+>.d ;.|+/+>.X K/q;->2#i:Z~#&$*)f(ls.F.|+/+;.J E.d cf_l:l!]&{=2Tbw,K@f{<l[l}lX >.F.>.X ;.^ r I d ;.J / ^ / ^ M w 3'e_|lJ<S <#<#<#3()$1lt M I:d-O-/-(1$@$@$@N]y-U;N,)%2lD!9'1$^-a!C{u<w,_[H{`<+(NfL*u]M,A&^<j*f>S<q}I]D'3l})6!}6=#9'u0=$1//;q~C@4lFaAdd2)bZ[5l#/p%8^$*.#F@*%C@6l7l)c~b8l. . .     ",
"    . . . 9ll^q#!/'8xbBd0lf4f4Ud=/)by8bkSdUdscz8xbxb'8xbtcH4~8C(!8m^v'w!alm{m{6 w'w'6 K~u-g@=@s+a$&.1@r#blS2e=[}!$clv)56n|dlX9/c|f1727M,n_92elcagh^gB51{<ja!a/T4/al_S8nh,2#4|{75|{d1N~R*s%q~B!.^!&/;}:$#a#}=}^F$flI d ;.Y d Y F.X I F.f.d / *.%~_;,{8&^(s&m@C&(lgl;+;+;+>.X X Y.4-I *=hl--B4il*djlj,S ~%;aklJ J J >.f./ / ^ / r b $ ] ' u w b S]}6Fa!]^,<#<#<#r$$#'3/ ^ 8 G U^M]J-7@z%$@m%$@Z@<{1$ >3$8#@%-~J(F'96'_u<Z>&<t1&^j'=1w,t]@(j*h_|=j*P#%9f|[@6 [@8:5;E=u$$@M><>%*Z@[(ll]dAdq#w!0/V]o]6@ bI@$#Y%4)l8mlnlZ[*%. . .     ",
"    . . . P*g0d2Z[Z[ubybyb0l'8!/v'q#~by8d2Sd~9C(!c)bH4H4}@!8Mgd2'8m{d2w!l^Z[K~r)w'l:6!4-]>J%}+&.r+|-|&*.olM]s%C_q;`)k;L,Ff%lqcO:L8wipl4|Y118{]R3&6>:8|93^4r8jhC,/aU4a468#kK7$1>2=hG4ql.&X%V&x)<>q*k;%#$#v<9*->),rl;.I Y I J I ;.r ;+;.J ;.r Vk3}z%.#8*%$G^Y@ 3slHir r d 4 J ;.Y tlul&.*=(97#_;1g8bvl%#^;__wlxlJ 4 d J ' ] r J J b H $ b t n 4-%~z4W70:E@<#<#i:<#Y@ylp.) q { V.zlAl=~K#f&$#B'/$$@v<x/9#|^/,@%1$v8o}u<b3_)Bl_[W'A&/<9{j*/<9)S>j*j*c(H)Cl}@l:w'DlV!8#<>q$a%w^a&+#y-y8!8H4d2MgEl@%$*}=H'm@r$->p/<_xc!8c3. . .       ",
"      . . +#!8hgxbyby8SdhgVbAdSdbchg]d~8tc]d3ayb3aK|z8y8!cVbAdxbzbbcK~w!q#Me4-[*=@})[&g@a,1@&.|&t+g@r+S.}&D_b/2$%~Fl[#l6GlS>^{^'@(d_c:d_M,K2[6R3m(s8+^.au3M)W'Nf}3_)d6296868Hl>2Il_4M,C}R%q*D,B4<>Re$#,{U{=#L>p%Jl;.Y X ;.;.J ] d >.J d X s.~~ 2)ap:J@;$K{KlLlMlJ ;.Y Y r I ;.d r &,NlOlPlm(B>9%}6|=a#!$b>Ql4aI J 4 d ^ r I I r J $ I 4 ' q T8N~k'=>%#<# *%#v2<# #Rl0 t p.! ] q.Sl-cD,.&[:J@a#`)/$H#b!-28#(,G,79t[Tlt]'_&<Ult1.]u^.]^<^{i_S>j*A=>;Vl4-r)[&!/Wl%kv$F$8^+#,[Xla#T-7%!c3a!c7l6-Y)Yl9&2#<#W*8*N,Zl)c]dw$. . .       ",
"      . . . z}~9y8g0H4Adtcy80dd2~9^e]dq1)cy8Sdbd]dg0H4]dHjH4`l mSdm{v'w'6!4-g@<@6!r)4-}&&@h.b$h@q+r+h.S.|&q.y]S2H$q~W)a~Jjg-_bu[_cwin([bLaEb.mw3N;&^=9C5.aD5b6/a_[i[:|S6W2U8;2a/_[#<o|w-&;!&;,V&l!.#$#$#g& >/$+m@mX 4 d X r ^ r Y / r ;.;.#mI{#]Q{o>m@H,P~i&;(;.;+>.4 f.;+/+;+Y d >.$m%m.]Yih&4;6(S[{<z%L2}bz8&m4 4 Y 4 d d J I r ^ Z ,.] Oc$e*mn;6=<#a#a#%#r$o*h>=mq ~ *.U.J%L ' -m02q<&*G(g&I@_@%#o*4>[#N#f=;m7#M]I/'_R&681{`<=1-:`1j'`-|={1b<'3~8#)-!v'q#w!9{G(6$k,W*w$|^$#1$}))bAdljKd--L#Gb=&0%r$j]~^V*>m)c!/a#. .         ",
"      . . . @&!/ybybsc3aybf4Z[H4!c!cUd]dddf4z8]dbk~b!c]dlj7ez8z8S^K~l^}@q#>!#)-!})4-I%Mea$|&[@s'=@r+1@&.Y.[.&@a*E$v/`>+#`>,mx;{;<b)5e_Be%6}bd_~4.]m(>:,5U$T2a!p4_|Va'mS8)m!mZ>V8>2C,e]ceA>o=a{*[A$$@$#$##=t&p&f;~m4 $ r J Y Y ;.I d b / ,.']';*~Z@z)*%I#L|{m]m;+X >.;.;.f.X >.Y 4 ;.F.^m/m*[f}C!T>*-E-_@o$(m]>^ / ^ / b / $ $ ^ r ] 0 a _mo5!&X%%!F@<#y#<#i:<#j :m7 ) S.U.U.K d.s S.}&!}^_f,'&5@Y%P{o*o*r$Z&+%c*U*O-y!J=-:o'_)!}[|8|l)t]S<c:&;}^92r)g@w!m{w'2)EhI$]$)%z$J@|>E@z=g0q1UdUd:,v=k&//g&D F@s$M#N*Wc~bt[. . .         ",
"        . . . <mUd'8d2UdAd~9H4H43a~bAdTdH4[m}my8g0ybsc0lq1'8d2!8d26!2)v'!/[&}@m^})6 }&&@ $s+&@K~z8Z[q# $&.*.U.|mq~i(D/z)5=e=~}Oh$_S>fheb1mJ29)N;&^g1']8|[j^4a!S3i!2m2iS8/4943mmcc0.*t[I{I{!&b%X%r%$#$#%#M-o]G-g'4mI b u r r ^ J / $ t ^ <&!&_>o$l~9^'^.#%#5m$ $ d Y J / I I Y r J I Y r s @~9[D$6(t;x{E@W$6ma$b q / r w { ) w J X.5 w r#P,]&n;+:_@<#~$Z&%#&$U#o*7mp U.5 -.M K K d.h.h.&@%^w-&*t[,'m, *o*o*m%q@m;,&--I$X3a*S>~~=1!}e_`~4{8m'5D&D!!/r)[&6 6 u-l^m^g3]$=#8_I#/$; =[~8d2d29m';3)y^K<<#$#h*a%q&y')bbcY&. . .         ",
"        . . . a#!8)c0mam)cschgSdz8mjVb!8z8bmXc3aSd)c^7hgsc`l`l3aalw!2)u-W{v'<@w'Me}@<@s+v'6!4-6!}@K|d2})s+g@L;s 7cw-6-i%l*a%W]K6%-h_#680&49)P3<5wawa-f{4u3@1+h:g&13:a!_[T<49|{772!)'q;q*h;]&<>U*/$$#'^r$o*o3o@`}cmb <.,.4 4 I d 4 7 G ^ q|5'X:;&$*v%D#X$F~dmemr J Y J / Y I ^ 4 I $ / b H 1@t3X%h;T7 =| I$ybfmJ n 4 $ ,.$ ] $ ] t p v 2!]&o=)&B=$@o;y%D@r$8&H#h0gmc.7 8 a d.S.<.! c.h.S.g@{3&*.&L]@&o*H#o*$@P{>%v%a~T-t[q*A-h_^<%4`1t1v3~4),f&;d6!I%}@[&W{v'm{l^m{g- 2>)t&5)hmC0K~f4~8']5>9&*0}'F@h*_@t=%|e(q1y8>#. .           ",
"          . . . j-bdbd~9Hjd2ucf43aAdscrkimjmljkmAdUd~byblmyc|lmmnm@f}@;4d2d2[&u-4-4-u-4-[&v' $J%q+l{u-v']>6!s'=@r#J:_$I$C!L>#]om_caaC7t]l]J228w3pb82vaa6*11{_|Vh#hf1~3~3a42!a!_)T<a'!&pmh;J-+*Q-F@>{@>o*o*qm>;J@rmR.v r J I X ^ { 0 ) d.JcH2J: !/:r$r$K{b'D(smtm' b b ^ $ b $ ;.^ ] c / 4 W fm-dn;<>s=H@)&cdHi/ ' 4 4 u 0 ) t b ^ $ b=*[I{o<C#F@<#K{#[F@q@f{5=H|P.U.<.K S.~ u *,*.=.d.h.umO}m/t&X$<#<#o*o*o*$@$#$#h*L>E-S~l$b%']D4.]{]9)4|@>a{bcm^K~#)w!tcq#w!w'6!_l cvm0=p:; G$I4!ccd.&l$S0C^$#$@F@l&z%a'>5UbA]. . .           ",
"          . . . $@H4lj)c'8H4)c)cdddd/ewmxm)ced~bAdy8]dAd)cq1y8al@fm{m{~8d2K~w' $})K|C(I%s+&@&.r+s+]>[&4-]>a,a$]>q+|-t1y=i(k1g,--g-aa:cym^'}bx6<5&^d9t1,51{r8T4a!&1;5]lu6t1%1W'9{0-H$L(#/)'<>s%<#N@B=T&F@0>a#j ;/zmAm^ / / r b b { b $ @|h;~|qd{!I>D@I#],[]Bm21CmDm$ J d $ ) b b ' ] $ r 4 4 Y Hii}&{q*#(pd}@$ w ^ $ { <.{ u u b ] tk:,[>[>i&<#<#<#_@r$$@n@J@g&EmG o }.1@S.<.X.h.S.U.S.W{B&w&v=N>$@$@P{o*o*o*`_$#$#M@@&| E@>% #x%N#$*b%S&j;U*22q#w!v'v'w!I4!cK~K~f4C(Fm@]GmHm5=E9~9sch6@%u$^&[#j $#I@||H@o1P[]d<#. . .           ",
"            . . . ImkmUd!cybyb~bscscUdUdsc^e]d5/)cJm=kBd!c!c!8f4s54aZ[w!m{!/6 u-]>q#g@6 [@s+g@ $a$]>]>a$r+&.K f@u-u-m{0-'&'&E#v%0=e(M,tfLafb28=1O(M,Km/<.au3T<_)l21{d6+(M}T8V4u^;1b%a'x,D,[^d%)^N]H~%%m@m;F@q&X$j(Lm`+t t $ w ) ^ r MmNmq*^-Om($6@E-l&%#V;5:J3PmQmRmJ ^ 0 ~ b w 8 b d ^ / r J r (+Sm1/Tm^ ! $ ' $ ] ' 8 8 c w 7 r#Um*-[>y=.#<#<#r$H#<#N]h{6<<,Vmo { o K *.})}+<.=.G g@N;'&#/:3m@v2@&.#o*I@/!6=F@h*B%k$I,*>,{E@m%##; . 5=_;ufd2m{}@Z[)b2)H4bc)bz8l^>8f4x',%gf({J=UbmjC&4'f;H,$#F@F@_@N# &o1I_Y'. . .             ",
"            . . . m@mjy8UbfdmjscJm^eH4y8WdOmAdg0!cWmUb5/Ud'8SdQ&zbXm~9!/w!m^w'2)w'g@ $#)})u-u-}&}&v'2)q+f@a$1@&@|-[&!/YmR%'%7#T#y%[>#69)e(9{O9f/L*R3U$#<+(a!Zm#h#h}3D4w,a429i! -.&a&0[R*x&|^<#t= #a'~!A0y{m%}^=-Z%cc`m' ~ 9 { d.7 / 0 Y'=[!&~1&^j%&*<#<#l@=1<_=5 n.nu { Y.o ' $ $ b $ $ ] J $ / b c )lx*' ! Z $ H $ ' -.d.~ w K +n!'0[s,O;o*<#<#L>_@,{4)a#~;@n#no d.h.7 b$=@h@h.1@[.*.1{0=.&^:>#E^f=I,+%~!A$')M-%]$#U#=-k]V$<{j,C:n; %7#f=w:2)}@'8~9l^)b~8w'Z[bcI4ubtcJbE$LdxbR_H4$nF$4'L#=$F@ *I@s$')p]Y*%nf&. . .             ",
"              . . . =#ybybsc)c&nbd*nbk5/bd8%mj~bybAd!cljXcUb5/hg!8'8w!!/W{u-2)w']>]><@ $g@w'v'w'6 &@s+s+g@f@=@4-r)f@6 2)sea'U;c#.=K^@(u992'5O9R3s847=9,5[|u35b_|u^t1<|w|=n2!{]d-q*x&B4D/e=s$Z@/:Y%I)Z&$#`=N@i|&$m!x/-n;n) ^ c 7 u t ] 3-o|q*x;>np: -n&o*^,1],n'n>a)n!nt |.$ p.b r ^ ^ $ r / 9 b ] c ^ H w ) $ / b ^ t q 1.t ] ~n-;;,x&I)F@<# *L>G%o*H@') #4#f*p.d.K ! 5 r+U.L K &.&.}.{n'%M<';r$u==>X*E/E#o]^&]]Z@o*E-J@w{/-2>f8@]Y)7#dfZ[2)6 K~q1H4}@f4Mgv'l^I4!cf4Z[~9t3]ny8xbd2;<3$$*i^<#F@F@r$|>Y&0-y/Fi>#. . .             ",
"              . . . . ^nybUd7e/n!c!cBd$!(n/e3a3ayb~b5/lj!lbd~97!*@!86!w'})=@})]>[@ $=@2)u-w'6 6 6 ]>4-}&4-&@u-J%=@s+J%4-]>t|'&s%p-K5]_j'M,O(K296w69{U$Uem(*1v6|!/a=6N~a4]l1{S<=>q*J-+*V&!_m@(;')'^B=$#1>b*j^|>_n_.t 8 7 u ^ ~ ) q / (+U.5{8_A=p3j-z'p~>;],F@=>Jb:n<n[n}n' ,.v b t u / r r ^ ^ $ ' $ c a 7 b $ t W c a =.7 u W@S&y&*[Y)&(<#<#a#5=0>F@#~0>z% #|nK U.<.S.S.*.h.L d.h.1@s 1ns%2>T%J'i$F(q;2n6(m,L-p/n,7] #B^8*}=9)p|>6f^O}~n6 [&v'#)m{Z[)bd2I4f4d2w!m{w!I4]dybuc~9/e3n}]*<-#n*F@F@F@->z'%%#(N*.*. . .               ",
"                . . . C^xb'8bd]d)cycycUdybAdkmbkAdyb~b]dscscH44n4-w'6 *.s+a,[&6 [&[&w!6!6!v'})&@#,})<@g@6 I%]>]>f@4-]>a$1@]>^{J#0= =/$a218{]^<#<v3H2`~N;5n:6v6L6T<D4a!d6N;A-y!U;L(6nh;9*$@a#T#g{>,+>#%U{</7n8n|&' { 0 w 8 v w $ ' v 1@G 9n_,x^Y*/[!${]0n<#H@ #u^2:anj0bncn{ $ $ M S.] p q w t t w v p.] $ u ' w G c { d.5 t+=*!&q=u&&2<#<#o*b#Y&$#R#J,a#=$i$dnt+<.f@K K enf@d.q+*.&@|-fn.&K#B!]~^(U%gnhnin`=I@h9n@n$n%m%e!E-jnkna]<@]>l^w!bc!cz8z8!/m{7!m{^7ybSdd2MgI4Ubd2!cy8!cw,=~D!))$#F@F@F@n,+}.&d=Y*I#. . .               ",
"                . . . . G}Vb!cAdbkWc~bln3nybrkwmmnnnXcedVbonz8pn]>*.t+s+q+ $a,=@a,]>l^l:w!6!u-})}&6 4-6 6 m^}@#)2)s+]>}&s+}+~8s=&*=>n@D@C!l)s{8m$8n4>:,5@1L*9{t103qk!}fj/40-B}V*X3b/E$qnn%h*>{.%$]`1.:*/&.5 7 p.! v 7 7 u $ $ t $ ,.c ] p.rnz/y!snX,.(4cy%G-j]z#t{Fi>0tnunu ' u t 7 ] q q 8 }.7 c ] 5 0 b a a 0 ] $ 0 5 d.g3x^=[x^9=<#<#<#Y&B$D@j K</$k$-&vnwnq+d.&@a,}&r+h@a$t+r+S.f@m^xn({#8a>I@ynznAnB%BnL>CnDnEnr$L@a>a#/_n|Fn)bd2tcZ[tc~9q1!cscz8W{Z[)c!cAdf4d2~8'8'8!cf4g5v/Y)a)*>F@F@F@p#|>#&a*N*3>. . .                 ",
"                  . . . L5~b0lmjybybmjGn^7!cUbscmlHn)cIn)cy8~8P%w' $s+=@a,})m^u-J%4-]>]>6 <@})v'})K~6!K|6 6!d2}@6 =@s+a$}&u-]>Jnq*'&$7D';]i]`~=1]gwa3883m~!}i!T<i!T<QiM)y's,+*a'J-D,o@N@n%<#E-V; >P.~ q.M 0 5 d.q t a ~ b (+9 p.) { Z M Z KnR%z/~*UmG-f>f^],Y@I@5]l$A:z4LnMn<.h@9 b b w t 7 v ) X.,.7 h.) ] ! v q.8 G a Nna&)'D$Z]$@<#<#H#p=+|o* !p:<#M#$#Ons r+s <.h.h@r#}&]>&@<@r+ $4-`-h&t&y#<# *PnQnRnSny#TnUnVnF@n$y#>%a#k;[|jfz8xbl:q#z8'8d2]dnl!/ed!cz87%})I4!/'8d2ubU^w-y-f=L]| F@F@E@=$r%U%o1c:Wn. . .                 ",
"                  . . . . K:)csc]d8bXnybybljdd^eYn`lxeUb~b~9m{Zna,@)I%4-*@6 K~#)[&m{l:m^]>v'#)6!}@;4[&]>w!w'[&})]>})r)4-r#*.S.S.`n ot&14Q-}47,g1[6n4']p~~~~~*1L*t1c<S8_)[>$-D,w-z=,;a#M-$#G@4#8,3{<g~ 0 a ! d.p.) { w |.0 K U.%'d.=.h.}.0 7 mc#/&;.o$(V$8}A#E@Z@*%B4~%U5Vd+oO&<%! Z q ! ] ] G }.h.S.! 8 ! ~ M d.d.5 5 ~di;;,9&Y@<#<#C~$@C:o/r$$#+]L>~$N@q$jds f@&.q.h.d.q+&@}&4-6 r)=@K~t] >T;@o#ou2$o%o&o*o=o-o;o>o,o5#`@G%r$y#f8@k'oI4m{bcxby8z8!c!c`l5/'8hgZ[l:z8d2f4y8)o'%9*v=U&F@F@F@h*<#(3M'a*3>edH#. . .                 ",
"                    . . . X$UdXc8b]ebm]dUbWm8%!oWccd~o{o]o'8m^#)v'd26!w'q#m{Z[!/!/)b~8[&2)!/m^w!2)6!]>&@m^7!w'@)=@ $})w'g@a$f@1@S.^[y}=~rbb!6=#(O:v3m(S>+^@1jhu^H{s|/4A'</<1L(8>^oh*h*$#$#>%F@$#m]/o-@U.M <.G q { t ' 0 ]{! w w q u p p b ) s'$e6-G'e_O,f^(on@e!l~}^;*_oy&ik:o<o~ ' ) ~ ~ <.p.Y.d.U.<.! 8 8 8 ,.d.G =@I0b/10;%#=<#J@<#j%{$X$<#&$}4>%;]x:+0[o|&f@&.&@s r+}&}&a$g@u-u-}&}@j)}oj%|o1o2o3o4o5o*o6o7oh*8o9o<#0o.=<#F@A%f,00ao~8bcH4!8!8bo!8q#d27e)cxbd2z8z8hg=<y=3$$*4)+%F@F@>%L>(2Y_v{|=ybm_. . .                   ",
"                      . . . W&~bAd>mco{e8b]ddoycUb!cuc1}eo)bw!}@m{}@6!K~q#6!m^6 w'm{6 [@m^]>})8] $a$ $W{!/m^]>v't'=@4-4-g@=@J%&@J%v'5-0=P#j!N>T*M*o'j'*6U$^4T<_)M}+(j[<1=>q<U;-$Y@$#$#$#$#$#$#}:z#d^J|L o K s 0 H ,.=.U.p.5 G 8 }.a $ w ~ p.q LfD$t[fot;C:8}2{->I-goh{2:x}x)y7ho! c.7 0 8 s <.K K 7 d.d.<.U.c.>l}.o x<u;p<s;A)<#r$<#s$V0io<#m%Z@r$Y@f]y%(/}04-g@q+h.s+&.s+q+s+4-s+|- $4-i_u;joko$olomonooopoqorosotouoB~vowoF@$#$#N@)'O6'8bcH4q1Sd~8z8Z[~8~9'8bc3aSdSdika'X/}=c*I>a#$#F@->o#Z*g&C&bdbk4'. . .                   ",
"                      . . . . ffdowm;[snxoxo8bybyoolK~zoAdAotk6 d2q#Z[z8w!2)w'[&w'}@6 2)2)7!}@]>w'w'u-Z[m^#)}@v'-!w'6!w'2)<@<@t+=@}&w!Y~I$i(@<Boh/M*Co93o4@(i!T<,!i!x&E$I$),/-_{F@$#$#$#$#$#r%S%9^}=e;8 a <.5 o *,*.t+q 8 5 5 v <.M ! v a 8 $ |m0'DoT%w,->$]N0x^| z_H>&- [Eo^/Fohoa p.U.G c.8 d.|&S.s d.a$q+5 a c.G}@]4$U;j$`_3+U#J@=~u%%#m%Z@%#<#<#j,z>GoHor#I%[@S.[*K~r)}&]>|-&.r)Z[Iot[}|JoKoLoMoNoOoPoQoRoSoToUoVoWoXoYoJ@R{n%F@5#Zo`ovf7%f4z8I4scg0l^!/2)d2f4Adz4C[{$y{0*0*6=e!0%L>q@<#y,h&8b;ljm. . . .                   ",
"                        . . . 9&~b p8%bdPeycGn`l.pd2!8x0+pm{bcC(K~m{H4d2d2Z[m^[*})K|})u-<@2)w'K~K~w'!8~8})4-4-[&#)2)&@r+ $t'*,U.K 1@a,w!@pU;&*#pg& ^B394t]9)b63:`<u[a''%E(&}Y&F@$#$#$#$#$#K$#-V]C-Z*`)$p:.a p.h.d.d.o U.r+t+a o G 7 ! <.a$1@[.@)s]L(E$1:i&%p|:&pf*k(~!F~3{*pu]9a=pI*<.7 o s o Y.,.7 =.) ! h.U.1@A88>p-P,J$h* *L>o*;=6${_<#->4><#%#y#)!n$-p}& $t+})}@Z[z8m^})g@}&]>m{7!v;#-~$;p>p,p'p)p!p~p{p]p^p/p(p_p:p<p[p}p+#>%h*$#)$[7|pyb~9Adz8~8=/z8!8H4~9d21pt&y-I>M>Q,Y%%#.#I@->a#a#`'edGn[mm5. . . .                   ",
"                        . . . . <|2p3pBdUbXcrk5/SdUdUby8)bq1Xc!cm{ybscyby8W{6 7%K~l:6![&6 */<@l:l^6!~8!/m{m^6 }&s+=@[@6 r#g@q+u- $r#l:4pw'Y''%2>N,')5p6-J:|g&3a!h_[>'&'&[(#&F@$#$#$#$#$#q$Z~8#j-<$$#=]P6%'=.5 0 G U.|@S.&@[@o }+a,K h.8 d.~ s q.fnM]6p.*U^Z]A]7pBg[#/$;#q$6(t/ -x&8p9pS.f@1@&.U.o G :.|-&@<@]>u-0p#/Q~O#7=%#4><#;%e;+%<#-&#&>$_@o*m]{%apn[a$a$*.a$Me-!K~'82)=@q#v'}&bpw-cpdpepfpgphpipjpkplpmplpnpopppqprpsptpY&p&$#r$D@(:KaE6~9~9'8'83az8ybVbupWmx,vpH,A#D-y#F@y#<#F@0>$#M#;[x4AdSdwp. . .                     ",
"                          . . . v%OmnnxpypWc`lzpy8)c~by8MghgI47%H48btcbc!8m^m{)cz8I4Mgv'6!}@u-S^y8bcK~K|u-~8Z[u-]> $6 w'w!2)4-&@4-=@})m{[@u-F)L(2>({m*Y@u_{[_)w,T%s%6-0=Q*,{$#$#$#$#$#<#|>>}X*k&Apj I)7#&,f@s+t+h.}&&@a$1@K =.G q+q+o M q c.r#U.a$`<^_T7Bp]&F~[>W7{1o;Z@(3$#c-gj*-v/CpDps+|&=@&.r#[@g@r+q+&.|-)2d--%N,>;<#a#<#7=)&Epr$>{y%0%.#<#I,K-Q5p%1-[&#,r)q+}&u-4-g@m{I4m{!/w!_)E=#&FpGpHpIpJpJpKpLpMpNpOpPpQpRpSpTpUp@n!;a#%#$#/:+#C-55Vp~9bc~9yb]d~bAd`l,,I'N-;-]]i$F@Z&`=o;h*P{*&|g)c!oWpQ%#&. . .                     ",
"                          . . . . ZobdXpypz]DlYp!cq13alj!cbc>8m^!c!cI4~8m^S^z8H4)b*@,_u-v'K~~8f4'8ubK~6!}@2)}@q#v'm^6!>8K|-!v'v']> $J%4-[@q+u-ZpP,R<P#9&8*N#6d-)$]H$H$X&>{$#$#$#$#$#J@T/K>~%x/@>i$L$CcJ<`po }.8 K J%U.q.o a =.! h.1@U.t+! [.q+&.K 8j/;'%;$C^s;J_g$sn=#E@ q#&F@3)*p.q({+qU.s  $[*h@a$}&r+q+=@53w-{(C!@/r$m%<#+#U~&%4><#C@J'}:v2],q*D>N@@qtlm^-!}@6 @)=@I%t+[*f4}@K|y8q;#qQn$q%q&q*q=q-q;q>q,q'q)q!q~q{q]q^q/q(q}h.#J,L>$#w% #e*_q}@m{!8Hj)c!8I4D>[,4~C-`=Z@<#&$}:Y@/$F@m@)'mjedjmAdU$. . .                       ",
"                            . . . . #!J3z]VddoPe:qQ&zbyb[m~9'8g0bkd2I4d2!/Z[~9uc)bK~*/6 v'!/K~q#)b~8)bZ[K~K~K~K|)b~8m{7!l^f4}@]>g@}&4-]>6 4-}&q+<q027#K#1$&-T)[qw-'&z>F@$#$#$#$#$#{_q(t<['f;M> #))A$E@y{}qU.1@|-S.a$|&K q+a,r+}.<.xda$[.! |q&@t'Y.%'.]s% >[]%%z%1q=5Lcm&^(0>N@o#9&2qQ~~f3qd.M s }.&.1@r#s+s5xnU<X3u0`)e!<#k$f{4q1)<#p;%&K@.#a#i&8}L'5q6qg@*.q+-!]>#)})Z[>8K~#)*@g@Jex[7q8q9q0qaqbqcqdqLp-qLpeqfqgqhqiqjqkqlqmqnqoqM-[,F@>%[5#=m;L(s%`~G|~(C2s=h]^;.'y%e*pqn*^;l@5=j %,`:!c)cz8!c'8y{. . .                       ",
"                              . . .  =sn4c;[xopeBkqqrqVcsqI4tc)c/eUd!cd2*/d2y8C(Z[C(~8Z[}@f4I4w!~8m{Z[z8Z[})v'm^W{*@2)2)6 4-=@Z[Ped2w'6 w'I%u-v'w'tqY~*#)%J-x^9%`>uq$#$#$#$#N@M-q@w$]c!^i%9-}2J@:='&)$g,f8vqq+q+&.d.p.S.h.*,5 p.K }.a$r+K r+[&u-&@g@wq$-$-9&'{t>4>^&n5j)k!p@r$a#$@))Mc`*^!xqg@a,=.<.S.&.a$5-)&t[}^/$M@B%'^T/(-5#7=| ($y#wkm%+=S1D>N>Ukd2}@6 6!6 W{m{!/K~~8ucl:yqw! -zqh^AqBqCqDqEqFqGqipHqHqIqeqJq(pKqLqMqNqOqPqQqRq4$Z$^(a#R-N@W~9'X*:(U%0~4>T#X,z$#[I@n$J,,]a%D@| 3{ljsc/nUdybLc. . . .                       ",
"                              . . . . &{4cVdTjxpSqTq)cUqAoz8hg^7ed3aAdd2q#~8)bv'I4d2d2Sd'8Z[Z[K~m^-!6 l^bk!/*@l:[&[&w'a$Y.q+6 w!Vq6 ]>4-<@[@J%[@2)[@m{WqM<0=2$Xq~!>%_@$#| b!X,._l$@=:(/-E$k[$#q@YqR%C!I@%&^4d.*.J%*.|-I%#)})h.t+q+U.q+a$r#=@&@=@s a$U.fju&0=ZqG(->Z@~%u^='K{/$i:0>Y&V#j&l'6)`qy8#:@^W-Sb r/;P#8*P8M@<#g,@]L=r(4>P{L2.r~$i$*)y&3p>&x[Aonlq##)!/d2z84-]> $4-l:l:tc@{ >+r@r#r$r%r&r*r=r-qdq{p,q,qFq-r;r>r,r'r)r!r~r{r]r+#H-f-m@*%N>; g&[#g&^rH'k]6*%_B=| I-'{4>w[g,F@#=0!bd/r!cxm.oe]. . .                         ",
"                                . . . 4>Vbsn=k(r'c m_rK3Q&hghgVb)cz8g.H4Gj)bu-m^I4}@2)w!d2l:6!}@&@r+t+6!)cK~q+S.t+ $6 4-]>}@!/7%}@2)6 I47%})<@6!2)6 r)=@V17,h;j*~$h*>%,{h7{$b*7*s_F~u;M]X3n&&(E'i*#{w&:r~$%k6qs+4-|&4-v'J% $q+ $h.K =@S.=@a$s h.J%=@=.<re=u&>-N#:,4$->1$o(D$m%&$7]L><,X$'3[rcbc/<(D>^-`*g-A].#+%I-<#4>V]`$P{s$/$B=}=+#V#<##-Fja&}r|r!/-!g@}&w!!/l:}&w'w!Z[}@v'/rb%1r2r3r4r5r6r7rGq8rip9r0r9rarbrcrdrerfrgrhrirjrkrlrmrM-n]!;m@G@;=/!D:L:{(A#Q,$[H#j (2D:.#M-8&F@S u;)cnr)clmC2J3i$. . .                         ",
"                                  . . . }=xoxmC2z]or/r)cpr'8bcUdmj3aSdTbqrx7l:bcv'})l:I%[&Z[q+s+S.t+q+#))bC(vf6 m{w!l:!/K~)by8ybfd3a!csc)bm{m^l^w!m^Z[6!rrz=M,k&F@$#F@ #1#5;@>N#t&N>}=*-u_a#o;4]L:I>7@s;m@n]sr=@6 a$&.&@h@&.a$g@*.=@&.a$u-r+q+L ]> $h@6 x;h&0=@-9&|=E/n$3$]-q(x$X$m%M-@>trZ&8*urt%x[J#S%E#N@%!U>h*L>[{J#e!w$=$M-A#n$#&%#r:_)W/Y&vrg@f4l^<@}@~8m^~8K~#)K~v'w'm{ffy}t@$owr4r5rCqxryrzrAr>qBr9rCr-qDrErFrGrHrIrJr!rKrLr2b1=>;6@L5^(y%y-$@<$6]o%5=h*F@N@b! #1=+#r$I@Re;[nrbkUbnnWcO4. . .                           ",
"                                  . . . . 2!64Lcx4xex0tc'8z83aed3a)cla;az8z8Sdm{6!})g@ $f@q+r+}+f@s+ $u-6 q#!8l:l^m{f4d2f4xb3a)cUdZ[y8d2K~I4m{<@s+m{z8d2^{MrB!(_@&~$o*U#+##&Q-h$I$w=@5(>q]Nr%!I@c*e=D'N,4!N]4@J%}.=@}&h.U.*.a,S.a,}&s+q+]>]>a$5 a$g@=@S.i'w&D$0=c-0{ %f-@&8=a*Or,{g,@&/$b[/,|>Pro#.#B=P*z>@]g{h*M-c&]&y#W$C=j R|y%>;4>b'N_=<#{QrRrf4w!m{q#m^K~6!q#l:[&2)q#w!}@j**3SrTrUrVr>pWrXrYr-q;qZr`r sNpFq.s+s@s#s$s%s&s*s=s-sEn3;N@A%S%X&m@g&~;$@B=U#E@F@~$I#.#Y(Y&F@o**%i[~b3a8brkBdlmf-. . .                           ",
"                                    . . . [#;s>sypPe,sIk)c]dscmjsc0m'sWlm{!/7!u-=@s+[*}) $&.a,&@w'm^Z[l:m{l^l:~8~9)cybz8bcg0H4Ad/ebcd2)bAdUdH4#)w!)s6 !s6[X%]$/$#%t&D&<#`)Z@!$]$h;i^r;9~$#~s{sF@M#({{$V$i>>#C!&/M t+a,|@S.a$I%6!w'g@xd&.]>w'u-d.w! $h.K r#]sn|2>0=U*';-c0:o#c(R*w$r$4>G%<#k[~*&{k]`@t&#(g-;=I@r$3{}]^sL@u%| @>i&%#-&%#l!t])&L@/sd2!/!/K~6 2)Z[m{}@w'6 ]>W{l:>n3;X(kq(s_s:sVr<s[sJp}sAr|sfq|s>q1s2s{q;rop3s4s5s6s7s8sTr9s=&@=Y%4'T#^(B=1=%#.#}^.#4$*%0~C-P~o*M@o=lmscJm/nwmbm|1. . . .                           ",
"                                    . . . . 5>3almWm6&5/!cmjsc]dy8g0y8zb}@w'4-q+h.f@=@g@})]>g@4-4-=@!/v'q#z83ay8[mH4!c^ey8'8!8yb]d)c!cAdmj!cSd)by8l^)b0-D$V*H(F@7-$-y!#&$#$#N@2>l6@%5#P80sasbscsa#b>a'N#c-J@8-~4L;4-a$&.a$q+r#[@r)S.5 &@}@K| $u-I48 U.1@*.h.})_=L(3;P#dsj&M>r$%$T>I, #i$<#F@=))'T%[((d11^&/$$@G#9'L=o#T*o*e#1$.'/$j @>r=h_s$.&})}@K~w!W{!/m^m^z8~8r)6 W{m^Z[&3';:{esfsgshsisjskslp-qlsmsMpNp)qnsoshq@siqpsqsrsssJrtsusvsD0~'I]M#X&D=>#ws.=F@F@##)$s;-'I@F@$#7#xb]d3aJmW7snnn=;. . .                             ",
"                                      . . . . s]J3Jbxsysbk)cfdWd!ctcq1zsZ[w'@)|-*.&@t']>K~v']>K~w'm^y8!cg0bdlj^7~9Sd!cbdmj)c~9)cg0q1H4scy8H4ybAd'8#,As1$r=X3g, #Y)'%B)a#$#%#*%a&s{6'Z;QnBsCs0qDsh*N>s%y!m;%$$#1rEsv'=@ $}@<@K }&6 <@J%=@ $g@&@[&l^s }&4-q+a$f@g@FsS&=~K#s%A'h&y#4]|>GsM#{!m%I@8&p]`*-%y,m%$@!$X,q@*><#h*#%<15=D@r$[#s,a*4)+_Clw!d2}@7%6!Z[Z[m^'8bcw!d2bcd2L0z=Hsa#IsJsKs5r>pLsMsLp-qls;q>q)qNsOsPsdrQs~qRsSsTsUsVsWsXsYsY)O~%%))J>t;n@a#I@F@Y&0:v=|>E@F@,{/-g0ddbddorkXnZsh;. . . .                             ",
"                                        . . . N>doxm!cybyb5/lj!c)c`s'8 tl: $]>]>a,}&w'w!Z[*@*/}@d2AdUd!cz8g0Ad'8edbkhgAdedz8!8xbq1I4m{w!f4xbz8m^m{K|d=i%~*v[,{))E=6-T/E@$#i:6=9{m:g-Z@.t+t@t#t$tF@##Zq8_-~C-%#t=75s+4-w'})h.q+a$f@]> $q+&@&@r#v'}@S.J%B,a$s+<@q+g@d2<|f[@%>}q;w-E#r$s$<#(3%tQ*,{_@D&U&r$<#L>E-j2p/[#o*&tq*j%>;%#m%&*f>3)j]:|}@C(bcu-&@W{ucK~Z[g0f4'8~9Z[}@|1V]*to;=t-t;t>t,t't)t!t~tjpNs'q{tlp]tQs^t/t(t_t:t<t[t}t|t1t2t3tj&*-i&A$y%N>C:k$F@g,l$P|4>$#E@B)Wm5/lj4tZs7l0942Y@. . .                               ",
"                                        . . . . >}xo[mAd3afd!cxbx05tfnq#r#q+6 xbC(2)]>!/K~m^d2z8sc)cSdf4m^y8)cg0g0^eg03a)cubSdH4d2m{K|K~z8f4W{K~'8*5,[o=#/k$~$1$0[0=[#P{.#*)6t%;,2[^7t8t_t9t0tatbtQ5q]ctV&d*dt/!etw'6!w'#)]>u-|@1@q+[@[@<@=@U.*@[&h.&.h.L 1@]>g@r+r+a$ftgt/-^]b/l6c*_@5#4>Y&[{=&Y@F@$#r$<#h*L=b>4$@&o/a*V/u0Z@$@%:~5E$#=+m*@m^I%q+]>6 v'r)})w!u-=@u-}&r#=@Y*htitjtktltmtntot4>ptJpqtdqrt{p9rstttut^tvtwt@sxt@oytztAtBtCtDtb*8|o]6@%<i-z%V;L@I@%#o*o#I@4'Yn8}Et3p<]3pikz]p/. . . .                               ",
"                                          . . . m@Ft0lg0VbysybzoGt!/~86 4--!H4bcw!m{W{~8q#f4z8~9H4!8z8w!!/Hjxbg0g0y8!c)cybUdybf4Z[ubAd8b'8z8I4~8g0y'3;a-0#P~o$e=[dX&E@M-HtItJtKtc1C^LtMtNtOtPtQtMsL>#]6=';!&L'Rt=]Stu-a$a,6 [@6 w'm{hg}@a,r+<@r+q+|-|@s 5 s J%f@f@g@q+*.u-P[^~1$^]5'b*G-r_,;`;J,6=M@L><#4>q$Z]##U~+*4;31L>J@<#$%h;}]$% =k<#)}@ $ $[&w'!/Tt $6!a,J%a,~ h.,014Ut%#VtWtXtYtZt`tL{ u~tooip.ulp+u{pttPs@u#s{q#u$uR{%u&u*u=u-u;u>u,u'u;=o]`&&]</t&,&~$v2G%]~TjUd)uxo8%!uz]~uP,v%. . .                                 ",
"                                            . . . Mb'88blmxcI4v'2)yqu-[&f4yb3al^)b)cybl^MgAdAdscz8}@xb0dZ[I43ay8z8hg~bq1d2z8yb!8y8!cubbcbcbcd2w!W7I$I|J(Y@1#)%$-+>E@$#J]Ht{u]u^ushb'/u(u_ufr:u<u[u,{%:k@h>V*X3t,o#t[4-q+v']o~87!})[@J%=@f@s+q##)&@}&4-u-}) $a,a,s+r)s+r+u-u-A48> >@<L(#-L=g' 'q&%#F@$@<#B=g&,$6-q~*-~%/%Y&@&`)P#;,E'(3 96 u-6!})]>s+g@[*g@=@=@&@=@S.q+}) |}u|uIt1ubq2u3u4u5u6u7u8u9uBrmpqt0ukpauvthq#sbucuduF@eufu=sguhuiujukulumu3)--z}|>e'&;'{d'nui[~bXnEtljJmVb/nd(q&. . . .                                 ",
"                                            . . . . ou3nwm=k6 2)w!w!I4ubscXcAd~8!c6&'8Z[[m)cg0bkq1'8Ad'8!8H4y8H4I4H4H4Z['8]d]ey8Z[nl'8H4bk~97!Z[]-E9X|5$U#($[>^$E@y#m%:{7tpuqurusutuuu~qvuwuxuyuzuF@>;f,(3r;8>//I@a%/7ff]*|=(ov'6!}&g@6 w'#,2)]>=@q#K|K|l:w!<@v'8][*})[@]>J% $rry'j@/-'&L(L=e*^<o(D1`'<1=1y&a{0[Auv_],+%v%L=j/a*S~)$Bul:6!7%v'f@q+4-6 h@=@[&|-q+a$]>2)ff2$Cuu2DuEuFuGuHuIuJu7=)rKuLuLpMuNu0u9rOu#sPuQuPs@sRucsSuTuUuVuWuXuYu2oZu`u'&&]d^0}g]J'J@'&_[8%ybUb~bed^7mj__.<Y@. . .                                   ",
"                                              . . . E@ed7escybboxbI4!/I4xbyb)cy8d2}@2)uckmH4Mg3abcSdxbZ[g0Z[K~uc!/tcq13aXc~bWmVcZ[VcybH4~b!c v.vJ#+vu&[$~']&@v * #%[m@-'#v$vpt%v&v u*v=v-v/t;v>v,v_@I@&%J-:{p>x&w$| 9e5@_@=~2!Z[w!]>K~~8~8u-*/4-=@7!}@g@[@r+}+]>]>l:}@6 }&})7%6 6 C1e=N,_oO'I-*%=>,0'cLlg>X%'va{beY@>;~^Q4,'P,A$*)eeM~a$t+=@g@r+}&g@&@=@]>=@f@I%]>[@4-~~)v!v$/~v{v]v^v/v(v_v4(:v<vhu[veq0uIqLp}v|v1v(u2v3v4vn/5v6v7v8v9v0vavbvcvdv#gS&h&----I'X&C{3pyb!c~b3norljbmR&T). . . .                                   ",
"                                                . . . ;&sc)cg0)c^7z83ag0hgH4sc~b!c=/d27ey8)b^7yb3a3a!8*@3a!8UdVbq17ebdAd~9y8bcZ[z8/ry8y8d2ev]$[([(fv%$ #[>gvo;m%['h~; p*hvivjvkvlvmv~qnvvuovpv>vqv.=/$[#y!@]q]L:;-h*g,M-G@}#~~Ldq+r#v'<@J%&@6 }&[&>8q+r+#)m^K|=@})2) $g@}&8][@]>]>4-wc`*t&0=p]X~| +]'%=1rvi!f>k&Z@/$6=E36=leA]N@z$sv&.d.S.r#1@|-K f@q+q+s+s+r#=@l{}&tvu&uvvvwvEuxvyvzvAvBvCvo;DvGupoNoOoEvSnMuFv2v_uiqcuGvHvIvJvKvLvxuMvNvOvSuB%:pPvQvDlRvv$o]+(Pe~9^7UbbmH4bdbk)cX*Y&. . .                                     ",
"                                                . . . . b-yb)cSv)cnlq1Sd!cxbtcq1'8d2UdUb3ag0]dSd)clj)cz8!c)cbc)cmj8b3aH4q1H4~8K~!/8]v'Tv8|J#[([(Uv =F@D-x^a#y#m&29%!>{/!VvWvXvYvo;PpZvovov`v@s w.w+wb'D @%0't&V#A;+%S I>y!g&j*@w6 a$})w'a,a,7%g@6 ~8*.&@K~*@K~m{}@2)6 6 }& $|-[@4-q+6 Z[u<J-=>:/8^._m%C/L@m;b&S#F@6#,&B=w{J<p&a27g5&*.[@6!a,s+S.&.<@I%|@=@S.s+}&g@g@#wW^$w$/%w~pFu&wItLt*w=w-w;w>wIp,wno'w)w!w~w{w#u]w^w/w]w(w_w:w<w$v[wbt$o2o,o}w|w1w2w`ld_B>kmq1yb'8nlljyc4t8%{,X,. . . .                                     ",
"                                                  . . . ; =3coxbH4!cAd)cyb!cq1I4bcy8!c3aed~bAd)bg0fdmj]d!clmscAdxby8z8bcC(Z[}@6 }@2)Z[F>[([(&}q:/_I@e*(9l&I,L-d9]lT#$#,{3wFr4w5w6wvuZvZv7w8w9w0wawbw$[L>r;!&I{A'_eY%A%=%y/[##-=1cw#)6 6 K~2)}@w![&a$a$u-w'l:6!6 -!r)}&}&}@d2K|q#w!-![&[&q#>bx'H$:=I$h1%%j2#=r$a#0_C-H/k$ cO,6)[>8:1@S.6 */]>u-#)}&a,a$r#s+4-<@4-a,#$R%dwewitfwgwhwiwjwkwlwmwesnwowQopw]pqw)wrw_tsw(u_t#u#u2vtwuwvwwwxtxwywzwAwBwCwhvDwEwFwz]=kxbz8y8'8AdUbLcmlscX/'^. . .                                       ",
"                                                    . . .  #(nbkq1yby8d2'8/euptcz8Sd)c)cg0SdAdscAd!c!cscscschgI4Z[3aedd2C(~8l:v'6!}@GwHwt2J#M>y{E@}4s,Y&L]p$ e+(c: #h*j Iw/tdr^tJwKwLwKwMwovNwOwNucv'{H@}4h;o=,;+%^~#|F$/-+}Re`~h6#)[& $6 2)}@m^6!#)<@w'6  $4-r#=@ $]>J%})w'6 w'Pww'8]a$w'7!>8'|a_D$Y/N,i%5;['y-]!;=N#L-&-b>0'%~q+a$|-s+a$&@]>}&S.J%U.h.=@q+4-})4-W/K#zrQwRwSwTwUwu2YuVwWwXwYwZw`wpoQono x.x+xUo|v@x{q#ufr#x$x%x&x*x=x-x;x>x,x'x)x!x~x{x]xV<~~ybucxb3n0l8bUd!c/a =. . . .                                       ",
"                                                    . . . . ^xfdVbUd^7AdXc~bscUdq1Sd^7ljyb~83aWpdduby8)c!c!csc5//ryb7eSdIk!/m^w![&m^V0[([(},A;$@h*,&N] &Or:>Vhkh.^$@4!q@/x@u(x_x:xZv`vNwMw-v<x[xst}x#%|x^(#-g]urv/R*%!o<=)c>X~i(']'s}@Z[z8w'4-l:6 })<@#)})v'6 8]K|m{=@g@6 ]>2)4-I%6 }@[&6 ]>g@@)h<]s8jZ<~|1xl)^-&{6n-%i%)%Q;2x3x&@xfr)f@}+u-&@r+t+s+=@s+4-g@})]>36h14x5xu26x7x8xXu9x0x!%axbxcxQtQopwQodxex]pno(ufxgx^wPu{q|vhxixjxkxlxTrmxnxoxpxqxrx$vsxZ@txi_~}{hy8!c)cbkAd]du;5=. . .                                         ",
"                                                      . . . %,p'3a!crklj[mH4H4Mgd2f4edUd~bwmxonr/nedyb)cUd/e|luxrrvx0b t'lm{<@u-l:<@wxh&3_s$`@%#Z@C-xxyxw-D5zxzx--;/Ax_{Bx;rErCxDxExLw<xKwFxovGx>qHx5#y=g,J@}/ 4_,M>C^w&M#B>-#h{ ]~|!/l^d2m{}@Ix[&v'!/)b4-C(l^K~}@m{K|m{Z[K~#)6 q#w'}@l^w!#,s+g@[*[@[&u-I%f@]>[@-mJx[fKxD(Lxg@Y.s+[&#)[&K~<@*.=@}& $}&#)-![&]>4--5D$MxNxOxPxQxRxK'Sxh15;TxUx~xVx.w~pWxdxXxyuzrYxGvfrGrfr(u2vZx`x y.yA#+y@y#y$y%y$y&y*y&y=y-y[#=#3>L8'l!c)c'80cE#. . . .                                         ",
"                                                        . . . a#^5d2y8)cljy8bc!c)c)cmjsc^esnnnyb)c]dy8Adedyb7e~9z8f4~8Z[7%2)4-}&6!6 ;yi]b<J4Epy{{*9%M]&[.hjh#h>y=&Z@,yf#'y)y!ycs~y{yLwLwLw-vos]y{p^yM-A^>;g|i;h1P,z>/-j/J,T%N*w%B)%1]om{~86!})]>z8Td-!6 u-I4m{w!)bl^m^v'!/6!})K~v'K|K|[@4-}&&@l:K~!/]> $4-]>[*g@s+K S.a,}&4-4-&@a$K a$}&!/<@6 u-u-#)w'w'I%4-4-6!j&/y(yD@_y:y<y[y-oa:$-}y|y1y2y3y4yloWxfs5y6yoo(t7y8y9y#xuuOt0y>oaybyo]cydyeyfygyrohy'xguiyjyky_@]^$eR[w|~bm{lyg,. . .                                           ",
"                                                          . . . k@xpyb)clj!cg0!c~b]d]dsc]dyb~b/emj~bUdycx4)cAdWlDaw'K|my4-s+}&[&[& $ny[(-goy}$m(P3z#H,O6ocT4&128B= =pyqyry^tsy *tyuy(xKwovcuvywy0uxyn/Q,c*Y(n;&{0=._{:z%&%/&i!p]+#W$ 'xbI4Sd^7y8H4-!6 [@}@}@)b4- $w'u-w!w!u-*@2)[&u-4-}&&@-!ub7%}@v'u-}&g@s+r)]>a$}+<@u-yy6  $2)l: $[& $&@}+q+]>4-]>]>2)v'K|]>m8D$zyAyByCyDyEyR{FyZ|K#GyHykqIyJy^pyu5oKy5yMuLy=vMy;r_t#uNy9t0yr$OyPyQyD!RySyEuTyUyVyWyKuXyrxYyZy`yJ@ zsu.z+z)). . . .                                           ",
"                                                          . . . . @z!c^eed^7lm^e~b]dlmAdtcUdwmJmy8!csc]ebdsc3aucm{7!2)*@#z]><@6  $u-$z>)%z'tL@D$d9k,T*C'Nfb6&1^]*>]&&z*z[x=zcr-z;z+scr)y>z`vvu2sJp,z'z6(/,u=L(a'Y}#{)![#^];,L*^/r$o,e_&nf4ljq1UdZ[m{~9w'6 w!6!8]q#2)4-2)6 w']>v'!/#)6!W{#)q#w!]>w'w'W{[@-!q+q+6!r+]>l:u-[&})6 r)~8'8}&#)[&r+J%u-=@r#})2)]>]>-!}q)z!ze!~z{z]z^z/z(zGkJ<_z:zP{<z[z^p}z~p|zQt1z2z3zfx(ufrfr4z5z6zF@7z4z8z)!T-9z0z]wazbzczB~dzezfzgzhzizjz *kzlzmz. . .                                             ",
"                                                            . . . . Tjik^eAdyb^e]dbk`lVb3nybycWcmj/e3a!cybK3zbZ[l:}@w!~8W{}@K|u-I%}&nz=#=~H/{<#&'5^gv=~!p]#6=6o$@=1$Y-ozpz2sEr=rqzrz1v(x2sKw8wsz1zlptzuzx,v%9/&;R#I$k4{%V&Uf)!A%A#M*<])b~82)u-~8xbv'!/K~!/l^q#d2q#})u-6!}@u-]>u--!6 !/*/m{Sdm{[&4- $]>[&})t'u-J%&@})}&6 8]g@r#|@r#=@<@2))bW{=@=@I%]>})}@<@ $!fi(vzRnt:wzxzyz>{zzSd1/A^AzBzD CzDzEzFzGzHzIzJz!pXvvt8y{qYx4zKzLzj MzNzT1s='&{$Y)G(OzPzQz!qRzSzTzksXoUzVzWzVu,{. . . .                                             ",
"                                                              . . . _:z8)cy8sc3a[m5/y8Adnndoljyb3a3a]d]dXz[m3af4v'2)6 >8[&6 l:6 K|u-YzU*[(i-}$y{G^g1M9i%A%y-P#l*P~Zz`z Abucr.AZv8wdr+A`vov@A/t#ASn$ALzI]q;./tx$*N#y-5=u&({n&!$H-@!p^[&K~w!w!f4~9H4Z[m^2)w'C(Sd!/w'w!~9w!K~v'6 l:6 <@S^)bm^m{w!7%m{w'J%q+a,6 6 #)I%<@4-]>4-]>}@@)})]>K~u-6!g@}&w'*@6 g@=@]>w!+^Vw%AB~&A*A=AYvd&weEh)%-A;A>A/!,Ajv'AHz)A!A~A{A]A^Afxfr/A#upp(A_AI@:A1^Lx!c<Ag5H2h;V])!y-[Adw}A|A1A2A3A4ATz1o^(. . .                                               ",
"                                                              . . . . n9Xcljf4g0/nUd5/>mWmUdybyblj)cg0]d^e`l5Afn7!v'[&q#Mg]>w'4-6 g@=@J#[(4lN@75U&,)6AUh<[B}L:N#Z]+(7A8A9A.s)y^uEr^t0AcrcubuaAbAcALudA@/I$!_g]9_6-Q*/_//@_. eAC1f42)[&v'!/y8~8uc!/)bm{}@m^w!m{m{K~~9AdbcMgw!#)w!2)K~'83a~87%#)w'Da7%u-[&[&#)w!w![&u-6 [&w'8e<@@)K~}@2)#)2)]>[@u-<@]>]>g@[&[lfAgAhAa#iAjAkAlA8{~8e|^!mAnA>$H#oApAqArAsAtAuAvAjvwA4z/Afr9yxAyA5xE@L'#[m5xbg0)clmUbk594a*^~3$f%zAAABACAAwDAEA. . . .                                               ",
"                                                                . . . . =5K3q1]dy8)clnWc~bXc)c]dnnFAcdGAfd/rAkvc@fw!Mgf4)b2) $})r)m{[*HA[(h&C^IAKg~;S,#(&147R&t_'!JAKALAbAcrMA2scrhqNA^udrrzOAQpPAst^yo;t%v_0>a~'(T#._M-<#F@=;l}l^w!}@m{'8~9'82)6 }@f4)bl^6 w'2))bxbZ[K~4-=@})7%m{Z[d2Z[d2K|}@K|2)w!q#}@m^l:q#v'K~w!6 r#[&Tt6!!/2)})v'}@]>6!v'K~m^l:m^7%hgR>s&QARASATAUAVAWASd'8f>L#usPq/$#=XAusYAZA6x`AtAtAzn B9y.B+B@Bwz#BmoF@g&o$<_]ded)cUdAdmjybyb$B~14{A>.})!8={%%B. . . .                                                 ",
"                                                                  . . . e%!8nr]d0lVb3asc3nGnxb~bUb`l4c|lybH4uc@fq#!/K~~87%2)]><@Z[v'<@&BY/V0*Bo*8)l),$;]y^j*,2d%6@=B-B;BbA>BaA(xcr@s,BPsdr'B)B(p!B~B=yf#S%$-Y@c-5=f=H~m@%#$@d'a_6 Z[f4m{K~Z[m{ubq#u-!/m{m{v'}@m{z8z8Z[Z[~8K~*/W{Z[}@m{d2m{z8d2w!W{}@K~C(~8m{m{)bq#]>[&w'-!6!vfw'}@u--!K~6!w!bc)bz8Z[z8PeZey={B]BF@^B/B(Bm!Vd3arkv8A^_B:BL^J@<B[B[B}B|B1B2B3Bzn4B5B6B7B8B9B0BaB>$g,H/R&scUdwmYpWd3nH4!c3nnnXcVd422{~*]_. . . .                                                   ",
"                                                                  . . . . *%a/yb~bsc]ddowmy8/r[m]d3n3pAdK3xb!cbB4a'8m{K~!/#)@)})u-&@w'A6[([(wxcB<#h;x|z=b!N>c'.=`>dBeBrt@scrfBdr_x(tgB8wwtdrhB@siByujBkB&#);M-],_29#V#<#r$$@D 5@q1z8*@u--!v'm{Sd!/~8'87%d2bc}@})tcz8l^C(!/Z[d2!/~9m{q#l^K~~8Sdf4})7%m^w'})w' $a$|-[&YpXcq#}@bc7%K|q#m{y8z8!cAdC(~8!8Yc|l&<S-crlBmBnBoBbwpB]e]d=3J#qBrBB~P8$@sBtBuBvB}BwBxByBzBABBBCBDBX,o&,{o;B%/$C@a:~bfdVd=kz]bkbk3a8%EB!oJmcd[mK#m@. . .                                                     ",
"                                                                    . . . . . -}yb8bBdcd8bscPeGAwmbmrknnFBecQ&~9we'8)bw!v'v'}@6!]>}&4-GBt%[([(9@m@]6HB4;}{X:b*I-7#IBbtJBpvKBLBMBNBQsfrOB^t/tiqcrPBLunoTrn:@}2;b&1$z%l%o/B= !C )$<4!/m{m^Mgv'6!z8f4}@K~6!QBw!w!m{2)-!K|!8~8f4'8f4w!!/W{})4-=@H4)c6!]>}&}&6 })*.S.[&6!2)w'=@[&bc!/uby83n~b3ay8yb'8z8~bAdGjq~RB$ySBTBUBVBWB^7ed)c|:6*XBYBp&Y%P{ZBVy`B C.C+C@C+}y#L@L>J!K$h{*%{65>V;~$H@$_ddmjybbmJbTj3p>m#Cg3F1]ez]--. . . .                                                       ",
"                                                                      . . . . . q@B1yb8%rkWc]dlj$!Wdbk`lXc6&bc!/'8w'K~v'a,})<@a,}&}&})$Ct%t2[(%C,{,{K@g/ cVhm&q&Yp&C*C=C-CaA;C>Cry@sWv@sdr,C@s_x'CeqSn)C`69&{~u=->G#r=L(i$z%F@J@z=w!~8l:}@)bI4Mgl^m^z8f4d2Z[f4Sdu-#)I4K~@)*/w'z86 w'r)S.t+q+C(3aw'q+q+=@})w'6!}@!/f4bc!8m{d2'8bc'8y8yby8d2z83a~b!cy8^7<'D}!C~C$o{C]C*%`|Udy8UdG'X*^C/Cq@z%o;_@&$B=d'd'Y&1=y$3{!i >W&3>a/A)m%Q,o$D@n$s,ybln8b]d5/wmVdXnmn(CC2=5u$. . . . .                                                       ",
"                                                                          . . . . . 7#nn2pW7_COm]d]dlmVb]dH4!/u-Z[w!&@ $g@6 w'w'u-}&v':C9'[([(f%,{o*,{Z;<C/aj%7@N~a9[CXvwt^w}C@A_xbA(u|C@s@s1Cpvnp0u2C3CY%S2#|&(@}y'w-*#4C5#a#P{5Cw!>82)K~Z[})}&6 b$v'Z[)b!/f4}@}@K~~8[@*/-!=@v'u-1@q+1@r+=@6 6!d2m^K~bcw!!/Mg)bz8)c]dUbz8!l'8w!q#Z[H4z8d2UdbdAdy8!cYci;6C7Cr$8C9C0CT-]daC'8YpH$//bCcC,'h{;]L>j%t&K^G~E=8=/-V*)'N,O'L}C,*$$# b#]p@L>w-yc=k`l)cmjjmC2lmbm9mJ3Z$. . . . .                                                         ",
"                                                                            . . . . . `@d(bd8%Wcrkbd^eed3nH4!*<@r#=@t+q+=@}&g@ $u-C(w!dC[([(eCfCo*,{,{,{. `6 #f}e;gChCiq-C~qiC.shB3v8ycrbAjCkCPslCZr>vmC6uGm#-i&A:+lS2/-i&m%l&C M#nC7%v'}@!/MeH4*@6 7!!/!/2)6 #)z8C(v'w'}&&@}&K r+s+q+<@I%v'*@w!)bMg2)7!f4~9d2~9xb!c)cH4!/tcm{bcSdz8y8d2SdUd]d[mXcAdD(|/oCpC4(dyqCrCsCUbbkz82:^!tCuC_@3!vC>;F@U~)!y,wCk&=-}=K#q*xCi~X%yCzCA0v^ACn%D@D!3pWcJmWcx4nndonn()<_'{. . . . .                                                           ",
"                                                                              . . . . . . X%mjXccdbdAd]dQe'8q{@)&.&.,_&@r)]>]>}& $w'g@BC[([(V0]6o*,{o*@>j,4:[:A#]*^rCCDCbA9AiC-riCQA/thB@s#sFr#uEC~tkp2Ch^}#a-S5w!Z[H{1$J<;])$P{a#Yj<@m^d2Z[q#Sdm{)bW{}@w!2)S.s+@)u-f@|&&@]>#)a,s+=@g@w'}@Z[u-g.K~Day8bd)c3atcf4xbH4mjybH4d2z8]d!cZ[W{!8y8d2Sdkmnr)cT%FCwzn/GCHCPn,<tcamsc!cZ-X/ICJC4>;=b!t>m@j{z$I@m*b)<#d%||q;f'D@o(`<T#,{e}=&E@>$l$*5mn8%rkXcy8!biku<5=. . . .                                                               ",
"                                                                                  . . . . . +]3plj)cAdybz8m{KC[@}) $=@}&})!/[@J%6 })[&LC[([(MCZ%,{,{>;i&)&Ub`*{$o<A_NC/w(pbAOC^t/t/t(u^u/t@uQsGv(tPCarQChvRCSCTC6!yq-eE=*#[,Z@a#$@X,xfW{l^w']>7%[&q#w!<@[@8]s+}&]> $&.S.&@q+a,#)<@4-w'&@6 Mg)bucBdAd3az8d25/bkAdf4xb)cUd)cybbkscy8xbxbAdH4Aded!c)cz4K#UCVCB%WC3A::^7ybVdcoZs0-~%GyXCg,T,8<J]F@q(J1m@I'1]/!D#r(.&m,YCy'`~Z*>{H,p/E@x$y{~|codoxc[mZCJ3`C. . . . .                                                                 ",
"                                                                                    . . . . . . g-3nSq$Bq1m{ $]>m^-!u-K~v'q#K~q#Z[)bk<U*[([(4<,{,{,{%}rb1!y8a&)! Dit.DPs+D_x@D#Dcr#siC~q(xosvt#s$D%Dsthp&DM(Wh*Dv'!/=/J{B|J$-&>;P{e%zsK|w!4-K|2)}@w!4-})#)w'~82)u-[@&.&.a,Me}@d2#)6 m{W{hgyb)cg0fd3a^7yb3aAdsc~bAdq1Ady8=/Td~9d2!c!cxb)c3a!/H4!8H4-,d^=DPn-DWzoz~4sc)cbkrkUb6-`&*x_:V;T-~$->J@k&,$,|p/S,F@r$Y&w-<^o*q=a/8&$#(_b>x$M-W~A{yclmikdo`|S>. . . . .                                                                   ",
"                                                                                        . . . . . D=(o;DZ[K|}@K~C(6!v'K~7%Z[}@6!q#m^>D>)[(Y/,Do*,{<#omx0!8K3H$p%'D)DTo!D3viCiCiC3vPsiq=vQsnv~DOA(t{Deq]D^DL{z3/DMg}@*@pkJ#N,=;J@$@q$${w'6!m{K~a$7!2)w'2)}&6!w!s+s+6 6!@)[@v'l^v'6!w!)b7eAd^7z8d2yby8Sd)ckmSd~b~9d2Tdg0'8l^*@q#xbSdd2g0)c!cH4z8xbypE=(D_DB%:D<DA<bc]d>m~b)cim5;9/t&5#G#PaL@X$y,,%a>F@_>')P{<#v%f[<$o*j&a!#&$#I,n]m@y#V%=1rkcdimXcz=. . . . .                                                                     ",
"                                                                                          . . . . . >#$1zbD6q{Z[v'w!Z[m{})6 })6!m{[&[DJ#[(R<}Do*,{4>38~8K~|D>)F$1D2D3D4DlC-rpv-r/t#uFropcuPs=vQs5DArrtLu6D7D8D9D0D6!w!aDfA >`><#_@$@U{m^bcf46!~8fdZ[2)}&w!!/[@&. $f4y8K~6!6 d2q#Z[H4H4]dH4z8}@~8yb!c!cAd)cH4ybUdy8y8'8!/l^Mg!8!8f4y8)cmj~bybAd3a`~T-bD6ucDdDeDF2~9ed)cSdy8'_fDgDo]Y@tx&#g,*)u=h&E3J@[{;%a#J@Q{$]+]o*6-mc<,$#Q4hDj N>6<Y*fd~1XcA<. . . . .                                                                       ",
"                                                                                              . . . . . iDx7}@~8l^bcf4q#7!K~]>Me2)]>jD[([('&<$,{,{9_kD~9yb<'U**-lDmDnD(tOC-rOCKB/tPs#uPs@s#s8y#shqoD{ppDdu-oqD'[rDw'm{Z[/j1$B]M#a#$@6>sD3aK~w'~9bk~8[@u-K~]>})w'!8tc}@q#d2C(K~m{H4ubAdZ[Z[!8w!'8!8g0~9~9hgVb)cy8Adxbbcz8=4XzlmWmlmVb3ag0uby8Udz]u&O-tD5)uDOvf8Vb3awmmnWc)c%~`&*#^:],vDm;B=@&#f7#(3 #--g&i$~$*%&*n,$#p]u^>&$#Z]p]o* #=-x&;[7ly$. . . .                                                                           ",
"                                                                                                . . . . . $@wD@fI4AdH4H4l^w'u-w'w!8]Bb[([(M<J!,{,{xD'cWcH4t1D!]-(;yD4vUo1Cwt2s_xhq#s{qfriqnvQpGvzDADSnNoBDCDDDa82xw'4-[@]j:=,[I>F@<#l@8|m{~8w'!/)b@)u-6 -!v'~8^ebkH4!/ybXcy8m{)c~bVbVbZ[)bAd=/~8SdUdH4H43aq1Z[Z[!cyb!8xbH4C(I4yb5/lj~bed]dED)c<|3$h_+}FDGDHD$B]d8b{eGnnnW7P#9*w-a~l*D![]L=_@&~U*t,;&^!s$*>5#l@({J,F@i&Q~8-$#F~p%%#l@l@5;S1#=. . . .                                                                             ",
"                                                                                                    . . . . . ID~bAd^7~9}@*/~9d2m^vc:=[([(!%]6,{B'U$)cedsc3<o]g-^,JD-CnDcr(x~qcr#s8y_pQA(u~D'B!D/tKD{pQoLDAyMDNDGB6 6!w!.pV*t%v=4><#/!--2)I4f4ybz8w!bc)b!/Z[Sd~bsc~9Z[hgMgm{~98bz8Sd~bSd~9y8d2y8Tdf4!/C(~9z8z8sc/nODbctcWcPDybAd~9)c3ascZsscysx^({b%E@QDRDSDXcmj~byb~9~bX1o]y-=>p*V#},&&j%F@4_|^}^Z]8#Y&}$6=`)K#B$F@+<9{{!h*N@+:o;a#l@%:E@. . . .                                                                               ",
"                                                                                                      . . . . . l@TDl^)bm{d2)c'8Z[UD>)[(K#[=k(,{*>x|!cy8`lf[v=S&L^VD)BiqKBbA(t/t(t(uWDXD#x3zQsPu~qYDkpst+x&vG-E7TCw'}@z8I4Ue&[:=K^'t$@f&!/hgZD>alm)ced!8d2=/z8!c3abdxbd2w!;4yby8bcz8!cyd3aDabcq1q#H4Sdd2!cyb]dsc3a6&y8ed^e^eq13aedUd)cmj~by8[}G(.]X)x$<#E@C^mjVbVb!cg0)cm0B)=#N,*%1^t_%9C-m@>-G(`)[# 2*>u=r%J@%*FlF@I'=1x%$#L>`D&$$#J!. . . . .                                                                                 ",
"                                                                                                          . . . . .  Eu-q#Sd!8!/6 .EJ#[(Y/V(x$D^+E-eSd4p0mK#o]A=-y@E#E1CWD(piqbu$EVo9tHvgB%E#sQs&E*E5y)pjB=E #O~-Ez8y8q1K~b]{*/,q(F@$@2#;E>E3p`lz8yblmybxbyb~9hgz8ed)cHj'8!cljZ[z8ddq1~bUd~8Z[3a!cAdscUddd[mH4y8!cz8Ad~9xbyb)cy83abkAdUdddybo=`*^-##<#<#F@}|)c]d~b~b0l3ay/4=U;0n_@,Eb>>;X&N}k]3)E~w$p%g,=$B^e!8#'EF@G^@(C-%#U#l,.=m@. . . . .                                                                                   ",
"                                                                                                            . . . . . )Ee>~9d2I4Z[Jh[([(i]f&,{,{!EZ[~8d212X*l!f=~E{E]E!DJqWD^E/E(E_E:E<E[Efr#u#ufr}E>v)pdx|EY%';1Ed2sc~9q#2E/;3$5!h7r$r$a_g03a3E!8H47ehgy8y8y8Adxby8=/d2H4)c/e)cybxbbcVbmjUd~90l4Exbbdbd5/z8xb~9!cbkljxb!cyb!cH4ybmjPebdyb_[^'U5y#$#<#r$E@m]Vbfdededik5E({4=}]{84>A#txn*4$/!^&F__@V;D!>;Q*z)%##-,;$#~;`*&~i~m%M>l@. . . .                                                                                       ",
"                                                                                                                . . . . >#6E6 ~8K~7E[([(Hw8E,{X$9EK~'8H40E/,X%}haEbEcE(pXv/wdEJ@eEfEgE+sRs_tppfropkCpw)pxvLuhEC8iEVcdoyb!cH4s{e'e'&-;]v%S%rkrkbk3aUdq1nledAdUd!cyb!8I4z8y8Adedybmj~9'8Adnr~bUdybbk7ed2f4z8H4K~Z[q1/eq1y8~9)ckm~9)c~bcdGnL*^<U)L@o*<#<#Y@I@4)zp!cyb8bXcjE6]^!t[E#M#E=i/L=b#L^)!C^P{C-3$Y@*]G#$@5>.<$#n,3<3{<#a#L>. . . .                                                                                         ",
"                                                                                                                  . . . . . kEdc7!-%[([(&]hmx$,;|3]ddo8b0p6@a-lEmEcEnE/wNy*ou2Z@B>BloEpE{wfr|vqEQArENoWxsEEu|a^%X4nn}my8y8u<^'|^T{%__@1>%$[}Zl~b)cXctE3a^7z8d2yb)c3a!c~9y8VbUdz8MgscZsy8H4^7sc~bq1H4z83a>E3aI4)c)c!c!8)c}mlmmjybyb8bdo{]|=-=~$$@<#y#`}.#I@n&5/lj5/{e]dg>j-[de=`;V~^]z%9%l*q@]$I>,{~;v=Z@z#o$$#M>c%h*wka&|>m%; . . . .                                                                                           ",
"                                                                                                                    . . . . . F@uEK#[([(-#Z%$#M*{ewmikwmb%q(L_vEVxwExEyE<EzEAEwhH@&-Y*BECEDE|v8y#uQAEEhuFEGEo*Y@%-z]nn]<ffO:J(S2f,HE6=3/q$j*f4ybed~9UdVb/elj8blm3aybtc'8f4)cmj!cx0]eln5/SdscAdH4]drkGnUbZs~b[mIEyb~b7ebmfd]eJmBdy8Ad#_`*]&~$<#<#m@f=a~F@$#c*ljbd~bWcyck,+:$]1$@&V(2>l*c*Z&`@JE<{F@'{G(+#G::#F@A<O'F@s$U;D:. . . . .                                                                                             ",
"                                                                                                                        . . . . . g&Y/K#s;D^y#9)wmikXnF)=~8^3$q-KEXsLEMENEes:t~$4#m@=#y](x_pfr{qfxfrxAOEPE:t_@n$[>;[<_{*i%[(H#Q->1({,;((F@^&QEbcTdZ[z8d23alj~bg0H4f4'8z8ybedyb8b)u>msc~bybAddd)cfdMilmOm3pWc`lyb]d!c!c!cy8~b}mVb/r$4@9.&+#I]q$<#E-q2]!S $#5$xcdoljAdonJ#REd-_>q$8#8#>;|>+#t=t&U~E@n@^!/$j%H~I@I>0{_19^S~. . . . .                                                                                               ",
"                                                                                                                          . . . . . F@,&u(m@SE{]~1g5J38}B>l$u__D:pTEUE=uVE0yWE;]Z]F@M#XEYEKz9tZE{wQA`EBw FIt$@K@~%<]@:=#T{b*I@j | /$5[0><#D=1p3ay8AdAd!cxby8ljljH4z8]dscscmj~bXcij~b)cljUdy8^eybybq1y8y8Jm)cecIowm/r}m^7!c!cy8lm`~@92>o;k4-#R{E@7#42]&D i:Q*Om8%Om3ag5B)^!.&o@o&l!k&Z@P:m%K^({||,{%%B)7=4$h~| [,L#4>p@. . . . .                                                                                                 ",
"                                                                                                                              . . . . . %#%(r}$<,3<]8}8}x<p]l$Q,%p.F+F@F#o~A#Fe%/$<#f]k$$F%F&FNA*F=Fhq-F`A<#P{n,,&_l()X*k&I#h*m%>{,]e!$@o#G@%^mj~bbd]dYnWc!cscAd3a}m^7mjsc]d!cAd)cysedUd)cJmypEtAdg0z8y8cdl8T5;F`|Dl/nBd>FSdUdi[B&//_@$[@:h{,{L]]<t&=~0*x$*$()bkJmXcB3h-0=D,A%r<I$h$ #i^j 4)t&E#,{N#$= *8-S%m@l%{$| . . . .                                                                                                     ",
"                                                                                                                                . . . . . @&2> 1,34c4/<]T1,F^&7[C:y$=D'F)F!F1^+#F@r$K{A;}w~F{F&F]F]F^F/F(F,{o*<$D,uxk)&}k&(1$@##J#a*_FD@$@F@B->E3a!8!crkyb5/Wc3a^eUbbk)cUb:F!cxbljyp5/3ay8)c~bsc]dy8hgUbWcq2_=TjJmbkUb~b!cUb/<Z=0*L>p-.oV]$#d'0)!}f;4';$$#F~<_>mbkWc)'9*C4U;L>y{t[s;_{I($#0:5;N>j 0:p-$#9%u$S y$a#. . . .                                                                                                       ",
"                                                                                                                                    . . . . . i-mnOmZD*d*dl8s1b[8=P(<F[F}F|F0*m@$#$#+#@_1F4uCq2F3F:E4F%24$,{o*~$D,snw/V]u;;]$#5@+*&{9m9=$@o*$*rkubtcH4H4}mYnlmyb!c)cybljmjAdljWckmdo^eXz)cUd!cfdXcXc8b]d!c5Fl8wmBdljbded)c6F[=e%G@w&7FB&i$F@5CypypM]l$k]o@.#A:=kcdVdt&d^;,B)e!]$x&}/r%._P{U{[=K{C z'k;p@L'-#k(. . . . .                                                                                                         ",
"                                                                                                                                      . . . . . K@s{GAz]8%8%O(%/y-r:$#| 8F9Fj$m@$#o;C-D#N~:A'z0FaFbF3'q}-&o*o*o;h&Kb7Fp]C|v%7=H$`&7@/[p-$#$@1=J3!8~9xbyb4t/r!c)cAdAdAdcF!c3aUbcdJm)c!c3a!c]dbkVbmjmj)cq1)cdF~bybycWc)c5/8dT;.#b!L*d=>)w[<#*>qlcdxpk'l!h-V]G#y&nnbk<_.7X*C4B/eFV*.^Q5')#[<#>-]!F~%# =,&P{9%=&. . . . .                                                                                                           ",
"                                                                                                                                          . . . . . K#Xc/eycLci(f;$-Y@S fF'|m;,{$#$#>{%9&*gFDwTzhFiF|dy-P{o*o*E@y-2:F)p]x/J]L>=>},o]<_A=j $@$#x63asc!cAdsced8b8%3aucXzed/e>mjFUdybAdkFXc5/yb~b]dedbd)c]ejmrkdo]ez]Ub)cZ-#{M-=)[}lF:(Z$i:,{0*ljWc.o.oa/3$G,Z>=#mj8%4{^&F$V&`@j,#/s,n*m;Z*i~b-c-Y@$@I>`>I@8*. . . . .                                                                                                             ",
"                                                                                                                                            . . . . . *>A:6l)uy!^}d85#e!Y&%8`>hm$#$#$#$#3_mFnFoF>opFu|9%,{o*o*| h$g$/=fDL#Q{m%P#T{X/n5t1$#$@,{--WmjmH4bcy8q1~b[mxbmjAd!cmjJmddlnGnybBdorOmHndosc)cwmlmJmUb)cbk~b8bscx<DB #K>g5snO-M>M-r$b:_$ljbk3n8bbdy>=##!HmsnTv<>}=M]qF`)#~1$M]*%/_k$a#i&C^m%m%f*-gF*. . . .                                                                                                                 ",
"                                                                                                                                              . . . . . . R*W711}=U;B^`@z>`>b[hm$#$#$#+###{1rFsFtFZ&c*B=o*o*o*I@4:4{t|uF9*M#o;p}^!},i[!}h*$@$@_:81Ad)c~brktEscUd5/fd~bbdyb!c8brkyb~95/)c]eVdAd!cybybybvFVdrkxp]eWdmcu;#&&{^elnL*0}q]$@G:@&k,Vbkmy8scWd;[b%K:]dVbXnE(9*h;Y)a#m$x^l!S#i>M-X$U%<{$@m%=&`=. . . .                                                                                                                   ",
"                                                                                                                                                  . . . . . V#o]q(wFh*T&5'V;M>T~$#$#$#a#G->-~:{|d<y>w$o*o*o*o*P{V;@(x<9*W^4)&&y]>)u;#_a*j /$$@>$M[bk~brkZs~b!cXcljVb)c)c~bBdik5/ybXc/nmjOmWccdyc8bfd~bWdG)ljedVbmc -e^#Cmjljg5';3{<#X$xFC/4{kmVb!lGAik8%#!q2Zs>m%^#-J< -.<O,G$z=U*Z&c*7=p&ct4:L>/$. . . . .                                                                                                                     ",
"                                                                                                                                                    . . . . . . K< bD@B^d-#&Z@;&<#$# !me -$%I/]<t1 'k@$#o*o*o*o*8<g};Fp]t&H{4[iki%~%3<'%| yF7]~_N,UbscUb5/xbW7OmAd)c^eWcljzFycVbmjkmcdz]GAlmwmwm8%^eyb)c]d3a&nj)I6snmjbmBd[m |`>L>$@AF@:s$2{xpXcWcwm(CWd8bco7lim^<y-l!D,|#w[a{j!b))$H)<#Y@J$._<#. . . . .                                                                                                                       ",
"                                                                                                                                                        . . . . . L>.=0=c-G%$#>%>{f:Y11/'bFli&u<*-p>#=Z@o*o*o*o*i$&*~1z*q;jmODrkM]L#]&BFF@31J]$@G^#C)cAd0l]dXn3p8%~bXcljAdlmijikcdbkbmXcbktEAdlm~uUdWm(CCF7l4cDF09`lGAik]eC1e'O;_@6-:,x!@_H:8%Wm8bjm=kxoEFrkx4sna_H]meR<G%I'M]M]@>`@Z]S ; . . . . . . .                                                                                                                         ",
"                                                                                                                                                          . . . . . . 5;L]h*$#,{W$_)*-t_D}&{$%.][|W).<,;,{o*o*o*e!~%m5NdG'mjrklj.^5>V]'!H#FFg,o#Y&L[q1^7bdbmnn7lGFtcAdVb>mwmimxoTjW7WcscEF4t~b8%rkwmsnyp!u>m:F~b^7>mDlyp64=>Axm%6-)&}=Qd/=.o)u{e8bZsrkHF7l8brkk)=~u;o=h-7=#]]^M-. . . . . . . . . . .                                                                                                                           ",
"                                                                                                                                                              . . . . . m@$#$# *c#2{9)6@Pa`-y$5;w-0>_,Y)F@o*o*o*,{2=5*7l__VbYcjm/&U;g->;q$x;],&&,]IFUd/e~b]d=k.orkXcxp{e/n4tz]UbljrkrkjmJFscybJmYn]eVb~bnn8% p7lbm>aTjbk+(:$I-_3ycKF:(8#=5LF=kmjvFik098brkrksc`|B:C-i$>#. . . . . . . . . . . . .                                                                                                                               ",
"                                                                                                                                                                . . . . . . s$*%Q;@~{5-%*~D!D$~'o@u(,}]&+#o*o*o*E@C#4|ypdo~b3n@~']/=-2j b/t]`=>|[#I9Ub)c)cljUb>mbm>m/erk=k4/=kIE8bcdJmbd3a!ced!cUd!olmycTjTjQ%4t=kODTjU^l!1]C!N0hgvF@(1$U^3pvF]dybVbVbMFL:5=a#Z;. . . . . . . . . . . . .                                                                                                                                       ",
"                                                                                                                                                                    . . . . . G-']C,xoY]`&c>t]i$a#l!%$q*q]o*o*o*o*((h1z]wm1!%1T({fa_4>#pS1V!l@3/`@{fVb!cXz8b)c^eWcWdsc/nnnC2Wc8%Xn{elmWc)c!c^7~9!cXcW7sn;[VdOmz]8%WcxoNFq;%2]d]e3aOF<_x=#7f4d_]~PF&$>#. . . . . . . . . . . . .                                                                                                                                                 ",
"                                                                                                                                                                      . . . . . X$'];[S1f=^&meD'h]u$;$u;z>,{o*o*o**%q;<]:]__8:&<A]QF~<<]8#X3%#V;V%^[nrmjQ%Yn~b~brkx4mjddlj)cRF;[sn8%Tj8b0llj=43alj=kVd3pypVd8%8%coYn!<D>G)WcXn>mscy<a2I,>;>#. . . . . . . . . . . . .                                                                                                                                                           ",
"                                                                                                                                                                          . . . . . B:Tv+*0}NF$4q:b)x&I#K<P{o*o*o*L>SFg-v_w-A=|%F*Z@'%)&p%p]o*#[~'K:]d~bcdrk3nmjrk=kUbZsYnlmsnF)ikypz]Ynz4Xnikrkimwm8%=krk3nWc>mxo641!Jm4|c-#%y#; . . . . . . . . . . . . .                                                                                                                                                                     ",
"                                                                                                                                                                            . . . . . Y@g,I-H@g&$%<,/_&&K^/!,{$#o*F@I'I{C!C!bew{V0u<H{-#W&P;$#Z$>&`<fdcdcdbkBdnndoljGA8%'asn8}64k)4cxoF)W74c{eW7LcTFk'D_Jmz8xbW'}=j%;&; . . . . . . . . . . . . .                                                                                                                                                                               ",
"                                                                                                                                                                                . . . . . . . . . . . . . . . . . . >#Y@ #g,->Z*1=0#[,D:|^.=m@]$I(8{Mgy8nr3a'8~brk/enn09EtBd!o64UFOmxo{eVd64.odo8bybo'L#m;s$;/. . . . . . . . . . . . .                                                                                                                                                                                         ",
"                                                                                                                                                                                  . . . . . . . . . . . . . . . . . . . . . . . . . . . . . . . . . %,Z@L$[#h{o@9-]_{%5>/-a&D>.]6d=3)c]dUba!D! &I,. . . . . . . . . . . . . .                                                                                                                                                                                                   ",
"                                                                                                                                                                                          . . . . . . . . . . . . . . . . . . . . . . . . . . . . . . . . . . . . . . . . . . . . . . $@. . . . . . . . . . . . . .                                                                                                                                                                                                             ",
"                                                                                                                                                                                                                          . . . . . . . . . . . . . . . . . . . . . . . . . . . . . . . . . . . . . . . .                                                                                                                                                                                                                       "};
